Epson_XP-960/Canon/MP-101_Matte_Photo_Paper/Canon_MP-101_XP_960.ti2
CTI2   

DESCRIPTOR "Argyll Calibration Target chart information 2"
ORIGINATOR "Argyll printtarg"
CREATED "Fri Sep 14 13:26:58 2018"
TARGET_INSTRUMENT "X-Rite ColorMunki"
COMP_GREY_STEPS "16"
APPROX_WHITE_POINT "95.106486 100.000000 108.844025"
COLOR_REP "iRGB"
PAPER_SIZE "210.0x297.0"
RANDOM_START "148"
STEPS_IN_PASS "15"
PASSES_IN_STRIPS2 "14"
STRIP_INDEX_PATTERN "A-Z, A-Z"
PATCH_INDEX_PATTERN "0-9,@-9,@-9;1-999"
INDEX_ORDER "STRIP_THEN_PATCH"

NUMBER_OF_FIELDS 8
BEGIN_DATA_FORMAT
SAMPLE_ID SAMPLE_LOC RGB_R RGB_G RGB_B XYZ_X XYZ_Y XYZ_Z 
END_DATA_FORMAT

NUMBER_OF_SETS 210
BEGIN_DATA
1 "D13" 100.0000 100.0000 100.0000 95.10649 100.0000 108.8440 
2 "F1" 20.62257 18.31693 79.67956 14.12151 8.005077 57.72678 
3 "K4" 37.04128 86.30045 15.76257 31.35578 54.23954 11.68333 
4 "K11" 13.89487 63.29290 54.60288 19.01958 28.58504 29.65538 
5 "A4" 100.0000 0.00000 0.00000 41.83017 22.05217 2.913230 
6 "C6" 0.00000 0.00000 65.71603 7.958603 3.783002 37.65168 
7 "I15" 28.16663 13.93606 63.15862 10.61769 6.128209 34.89907 
8 "I2" 59.24620 30.01755 27.76532 17.36561 13.16171 8.356084 
9 "C1" 0.00000 100.0000 46.77958 39.71920 73.12591 30.25698 
10 "I11" 86.66667 86.66667 86.66667 69.04418 72.58246 78.97718 
11 "N8" 80.00000 80.00000 80.00000 57.82407 60.77891 66.11917 
12 "L2" 73.33333 73.33333 73.33333 47.76462 50.19637 54.59125 
13 "J9" 66.66667 66.66667 66.66667 38.82872 40.79580 44.35090 
14 "F2" 60.00000 60.00000 60.00000 30.97732 32.53613 35.35337 
15 "C8" 53.33333 53.33333 53.33333 24.16914 25.37393 27.55134 
16 "F5" 46.66667 46.66667 46.66667 18.36029 19.26302 20.89453 
17 "M11" 40.00000 40.00000 40.00000 13.50377 14.15396 15.32905 
18 "K7" 33.33333 33.33333 33.33333 9.548794 9.993329 10.79674 
19 "E15" 26.66667 26.66667 26.66667 6.439866 6.722738 7.233970 
20 "G6" 20.00000 20.00000 20.00000 4.115373 4.277372 4.570151 
21 "C11" 13.33333 13.33333 13.33333 2.505355 2.583633 2.725105 
22 "I12" 6.666667 6.666667 6.666667 1.527504 1.554934 1.604508 
23 "F14" 0.00000 100.0000 0.00000 36.40521 71.80052 12.80184 
24 "M7" 0.00000 0.00000 100.0000 18.87111 8.147314 95.12896 
25 "A11" 100.0000 0.00000 100.0000 59.70128 29.19948 97.04219 
26 "K3" 100.0000 100.0000 0.00000 77.23538 92.85269 14.71507 
27 "J12" 0.00000 0.00000 0.00000 1.000000 1.000000 1.000000 
28 "J11" 0.00000 100.0000 100.0000 54.27632 78.94783 106.9308 
29 "J7" 0.00000 50.45090 100.0000 26.59801 23.59897 97.70462 
30 "F7" 100.0000 0.00000 36.86732 43.83105 22.85240 13.45209 
31 "A15" 100.0000 26.64073 0.00000 43.87276 26.13678 3.594100 
32 "I6" 93.33333 93.33333 93.33333 81.46035 85.64427 93.20584 
33 "C4" 51.87304 100.0000 0.00000 45.86941 76.68029 13.24531 
34 "A3" 49.80697 0.00000 100.0000 27.53789 12.61594 95.53507 
35 "B15" 0.00000 32.28656 0.00000 4.012243 7.023643 2.004089 
36 "E3" 0.00000 0.00000 0.00000 1.000000 1.000000 1.000000 
37 "B7" 100.0000 68.52369 100.0000 74.82799 59.44868 102.0845 
38 "G11" 64.45869 0.00000 0.00000 16.23331 8.854345 1.713806 
39 "B14" 100.0000 100.0000 74.55253 86.44926 96.53766 63.24552 
40 "B9" 67.58984 100.0000 100.0000 71.19742 87.67241 107.7237 
41 "H15" 0.00000 0.00000 26.79789 2.043200 1.417214 6.494641 
42 "A6" 100.0000 100.0000 50.92241 81.21501 94.44429 35.67620 
43 "N9" 100.0000 34.60746 100.0000 63.17657 36.14910 98.20063 
44 "D10" 38.42985 0.00000 54.96910 10.68572 5.450449 25.98488 
45 "N12" 48.78614 47.90723 0.00000 16.19790 19.09165 3.691769 
46 "J1" 0.00000 30.98955 25.00496 4.679622 6.903056 6.714293 
47 "L4" 75.86175 100.0000 25.46883 59.23479 83.46244 18.79470 
48 "L3" 28.36805 25.26741 100.0000 23.38172 13.20303 95.86729 
49 "J2" 100.0000 71.80591 51.46105 62.68881 57.25029 29.95337 
50 "F6" 100.0000 52.52918 0.00000 50.26371 38.91689 5.724434 
51 "L11" 0.00000 66.01968 0.00000 14.92810 28.85231 5.642740 
52 "M13" 50.03128 100.0000 57.36629 50.31509 78.37581 40.38353 
53 "H6" 51.07347 58.82811 100.0000 38.82167 34.46262 99.15782 
54 "F3" 100.0000 0.00000 73.22652 50.68209 25.59238 49.53721 
55 "D4" 31.04753 100.0000 100.0000 57.48298 80.60120 107.0811 
56 "N3" 0.00000 54.43198 41.56405 12.68743 20.25198 17.60081 
57 "D12" 26.83146 100.0000 0.00000 38.79454 73.03246 12.91380 
58 "N15" 30.86900 0.00000 0.00000 4.168993 2.633943 1.148493 
59 "G4" 100.0000 46.89403 48.81514 52.06202 36.70256 24.24344 
60 "A1" 0.00000 100.0000 75.33684 45.83728 75.57275 62.48155 
61 "G10" 0.00000 22.73747 100.0000 20.36812 11.14092 95.62797 
62 "A9" 76.81239 0.00000 100.0000 41.37673 19.75129 96.18353 
63 "L1" 24.44800 100.0000 51.03532 42.39196 74.42480 33.95641 
64 "C10" 82.68711 0.00000 55.01030 32.26139 16.57406 27.03556 
65 "M8" 23.46838 23.28832 0.00000 4.403804 5.082242 1.608719 
66 "A7" 0.00000 76.71321 100.0000 38.32993 47.05952 101.6153 
67 "J8" 0.00000 28.88228 76.90852 13.27981 9.752894 53.83099 
68 "N13" 65.47494 0.00000 75.28038 26.18592 12.89678 51.33623 
69 "E14" 74.50217 46.29435 0.00000 28.43967 24.67621 4.125001 
70 "H12" 53.42947 30.96056 100.0000 31.72759 18.87913 96.52338 
71 "I3" 100.0000 100.0000 26.63462 78.26594 93.26484 20.14313 
72 "M5" 100.0000 76.77882 0.00000 61.32688 61.04013 9.412188 
73 "F4" 0.00000 65.01106 22.60777 15.20841 28.21716 9.423702 
74 "I1" 46.90471 73.59274 0.00000 26.34864 40.38861 7.268083 
75 "E7" 75.10948 100.0000 50.92546 61.79011 84.42869 34.76828 
76 "J10" 0.00000 100.0000 21.94095 37.11068 72.08266 16.51761 
77 "E11" 100.0000 40.29603 72.99153 55.39676 35.12165 50.79656 
78 "G14" 70.89036 0.00000 29.28054 21.05956 11.19864 8.445033 
79 "M6" 100.0000 60.43641 79.68261 63.98479 49.24548 63.06495 
80 "E13" 100.0000 21.22683 50.55467 47.05977 26.24269 23.98471 
81 "K6" 22.48875 0.00000 100.0000 20.56135 9.018808 95.20816 
82 "D9" 24.64637 48.79835 100.0000 28.08155 23.56775 97.62046 
83 "G2" 12.42390 86.07462 63.05791 33.13888 54.24654 42.88485 
84 "J14" 26.53086 100.0000 24.10010 39.58764 73.34352 17.36807 
85 "H9" 0.00000 18.05295 47.35180 5.370364 4.297583 19.23980 
86 "K2" 34.12222 54.96605 62.42924 20.41398 24.10645 37.00828 
87 "N2" 46.24857 0.00000 22.85496 9.151094 5.114456 5.365945 
88 "E10" 79.36828 51.29320 100.0000 51.09933 36.65032 98.93347 
89 "H5" 24.75776 100.0000 77.47463 48.48522 76.86748 65.78987 
90 "J4" 42.29038 64.65400 41.38705 22.95348 31.75991 19.15984 
91 "J13" 72.23468 17.46242 46.84672 24.85344 14.26707 19.73164 
92 "C9" 86.46525 59.96338 11.99359 41.87088 38.76118 7.391975 
93 "L5" 0.00000 64.74556 75.10643 23.70743 31.42201 54.78789 
94 "M10" 75.77630 100.0000 0.00000 58.23655 83.05683 13.82481 
95 "G7" 76.32715 13.69955 66.88792 31.01858 16.52083 40.35469 
96 "I13" 25.71756 75.93042 100.0000 40.08468 47.30863 101.5710 
97 "N7" 23.12505 48.69612 0.00000 9.941939 16.23399 3.469648 
98 "B3" 77.71572 19.56817 0.00000 25.22797 15.16177 2.457590 
99 "E1" 82.20493 15.73816 29.96719 29.26979 16.54641 9.358307 
100 "J5" 23.11742 37.27626 72.00427 15.36456 13.44031 47.34068 
101 "K1" 49.76577 22.74052 0.00000 11.14872 8.455159 1.904548 
102 "I9" 51.58465 100.0000 83.72778 57.71064 81.40287 76.20826 
103 "K14" 27.83856 0.00000 76.28443 13.27171 6.205398 52.21023 
104 "L8" 87.16258 28.85634 61.06355 39.21881 23.57864 34.36676 
105 "J15" 58.30167 0.00000 46.12039 16.42596 8.581860 18.50368 
106 "E9" 100.0000 46.21500 25.25978 49.15455 35.21446 9.932676 
107 "B1" 76.62776 23.33104 100.0000 42.82961 22.83603 96.70246 
108 "G13" 38.90440 78.05600 86.74754 39.29635 49.27242 76.18702 
109 "H11" 0.00000 0.00000 0.00000 1.000000 1.000000 1.000000 
110 "B10" 69.40719 75.37499 49.75662 41.44130 49.17821 28.01336 
111 "F12" 24.28779 0.00000 23.89868 3.795231 2.344947 5.476412 
112 "H4" 73.60952 73.29061 0.00000 39.03173 46.68695 7.815850 
113 "F8" 10.09995 51.94629 68.36194 17.24292 20.71335 43.76987 
114 "K12" 66.13565 30.95903 63.41802 26.32109 17.41425 36.55514 
115 "C5" 100.0000 80.40894 76.83223 73.31083 69.23697 62.03486 
116 "D1" 11.09789 44.04517 32.08972 8.754753 13.38950 10.85478 
117 "F13" 100.0000 74.20462 26.68040 60.92890 58.58998 14.38145 
118 "H3" 41.04067 37.07637 14.36790 11.06352 12.10405 4.317211 
119 "I14" 0.00000 77.27169 50.23575 24.64201 42.09541 27.94616 
120 "G12" 51.61212 72.78859 27.05119 28.72779 40.85463 12.80543 
121 "E4" 91.76776 45.76638 91.15282 55.34402 36.64157 80.94477 
122 "K13" 100.0000 19.38811 23.56298 43.74576 24.58731 7.547108 
123 "G15" 62.67033 87.61730 64.46479 48.22263 63.51748 45.54251 
124 "I7" 88.10101 57.47311 39.62310 44.22663 38.24887 18.11544 
125 "M1" 34.48386 31.20012 56.15778 12.71047 10.63647 28.05715 
126 "K9" 100.0000 19.93591 79.96796 53.77676 28.69384 60.08917 
127 "F9" 50.26322 100.0000 28.49012 46.42369 76.82968 19.42739 
128 "M9" 29.11421 83.92004 33.43099 29.25441 50.71110 17.67008 
129 "C7" 20.35554 77.26558 0.00000 22.17138 41.26303 7.656881 
130 "N10" 48.17121 21.23140 47.06188 13.73342 9.124953 19.49725 
131 "H8" 36.66285 27.19005 80.90486 18.71326 12.01045 60.21192 
132 "D7" 48.15442 74.21683 58.39170 32.49236 43.43723 35.64930 
133 "B4" 86.81926 96.31647 39.09819 65.41434 82.20040 25.14557 
134 "C13" 52.63142 20.99336 72.93660 20.82563 12.11401 48.09831 
135 "D11" 0.00000 0.00000 0.00000 1.000000 1.000000 1.000000 
136 "B12" 100.0000 100.0000 100.0000 95.10649 100.0000 108.8440 
137 "H14" 63.29595 60.32502 13.70718 27.34528 31.48707 7.068507 
138 "B6" 7.905699 15.36431 30.46616 3.363498 3.137227 8.367899 
139 "C2" 76.37293 100.0000 78.54276 68.97836 87.39763 68.38291 
140 "F10" 16.76814 0.00000 47.48608 5.398771 2.872155 19.07227 
141 "I4" 64.31678 62.47654 89.54147 42.39811 39.03339 79.08644 
142 "K8" 7.689021 5.679408 82.01877 12.85242 6.031491 61.17879 
143 "B13" 0.00000 41.67849 58.94102 11.60580 13.45075 31.54478 
144 "A10" 61.14137 34.86839 45.82895 21.25805 16.31700 19.51429 
145 "A2" 76.44312 46.03494 49.48653 33.34797 26.65991 23.86051 
146 "B5" 85.58633 0.00000 14.96757 30.04820 15.93697 4.183399 
147 "L9" 51.01701 84.35798 100.0000 52.08693 61.02199 103.5859 
148 "J3" 31.83185 57.88357 85.17891 27.22451 28.55393 70.08483 
149 "H13" 79.95270 39.74060 78.93797 40.73411 27.16234 58.85820 
150 "E2" 77.50820 78.70146 100.0000 62.44381 61.19745 103.0743 
151 "G5" 79.49493 68.68086 28.23835 41.66868 44.39965 13.30806 
152 "E5" 44.63416 55.74121 20.64851 18.07272 23.97407 7.829737 
153 "L6" 67.47387 28.29480 83.87579 32.16355 19.09912 65.77686 
154 "I10" 21.90738 35.09728 12.41932 6.438923 9.085364 3.604157 
155 "H2" 100.0000 100.0000 100.0000 95.10649 100.0000 108.8440 
156 "L13" 28.98604 78.14450 53.76974 28.54961 44.78690 31.47997 
157 "F15" 47.23125 12.89693 15.53063 9.637269 6.204813 3.502782 
158 "A14" 9.330892 84.73182 14.11917 26.01252 49.96732 10.78790 
159 "D8" 37.16182 86.67735 71.24895 39.58308 57.93461 53.61590 
160 "K15" 59.13329 43.65301 88.02472 32.64217 24.16997 73.96922 
161 "N4" 18.64042 88.77546 91.60449 43.85911 61.51699 87.20696 
162 "F11" 9.279011 16.79561 64.24506 8.832889 5.533269 36.16203 
163 "M14" 88.42756 50.73930 64.04211 46.28967 35.20107 39.67318 
164 "D6" 89.32021 86.61021 13.91470 58.47300 68.53524 12.62133 
165 "A12" 59.48730 82.57420 82.81071 48.38133 58.15059 70.67631 
166 "K10" 20.08850 68.03082 33.01137 18.84077 32.10809 14.40777 
167 "B11" 11.05364 30.85679 41.95468 6.851523 7.788202 15.77256 
168 "E8" 100.0000 100.0000 100.0000 95.10649 100.0000 108.8440 
169 "M4" 87.13359 31.09483 13.55764 33.96582 22.10276 4.878978 
170 "G3" 40.12970 42.83665 89.68338 25.86133 20.27612 76.59828 
171 "J6" 24.19165 70.08011 74.48539 28.04393 37.47963 54.82378 
172 "N5" 69.82681 50.56229 69.46975 34.82600 29.05248 45.90106 
173 "D3" 88.64729 22.01266 90.03128 47.55775 25.46390 77.10170 
174 "D5" 4.092470 47.84161 13.72702 8.320013 14.96536 4.885214 
175 "C3" 69.46059 59.88708 40.70802 32.67559 33.71641 18.56548 
176 "A5" 59.28283 47.34264 31.28557 21.82882 21.57203 11.34770 
177 "L14" 9.539940 85.51919 34.92638 28.01066 51.58842 18.71595 
178 "E6" 26.48814 52.91829 41.48318 14.46335 20.36362 17.47383 
179 "B2" 10.44938 57.14504 86.46220 24.42580 26.63221 72.09780 
180 "N14" 41.50301 9.378195 86.15091 19.93577 9.766058 68.53218 
181 "L12" 83.07622 63.93683 86.67124 53.73475 45.94999 74.65203 
182 "B8" 88.28565 79.79706 41.22530 55.57036 60.39232 22.85827 
183 "D2" 60.45014 80.17853 3.779660 35.76001 50.80332 9.056793 
184 "M2" 70.86137 82.06302 20.26551 43.03998 56.20231 12.62095 
185 "H7" 85.65805 35.53216 34.39536 35.15567 23.85827 12.69382 
186 "C15" 22.00198 18.39780 46.63157 6.914856 5.157751 18.74612 
187 "A8" 36.59419 13.37606 33.07088 7.667494 5.098110 9.813212 
188 "C14" 11.63500 39.49950 86.43931 18.94696 15.56642 70.20956 
189 "N1" 61.90585 86.39811 38.13840 42.50255 59.87852 21.44042 
190 "A13" 74.18326 42.87633 20.72328 27.90145 22.88523 7.124660 
191 "M15" 44.41749 88.95247 43.51263 37.76499 59.92235 25.31879 
192 "E12" 49.50790 64.17334 77.40597 32.65729 35.57675 58.54731 
193 "N6" 16.36835 66.22110 14.14206 16.27340 29.64926 7.383516 
194 "I8" 87.44793 87.55169 61.69070 63.37255 71.33369 43.01907 
195 "L15" 35.90143 12.56275 6.305028 5.930908 4.291914 1.864289 
196 "G9" 86.66514 67.48150 62.08743 51.27976 47.91301 39.58665 
197 "K5" 59.60632 11.38781 25.88693 15.22917 8.870995 6.875775 
198 "G8" 7.559319 80.01373 79.11955 33.18432 48.11734 63.58461 
199 "L10" 65.34218 20.03662 12.05768 18.11699 11.54321 3.400174 
200 "D14" 48.19715 40.27771 69.35531 21.69009 17.84506 44.27992 
201 "C12" 83.06249 4.364080 82.49332 39.50922 19.69616 63.19419 
202 "G1" 60.01984 36.80171 8.430610 18.10366 15.66388 3.656625 
203 "D15" 58.26963 14.55863 92.54749 28.84573 14.60133 80.74433 
204 "L7" 55.43755 92.39643 14.46708 41.85345 65.93701 13.10758 
205 "H10" 34.51591 67.95148 12.44831 20.08847 32.84860 7.477474 
206 "M12" 15.02708 18.50767 95.89380 19.06450 9.940080 86.95125 
207 "N11" 26.73381 51.85931 18.36576 12.07890 18.82679 6.503548 
208 "M3" 18.45579 40.37537 55.78393 11.81417 13.13522 28.21363 
209 "I5" 53.75296 5.482567 62.57115 17.62468 9.079890 34.41781 
210 "H1" 95.26513 7.344167 53.59884 42.24367 22.08632 26.21571 
END_DATA
