Epson_XP-960/Canon/MP-101_Matte_Photo_Paper/Canon_MP-101_XP_960.ti3
CTI3   

DESCRIPTOR "Argyll Calibration Target chart information 3"
ORIGINATOR "Argyll chartread"
CREATED "Fri Sep 14 15:06:48 2018"
DEVICE_CLASS "OUTPUT"
COMP_GREY_STEPS "16"
COLOR_REP "iRGB_XYZ"
TARGET_INSTRUMENT "X-Rite ColorMunki"
DEVCALSTD "XRGA"
SPECTRAL_BANDS "106"
SPECTRAL_START_NM "380.000000"
SPECTRAL_END_NM "730.000000"

NUMBER_OF_FIELDS 114
BEGIN_DATA_FORMAT
SAMPLE_ID SAMPLE_LOC RGB_R RGB_G RGB_B XYZ_X XYZ_Y XYZ_Z SPEC_380 SPEC_383 SPEC_387 SPEC_390 SPEC_393 SPEC_397 SPEC_400 SPEC_403 SPEC_407 SPEC_410 SPEC_413 SPEC_417 SPEC_420 SPEC_423 SPEC_427 SPEC_430 SPEC_433 SPEC_437 SPEC_440 SPEC_443 SPEC_447 SPEC_450 SPEC_453 SPEC_457 SPEC_460 SPEC_463 SPEC_467 SPEC_470 SPEC_473 SPEC_477 SPEC_480 SPEC_483 SPEC_487 SPEC_490 SPEC_493 SPEC_497 SPEC_500 SPEC_503 SPEC_507 SPEC_510 SPEC_513 SPEC_517 SPEC_520 SPEC_523 SPEC_527 SPEC_530 SPEC_533 SPEC_537 SPEC_540 SPEC_543 SPEC_547 SPEC_550 SPEC_553 SPEC_557 SPEC_560 SPEC_563 SPEC_567 SPEC_570 SPEC_573 SPEC_577 SPEC_580 SPEC_583 SPEC_587 SPEC_590 SPEC_593 SPEC_597 SPEC_600 SPEC_603 SPEC_607 SPEC_610 SPEC_613 SPEC_617 SPEC_620 SPEC_623 SPEC_627 SPEC_630 SPEC_633 SPEC_637 SPEC_640 SPEC_643 SPEC_647 SPEC_650 SPEC_653 SPEC_657 SPEC_660 SPEC_663 SPEC_667 SPEC_670 SPEC_673 SPEC_677 SPEC_680 SPEC_683 SPEC_687 SPEC_690 SPEC_693 SPEC_697 SPEC_700 SPEC_703 SPEC_707 SPEC_710 SPEC_713 SPEC_717 SPEC_720 SPEC_723 SPEC_727 SPEC_730 
END_DATA_FORMAT

NUMBER_OF_SETS 210
BEGIN_DATA
1 "D13" 100.0000 100.0000 100.0000 80.32888 82.71517 69.60074 76.15854 76.15854 76.15854 76.15854 76.15854 76.15854 76.15854 76.18411 76.18972 76.13900 75.99559 75.94893 76.18860 77.62461 78.92730 80.08766 80.92523 81.51818 81.99764 82.57247 83.22474 83.93129 84.68804 85.32090 85.82987 86.51514 87.29020 87.92082 88.50421 88.91206 89.01646 88.64707 88.05725 87.39811 86.77792 86.05879 85.68459 85.34537 85.00400 84.65215 84.30333 83.96111 83.52081 83.09114 82.76400 82.46528 82.22780 82.08003 81.95326 81.82183 81.69700 81.48737 81.19711 80.88865 80.62024 80.47438 80.40363 80.39219 80.39104 80.40678 80.49174 80.69352 80.96551 81.25560 81.56766 81.90652 82.29871 82.72971 83.20483 83.69940 84.19583 84.65321 85.09635 85.59933 86.05592 86.49803 86.99973 87.50805 87.97552 88.43677 88.84852 89.20726 89.61589 90.02151 90.20242 90.39420 90.56068 90.54259 90.46672 90.46046 90.47767 90.50025 90.48171 90.38937 90.42069 90.62411 90.88742 90.96987 91.21569 91.40205 91.34177 91.23603 91.23993 91.65615 92.15032 92.15578 
2 "F1" 20.62257 18.31693 79.67956 8.345681 6.362411 15.64834 23.86867 23.86867 23.86867 23.86867 23.86867 23.86867 23.86867 23.87804 23.88117 23.86666 23.82311 23.80990 23.88647 24.25563 24.51570 24.58820 24.39764 24.01702 23.54188 23.03400 22.45315 21.76686 20.95956 20.00476 18.97997 18.01009 17.02692 15.94537 14.91120 13.97029 13.11386 12.36697 11.82696 11.33516 10.78273 10.17147 9.541030 8.834105 8.170396 7.551988 7.037382 6.619412 6.314994 6.102538 5.951737 5.824250 5.705524 5.570324 5.391180 5.184064 4.959872 4.727245 4.518381 4.345539 4.224787 4.167995 4.172180 4.208513 4.285160 4.396256 4.528633 4.685939 4.850846 5.037274 5.238044 5.441177 5.662310 5.901294 6.165811 6.469275 6.804995 7.177409 7.614537 8.105337 8.639902 9.226792 9.853000 10.53336 11.22979 11.94840 12.67459 13.39110 14.11495 14.85865 15.57504 16.26243 16.97457 17.68016 18.38522 19.20760 20.15145 21.20143 22.25967 23.43862 24.78177 26.31004 27.89258 29.50266 31.23860 33.07502 34.82792 36.59415 38.45120 40.35959 42.26658 43.98768 
3 "K4" 37.04128 86.30045 15.76257 14.59149 23.18071 5.987254 5.186603 5.186603 5.186603 5.186603 5.186603 5.186603 5.186603 5.187157 5.186335 5.181664 5.170671 5.166249 5.181268 5.053163 4.963839 4.904619 4.834279 4.758851 4.696108 4.660758 4.646969 4.655933 4.712518 4.797472 4.882529 5.042030 5.283002 5.541166 5.888095 6.403599 7.182088 8.430107 10.23819 12.70428 15.90906 19.72264 24.04200 28.47256 32.51725 35.89473 38.47405 40.18765 41.08734 41.33952 41.06865 40.33668 39.20133 37.72690 35.92764 33.86658 31.65458 29.31981 26.95036 24.62691 22.40716 20.35177 18.45610 16.74889 15.27566 14.03013 13.02065 12.23664 11.63988 11.21102 10.92076 10.74696 10.69087 10.73379 10.88326 11.13855 11.49765 11.96426 12.52196 13.17786 13.91807 14.72689 15.62507 16.58039 17.56468 18.56957 19.57305 20.55717 21.55561 22.55101 23.46617 24.41082 25.35290 26.29601 27.32033 28.35601 29.46816 30.68939 32.01710 33.40725 34.95180 36.68230 38.50212 40.34481 42.30727 44.27536 46.11571 47.87773 49.64355 51.70721 53.77530 55.22011 
4 "K11" 13.89487 63.29290 54.60288 7.652447 11.41891 11.82703 13.14629 13.14629 13.14629 13.14629 13.14629 13.14629 13.14629 13.15093 13.15213 13.14361 13.11908 13.11127 13.15287 13.19096 13.25927 13.30368 13.27184 13.18870 13.08982 13.01707 12.96384 12.93871 12.97009 13.02388 13.09920 13.24719 13.41096 13.62156 14.02266 14.61714 15.44761 16.64425 18.21826 19.94688 21.60041 22.93609 23.92196 24.37867 24.31748 23.87195 23.19020 22.39342 21.52350 20.63503 19.72064 18.74403 17.68222 16.54165 15.31889 14.05186 12.79695 11.57373 10.42348 9.370684 8.429242 7.611041 6.894383 6.283776 5.781171 5.371507 5.055886 4.828398 4.664157 4.564894 4.514965 4.496374 4.518891 4.574222 4.663757 4.795639 4.969859 5.187545 5.444900 5.740229 6.077437 6.456336 6.875210 7.328374 7.808795 8.313999 8.835943 9.359163 9.900517 10.44851 10.96182 11.50028 12.05947 12.62024 13.22310 13.86383 14.56119 15.37091 16.28001 17.27220 18.38691 19.63457 20.97920 22.40308 23.93062 25.48752 27.07520 28.64507 30.26585 32.09662 33.93923 35.49625 
5 "A4" 100.0000 0.00000 0.00000 30.51252 16.23531 2.496117 3.183668 3.183668 3.183668 3.183668 3.183668 3.183668 3.183668 3.183413 3.182310 3.178838 3.171481 3.168146 3.176728 3.172421 3.156648 3.124435 3.085800 3.045952 3.006505 2.976157 2.946328 2.914771 2.893481 2.879708 2.867986 2.862905 2.824485 2.778185 2.791781 2.801972 2.846156 2.980707 3.156712 3.388378 3.637317 3.824267 3.918993 3.941446 3.885903 3.766980 3.633132 3.525936 3.448954 3.416539 3.424106 3.454770 3.489517 3.516542 3.519853 3.507585 3.478803 3.453288 3.447981 3.492139 3.617880 3.858094 4.253425 4.850926 5.715155 6.920757 8.551486 10.70650 13.47700 16.94219 21.14100 26.05954 31.63011 37.71639 44.09503 50.52389 56.74937 62.53900 67.73566 72.28144 76.13768 79.36022 82.04696 84.27111 86.08295 87.56663 88.77714 89.75974 90.59864 91.31485 91.86112 92.29026 92.70864 93.08301 93.40452 93.64814 93.83046 94.02969 94.16683 94.31933 94.54695 94.77576 95.10408 95.42285 95.73766 96.00804 96.21329 96.33052 96.49264 96.75033 97.03834 97.21587 
6 "C6" 0.00000 0.00000 65.71603 4.638401 3.639093 8.578397 13.36737 13.36737 13.36737 13.36737 13.36737 13.36737 13.36737 13.37262 13.37438 13.36625 13.34187 13.33447 13.37735 13.49335 13.57257 13.56895 13.43332 13.20004 12.91075 12.60347 12.26548 11.86525 11.39153 10.85944 10.32002 9.791724 9.214966 8.606910 8.060323 7.607337 7.193305 6.879630 6.606696 6.320496 6.051305 5.728253 5.385391 5.022665 4.667396 4.346572 4.061351 3.829325 3.666327 3.551025 3.456143 3.388950 3.322179 3.250106 3.157582 3.046193 2.927543 2.811431 2.703287 2.610617 2.544175 2.510216 2.507469 2.530450 2.566306 2.621592 2.689642 2.763371 2.846605 2.942436 3.040492 3.136286 3.242880 3.356964 3.481256 3.621343 3.783899 3.966872 4.166072 4.394074 4.649509 4.924184 5.232687 5.547511 5.891494 6.260326 6.618298 6.989160 7.381396 7.772536 8.141520 8.507533 8.879329 9.261709 9.670248 10.12551 10.66184 11.28804 11.96979 12.71018 13.51658 14.41837 15.44440 16.56217 17.70794 18.91937 20.19383 21.50148 22.82584 24.31748 25.80541 27.23808 
7 "I15" 28.16663 13.93606 63.15862 7.867444 5.910579 9.612456 14.95357 14.95357 14.95357 14.95357 14.95357 14.95357 14.95357 14.95928 14.96108 14.95183 14.92438 14.91594 14.96373 14.99203 14.94767 14.82801 14.58679 14.26173 13.89412 13.52462 13.15564 12.77342 12.36412 11.90863 11.42857 10.98613 10.54144 10.01870 9.462169 9.031326 8.735616 8.542134 8.386915 8.215317 8.004179 7.695256 7.321288 6.868536 6.404879 5.970409 5.583201 5.273034 5.036535 4.876821 4.776541 4.712758 4.656677 4.578765 4.473942 4.339304 4.190642 4.037986 3.898027 3.797379 3.748437 3.756851 3.825795 3.954954 4.131157 4.342657 4.588394 4.870598 5.169113 5.470262 5.784511 6.108219 6.439376 6.783252 7.161597 7.578007 8.032183 8.535836 9.086863 9.707025 10.37000 11.08571 11.85119 12.66587 13.49432 14.34599 15.21149 16.07291 16.92753 17.79310 18.60922 19.38960 20.17646 20.99184 21.85714 22.79605 23.83483 25.03100 26.27062 27.53323 28.98621 30.63625 32.31729 34.00340 35.87362 37.88030 39.64690 41.37879 43.17796 45.33820 47.42735 49.02663 
8 "I2" 59.24620 30.01755 27.76532 17.16748 13.46102 5.676553 7.383149 7.383149 7.383149 7.383149 7.383149 7.383149 7.383149 7.385113 7.385136 7.379692 7.365258 7.360194 7.382853 7.278057 7.164487 7.059853 6.924048 6.770049 6.622766 6.506781 6.412313 6.326596 6.262551 6.212050 6.174297 6.173814 6.183839 6.175370 6.203918 6.381311 6.645423 7.128774 7.818425 8.632678 9.465398 10.16638 10.65653 10.89633 10.89097 10.70905 10.44481 10.18495 9.974836 9.853508 9.808265 9.798340 9.786499 9.730711 9.609767 9.426597 9.221153 9.015682 8.858098 8.790900 8.851574 9.066934 9.436778 9.963678 10.62920 11.40738 12.29512 13.27308 14.30815 15.37202 16.45861 17.55622 18.65689 19.76204 20.90367 22.07442 23.26968 24.52010 25.82063 27.20665 28.62119 30.07367 31.56606 33.08252 34.59232 36.09725 37.55266 38.92823 40.26819 41.56663 42.71400 43.85223 45.00665 46.12293 47.26235 48.45539 49.74604 51.12319 52.49153 53.82251 55.37420 57.12518 58.87377 60.59260 62.46520 64.40026 66.04047 67.53479 68.96532 70.87536 72.69816 73.78914 
9 "C1" 0.00000 100.0000 46.77958 7.087180 14.08874 12.88663 11.42323 11.42323 11.42323 11.42323 11.42323 11.42323 11.42323 11.42699 11.42776 11.42007 11.39848 11.39140 11.42726 11.57196 11.77847 11.99455 12.17237 12.32595 12.48020 12.65779 12.85082 13.06270 13.31166 13.59128 13.91853 14.33093 14.81843 15.39896 16.08208 16.98326 18.22559 19.90679 22.10805 24.76257 27.73423 30.79314 33.69335 36.04962 37.59161 38.20487 37.91942 36.79995 35.01176 32.75729 30.22246 27.54399 24.83372 22.18615 19.63621 17.22376 14.99035 12.96856 11.16300 9.579103 8.231062 7.112038 6.198398 5.468784 4.893931 4.455939 4.132498 3.900853 3.743076 3.644254 3.582529 3.545905 3.536925 3.554118 3.594224 3.655526 3.743129 3.853655 3.982882 4.135872 4.310316 4.502880 4.725902 4.956877 5.216544 5.502801 5.789675 6.077589 6.389559 6.715692 7.019096 7.305585 7.619254 7.951740 8.301813 8.675781 9.105927 9.628990 10.20576 10.85235 11.57364 12.32841 13.20932 14.19212 15.20500 16.35024 17.53198 18.71388 19.91189 21.29986 22.69584 23.96353 
10 "I11" 86.66667 86.66667 86.66667 58.72186 60.70982 47.97758 53.85638 53.85638 53.85638 53.85638 53.85638 53.85638 53.85638 53.87429 53.87808 53.84204 53.74045 53.70727 53.87656 54.69581 55.36824 55.92027 56.22057 56.35236 56.41625 56.55180 56.77156 57.07601 57.46573 57.76950 57.94664 58.33591 58.80159 59.09872 59.54698 60.10067 60.58579 60.97674 61.62539 62.44648 63.23154 63.74864 64.36281 64.77313 64.86480 64.70605 64.41005 64.05844 63.61488 63.20773 62.88687 62.57164 62.25194 61.91029 61.46145 60.91838 60.32724 59.61906 58.89044 58.22153 57.64873 57.23230 56.92205 56.69179 56.52501 56.41506 56.41826 56.58236 56.86248 57.19832 57.61098 58.09404 58.67052 59.32167 60.07828 60.92256 61.84159 62.82734 63.83761 64.95359 66.05751 67.15154 68.30923 69.47510 70.58977 71.67901 72.68864 73.59674 74.50647 75.39539 76.04069 76.67367 77.23281 77.70125 78.19071 78.68104 79.21009 79.83660 80.39986 80.79308 81.36709 82.13627 82.83301 83.44663 84.18052 84.87790 85.24530 85.47457 85.75462 86.72918 87.63899 87.82643 
11 "N8" 80.00000 80.00000 80.00000 48.18790 49.89866 37.18254 42.69820 42.69820 42.69820 42.69820 42.69820 42.69820 42.69820 42.71227 42.71515 42.68645 42.60578 42.57934 42.71339 43.06520 43.41371 43.62423 43.63282 43.56921 43.50659 43.50216 43.51685 43.56003 43.65079 43.76415 43.97803 44.29270 44.63928 44.99377 45.40848 45.96660 46.69712 47.73890 49.01965 50.48447 51.89877 53.09301 54.01800 54.55431 54.72048 54.52313 54.13519 53.68285 53.24253 52.82662 52.49077 52.18039 51.83772 51.40529 50.85888 50.19469 49.44949 48.66501 47.87184 47.14488 46.53948 46.09613 45.78201 45.56552 45.40251 45.31224 45.32134 45.45708 45.70738 46.05029 46.47788 46.98472 47.57955 48.27449 49.07171 49.97490 50.98429 52.09664 53.31805 54.61934 55.94866 57.30418 58.70486 60.10686 61.48117 62.80898 64.08929 65.29654 66.44133 67.50273 68.37740 69.16111 69.92390 70.69348 71.48984 72.25767 73.02965 73.81700 74.66920 75.56349 76.45763 77.41704 78.38035 79.34500 80.29395 81.17501 81.92125 82.55245 83.22998 83.94127 84.58885 85.33358 
12 "L2" 73.33333 73.33333 73.33333 39.30257 40.56696 28.89798 33.82262 33.82262 33.82262 33.82262 33.82262 33.82262 33.82262 33.83369 33.83588 33.81306 33.74906 33.72803 33.83412 34.00960 34.16724 34.21170 34.08886 33.91341 33.74739 33.63300 33.54932 33.48217 33.45435 33.48188 33.59903 33.83930 34.09846 34.33425 34.64074 35.14392 35.95838 37.15789 38.72544 40.41503 42.03558 43.43901 44.52537 45.13167 45.27924 45.12216 44.73921 44.29407 43.85788 43.46370 43.14730 42.84981 42.50391 42.06269 41.48916 40.78483 40.00119 39.18895 38.39352 37.68702 37.11141 36.68959 36.39043 36.18477 36.04044 35.97678 36.01760 36.18008 36.44507 36.79797 37.23648 37.75771 38.36287 39.06135 39.85864 40.77316 41.81362 42.96860 44.22439 45.57600 46.99554 48.46669 49.97302 51.48658 52.98384 54.44774 55.85652 57.19603 58.46176 59.61527 60.67176 61.67225 62.60067 63.50849 64.49150 65.46274 66.42170 67.40803 68.49813 69.66792 70.85083 72.04251 73.22904 74.47059 75.70986 76.88903 77.89633 78.83734 79.79437 80.70007 81.52611 82.38907 
13 "J9" 66.66667 66.66667 66.66667 30.08102 30.80130 20.22378 24.08553 24.08553 24.08553 24.08553 24.08553 24.08553 24.08553 24.09326 24.09466 24.07825 24.03252 24.01738 24.09275 24.09586 24.07060 24.01191 23.82872 23.55593 23.29129 23.10213 22.96951 22.88702 22.86039 22.85709 22.86220 22.97866 23.20972 23.43283 23.77506 24.41906 25.34432 26.58688 28.23130 30.12028 31.92800 33.30611 34.36156 34.92179 35.00733 34.75489 34.33897 33.91535 33.49442 33.15946 32.90437 32.64636 32.33472 31.92636 31.36682 30.69153 29.96438 29.20743 28.50006 27.89694 27.43237 27.11242 26.89481 26.75499 26.67602 26.65491 26.71851 26.89628 27.17931 27.53289 27.95300 28.44863 29.04040 29.71773 30.50125 31.39622 32.40717 33.54181 34.77665 36.14198 37.55676 39.02394 40.57206 42.15224 43.70964 45.24716 46.69479 48.02918 49.38194 50.70168 51.82657 52.95373 54.09664 55.16296 56.24590 57.35611 58.50548 59.72246 60.95515 62.17223 63.59223 65.15393 66.68943 68.03720 69.54641 70.99692 72.18702 73.25975 74.30379 75.85126 77.28268 78.09296 
14 "F2" 60.00000 60.00000 60.00000 23.92335 24.19447 15.77785 19.28425 19.28425 19.28425 19.28425 19.28425 19.28425 19.28425 19.29045 19.29160 19.27848 19.24188 19.22978 19.29014 19.19792 19.11392 18.97974 18.76749 18.51295 18.27087 18.08964 17.93945 17.81324 17.73253 17.69052 17.66012 17.69625 17.80563 17.93410 18.26739 18.77079 19.47645 20.52386 21.98145 23.65988 25.29122 26.57797 27.50105 27.89801 27.89078 27.58035 27.13865 26.68896 26.30850 26.03689 25.81685 25.59633 25.33314 24.97646 24.47878 23.87614 23.22300 22.55689 21.94908 21.44268 21.05779 20.80363 20.64945 20.55197 20.50462 20.51724 20.59928 20.77280 21.02184 21.34866 21.74132 22.19114 22.71929 23.32294 24.02183 24.82936 25.74608 26.77573 27.92185 29.18748 30.52775 31.93879 33.41364 34.91894 36.39839 37.88935 39.34810 40.74044 42.09888 43.42331 44.62868 45.78143 46.94310 48.06676 49.18863 50.37673 51.65270 53.04102 54.39076 55.77103 57.31846 59.02887 60.74283 62.36920 64.10420 65.81454 67.31097 68.73961 70.11192 71.66919 73.14398 74.24553 
15 "C8" 53.33333 53.33333 53.33333 17.97530 18.17447 10.98432 13.59679 13.59679 13.59679 13.59679 13.59679 13.59679 13.59679 13.60107 13.60178 13.59244 13.56654 13.55791 13.60036 13.40173 13.25463 13.09474 12.88419 12.64870 12.43179 12.26504 12.13156 12.02039 11.94958 11.92097 11.94130 12.02165 12.09525 12.22380 12.45511 12.94055 13.72315 14.80513 16.26012 17.85459 19.36717 20.55864 21.37032 21.70107 21.60553 21.25049 20.78922 20.35723 19.99896 19.72937 19.52535 19.34757 19.13331 18.82032 18.38607 17.86060 17.30374 16.75244 16.24809 15.82550 15.51729 15.31516 15.18626 15.11094 15.06898 15.06565 15.11194 15.22476 15.40547 15.64576 15.93800 16.28710 16.70300 17.19645 17.77884 18.45732 19.24271 20.14150 21.14718 22.26776 23.47003 24.74614 26.10505 27.50469 28.92001 30.34483 31.73275 33.06634 34.38597 35.66850 36.85066 37.99932 39.16113 40.32684 41.52586 42.77059 44.08741 45.49705 46.97019 48.52042 50.20423 51.94006 53.76693 55.64309 57.52305 59.37019 61.12010 62.76763 64.33985 66.07849 67.74374 69.11021 
16 "F5" 46.66667 46.66667 46.66667 14.40560 14.31613 9.219692 11.62796 11.62796 11.62796 11.62796 11.62796 11.62796 11.62796 11.63170 11.63239 11.62448 11.60241 11.59511 11.63149 11.47984 11.36480 11.22139 11.03263 10.83039 10.64516 10.49574 10.37163 10.27558 10.20885 10.16570 10.12456 10.12230 10.14505 10.18229 10.40896 10.73973 11.23330 12.03374 13.15361 14.44157 15.62793 16.55201 17.15275 17.34297 17.21500 16.85895 16.43525 16.04254 15.72285 15.49651 15.32852 15.16048 14.95860 14.68926 14.31531 13.86817 13.39690 12.92730 12.51104 12.17601 11.93173 11.77550 11.68827 11.63082 11.60299 11.61486 11.67023 11.78380 11.94717 12.17019 12.44211 12.75144 13.11796 13.53934 14.03868 14.62692 15.29793 16.06261 16.92898 17.90123 18.95496 20.08457 21.27787 22.52700 23.79422 25.07701 26.33805 27.55946 28.77127 29.97096 31.11417 32.22712 33.32097 34.41282 35.54004 36.75526 38.04729 39.42523 40.84911 42.36148 44.05091 45.91705 47.82836 49.70188 51.67361 53.69566 55.52398 57.32303 59.11099 61.01439 62.74459 64.18281 
17 "M11" 40.00000 40.00000 40.00000 11.57894 11.42260 7.443213 9.367749 9.367749 9.367749 9.367749 9.367749 9.367749 9.367749 9.370759 9.371314 9.364937 9.347158 9.341275 9.370587 9.249389 9.148656 9.051467 8.914303 8.753933 8.593527 8.457610 8.350092 8.279249 8.237299 8.183153 8.141377 8.158265 8.201244 8.249041 8.375051 8.699512 9.192500 9.757541 10.63393 11.68108 12.65400 13.40729 13.91307 14.09301 13.99568 13.68413 13.30646 12.94691 12.64269 12.41031 12.25504 12.11608 11.94525 11.70614 11.38259 10.99497 10.58044 10.16510 9.790454 9.481464 9.257249 9.113347 9.034679 9.017630 9.036954 9.082702 9.168275 9.290479 9.450412 9.644424 9.876027 10.14511 10.45673 10.81415 11.23265 11.71592 12.27234 12.91665 13.63828 14.46013 15.34860 16.30281 17.32086 18.40575 19.50956 20.63357 21.75462 22.85498 23.92750 25.00790 26.01875 27.01285 28.02461 29.01765 30.09549 31.21354 32.40642 33.75503 35.17106 36.55868 38.15540 39.97625 41.86082 43.69994 45.74712 47.73426 49.52589 51.26677 53.03917 55.20651 57.30791 58.75064 
18 "K7" 33.33333 33.33333 33.33333 9.327589 9.058726 6.408891 8.238039 8.238039 8.238039 8.238039 8.238039 8.238039 8.238039 8.240755 8.241311 8.235773 8.220206 8.215104 8.240954 8.126539 8.045907 7.963691 7.843823 7.701236 7.556751 7.440495 7.343371 7.261998 7.203856 7.144632 7.096852 7.091877 7.084016 7.062484 7.156838 7.325705 7.618868 8.157434 8.833437 9.620856 10.39168 10.98430 11.39674 11.53211 11.40579 11.11280 10.74639 10.40232 10.11564 9.908201 9.753187 9.610964 9.448406 9.241755 8.961276 8.619332 8.248171 7.870516 7.524898 7.232652 7.012436 6.879794 6.815415 6.815985 6.868918 6.954988 7.073748 7.224928 7.398604 7.597276 7.818001 8.057552 8.329194 8.637364 8.988996 9.395899 9.865554 10.40422 11.00846 11.68596 12.42477 13.22437 14.09208 15.00322 15.94056 16.90154 17.86687 18.80783 19.75278 20.68814 21.55373 22.44985 23.38079 24.31284 25.28661 26.28404 27.35448 28.55601 29.85886 31.23640 32.77463 34.48435 36.29519 38.12572 40.09100 42.02032 43.88497 45.68631 47.53804 49.62572 51.68287 53.25890 
19 "E15" 26.66667 26.66667 26.66667 7.235534 6.881186 5.366966 7.026078 7.026078 7.026078 7.026078 7.026078 7.026078 7.026078 7.028454 7.028990 7.024328 7.011114 7.006826 7.028936 6.913741 6.839555 6.763403 6.667922 6.555200 6.441734 6.347636 6.273216 6.213567 6.152614 6.102610 6.050516 6.003998 5.986478 5.983794 6.040386 6.105353 6.309219 6.597969 7.047081 7.670286 8.234921 8.647310 8.853017 8.866126 8.718694 8.427323 8.096938 7.810978 7.566262 7.375055 7.240345 7.131837 7.014839 6.866233 6.657405 6.403727 6.125914 5.837779 5.569971 5.349958 5.189867 5.096366 5.067857 5.092622 5.163951 5.257267 5.369602 5.507953 5.661702 5.837336 6.026837 6.212170 6.419484 6.664653 6.938969 7.249500 7.608911 8.015959 8.475153 9.000853 9.578380 10.19402 10.85987 11.58399 12.32878 13.09855 13.86980 14.63829 15.40614 16.16421 16.89843 17.62793 18.36735 19.12359 19.94074 20.83356 21.76337 22.79680 23.95558 25.21064 26.59119 28.14689 29.79048 31.45074 33.26692 35.19642 37.00792 38.83606 40.68109 42.77901 44.76037 46.45472 
20 "G6" 20.00000 20.00000 20.00000 5.219131 4.973291 4.309020 5.756384 5.756384 5.756384 5.756384 5.756384 5.756384 5.756384 5.758381 5.758870 5.755102 5.744327 5.740865 5.759035 5.669048 5.608953 5.536316 5.450217 5.356386 5.265344 5.187414 5.124159 5.070550 5.019473 4.972870 4.912372 4.885423 4.878613 4.850806 4.840153 4.835777 4.953814 5.156377 5.474553 5.864467 6.179852 6.376115 6.521292 6.507823 6.361944 6.150063 5.913640 5.694658 5.512869 5.370189 5.267204 5.186263 5.098975 4.986403 4.839027 4.656721 4.454193 4.245893 4.051501 3.889614 3.764447 3.686507 3.664428 3.681844 3.730554 3.802268 3.876713 3.969964 4.081721 4.200295 4.326057 4.457952 4.596927 4.750129 4.925679 5.127725 5.356064 5.618485 5.917973 6.257406 6.631872 7.024685 7.454846 7.927903 8.419446 8.918934 9.429726 9.960259 10.51615 11.09557 11.65620 12.26332 12.92284 13.60547 14.34170 15.16644 16.09011 17.11891 18.26878 19.48280 20.85411 22.41939 24.11011 25.85426 27.73464 29.62688 31.53668 33.46906 35.38496 37.50844 39.68096 41.62914 
21 "C11" 13.33333 13.33333 13.33333 3.507391 3.532652 3.190979 4.283906 4.283906 4.283906 4.283906 4.283906 4.283906 4.283906 4.285409 4.285789 4.283001 4.275000 4.272441 4.285979 4.206951 4.155536 4.107284 4.049079 3.979811 3.913467 3.862393 3.815889 3.772031 3.732884 3.694939 3.658958 3.631152 3.618970 3.589196 3.579255 3.649972 3.723922 3.821728 4.018708 4.196038 4.380265 4.501988 4.598274 4.621998 4.552293 4.442898 4.314897 4.192154 4.086882 4.004848 3.931532 3.865502 3.797049 3.722568 3.620630 3.498630 3.366540 3.231103 3.103341 2.987842 2.894714 2.836873 2.807585 2.796689 2.797048 2.808750 2.830709 2.863614 2.904118 2.947885 2.991745 3.037597 3.092969 3.158635 3.234163 3.320340 3.425069 3.544006 3.676437 3.827150 3.986147 4.162782 4.360770 4.563187 4.779473 5.020151 5.269885 5.531636 5.822478 6.154793 6.527958 6.935018 7.416444 7.976153 8.626097 9.368499 10.24260 11.25132 12.39468 13.67037 15.13399 16.75657 18.54317 20.49838 22.53980 24.68967 26.92236 29.15545 31.37699 33.69507 36.06509 38.22596 
22 "I12" 6.666667 6.666667 6.666667 2.532533 2.594296 2.539380 3.460722 3.460722 3.460722 3.460722 3.460722 3.460722 3.460722 3.461955 3.462282 3.460050 3.453606 3.451559 3.462521 3.450093 3.395218 3.356132 3.310344 3.250733 3.190870 3.144971 3.104319 3.065493 3.028309 2.979709 2.941293 2.926642 2.907181 2.850490 2.795892 2.812647 2.843401 2.879532 2.977826 3.140014 3.247168 3.283094 3.317807 3.324436 3.304579 3.258108 3.196957 3.127974 3.051804 2.979990 2.928848 2.884701 2.837725 2.774253 2.699987 2.618733 2.534546 2.443521 2.358406 2.284423 2.224731 2.178717 2.147490 2.132799 2.124075 2.113846 2.115577 2.127129 2.136631 2.146310 2.168489 2.197452 2.224358 2.249767 2.286473 2.332131 2.382032 2.447757 2.512902 2.592995 2.678157 2.766965 2.853722 2.965682 3.074304 3.196142 3.340126 3.495492 3.650327 3.854463 4.092352 4.346549 4.646510 5.028110 5.501754 6.078444 6.751374 7.618827 8.605621 9.694216 11.02380 12.59320 14.31171 16.25455 18.43543 20.86114 23.22260 25.67481 28.22595 31.03966 33.73254 36.21498 
