Epson_XP-960/Canon/MP-101_Matte_Photo_Paper/Canon_MP-101_XP_960.ti1
CTI1   

DESCRIPTOR "Argyll Calibration Target chart information 1"
ORIGINATOR "Argyll targen"
CREATED "Fri Sep 14 13:22:35 2018"
APPROX_WHITE_POINT "95.106486 100.000000 108.844025"
COLOR_REP "iRGB"
WHITE_COLOR_PATCHES "4"
BLACK_COLOR_PATCHES "4"
COMP_GREY_STEPS "16"
OFPS_PATCHES "188"

NUMBER_OF_FIELDS 7
BEGIN_DATA_FORMAT
SAMPLE_ID RGB_R RGB_G RGB_B XYZ_X XYZ_Y XYZ_Z 
END_DATA_FORMAT

NUMBER_OF_SETS 210
BEGIN_DATA
1 100.0000 100.0000 100.0000 95.10649 100.0000 108.8440 
2 20.62310 18.31679 79.67974 14.12151 8.005077 57.72678 
3 37.04142 86.30072 15.76294 31.35578 54.23954 11.68333 
4 13.89428 63.29362 54.60318 19.01958 28.58504 29.65538 
5 100.0000 0.00000 0.00000 41.83017 22.05217 2.913230 
6 0.00000 0.00000 65.71534 7.958603 3.783002 37.65168 
7 28.16621 13.93606 63.15814 10.61769 6.128209 34.89907 
8 59.24549 30.01802 27.76541 17.36561 13.16171 8.356084 
9 0.00000 100.0000 46.78003 39.71920 73.12591 30.25698 
10 86.66667 86.66667 86.66667 69.04418 72.58246 78.97718 
11 80.00000 80.00000 80.00000 57.82407 60.77891 66.11917 
12 73.33333 73.33333 73.33333 47.76462 50.19637 54.59125 
13 66.66667 66.66667 66.66667 38.82872 40.79580 44.35090 
14 60.00000 60.00000 60.00000 30.97732 32.53613 35.35337 
15 53.33333 53.33333 53.33333 24.16914 25.37393 27.55134 
16 46.66667 46.66667 46.66667 18.36029 19.26302 20.89453 
17 40.00000 40.00000 40.00000 13.50377 14.15396 15.32905 
18 33.33333 33.33333 33.33333 9.548794 9.993329 10.79674 
19 26.66667 26.66667 26.66667 6.439866 6.722738 7.233970 
20 20.00000 20.00000 20.00000 4.115373 4.277372 4.570151 
21 13.33333 13.33333 13.33333 2.505355 2.583633 2.725105 
22 6.666667 6.666667 6.666667 1.527504 1.554934 1.604508 
23 0.00000 100.0000 0.00000 36.40521 71.80052 12.80184 
24 0.00000 0.00000 100.0000 18.87111 8.147314 95.12896 
25 100.0000 0.00000 100.0000 59.70128 29.19948 97.04219 
26 100.0000 100.0000 0.00000 77.23538 92.85269 14.71507 
27 0.00000 0.00000 0.00000 1.000000 1.000000 1.000000 
28 0.00000 100.0000 100.0000 54.27632 78.94783 106.9308 
29 0.00000 50.45130 100.0000 26.59801 23.59897 97.70462 
30 100.0000 0.00000 36.86739 43.83105 22.85240 13.45209 
31 100.0000 26.64031 0.00000 43.87276 26.13678 3.594100 
32 93.33333 93.33333 93.33333 81.46035 85.64427 93.20584 
33 51.87358 100.0000 0.00000 45.86941 76.68029 13.24531 
34 49.80755 0.00000 100.0000 27.53789 12.61594 95.53507 
35 0.00000 32.28725 0.00000 4.012243 7.023643 2.004089 
36 0.00000 0.00000 0.00000 1.000000 1.000000 1.000000 
37 100.0000 68.52324 100.0000 74.82799 59.44868 102.0845 
38 64.45862 0.00000 0.00000 16.23331 8.854345 1.713806 
39 100.0000 100.0000 74.55229 86.44926 96.53766 63.24552 
40 67.58959 100.0000 100.0000 71.19742 87.67241 107.7237 
41 0.00000 0.00000 26.79801 2.043200 1.417214 6.494641 
42 100.0000 100.0000 50.92314 81.21501 94.44429 35.67620 
43 100.0000 34.60708 100.0000 63.17657 36.14910 98.20063 
44 38.42977 0.00000 54.96904 10.68572 5.450449 25.98488 
45 48.78637 47.90671 0.00000 16.19790 19.09165 3.691769 
46 0.00000 30.99018 25.00539 4.679622 6.903056 6.714293 
47 75.86115 100.0000 25.46836 59.23479 83.46244 18.79470 
48 28.36872 25.26800 100.0000 23.38172 13.20303 95.86729 
49 100.0000 71.80652 51.46149 62.68881 57.25029 29.95337 
50 100.0000 52.52902 0.00000 50.26371 38.91689 5.724434 
51 0.00000 66.02032 0.00000 14.92810 28.85231 5.642740 
52 50.03122 100.0000 57.36602 50.31509 78.37581 40.38353 
53 51.07311 58.82859 100.0000 38.82167 34.46262 99.15782 
54 100.0000 0.00000 73.22663 50.68209 25.59238 49.53721 
55 31.04819 100.0000 100.0000 57.48298 80.60120 107.0811 
56 0.00000 54.43125 41.56382 12.68743 20.25198 17.60081 
57 26.83146 100.0000 0.00000 38.79454 73.03246 12.91380 
58 30.86868 0.00000 0.00000 4.168993 2.633943 1.148493 
59 100.0000 46.89378 48.81478 52.06202 36.70256 24.24344 
60 0.00000 100.0000 75.33679 45.83728 75.57275 62.48155 
61 0.00000 22.73700 100.0000 20.36812 11.14092 95.62797 
62 76.81233 0.00000 100.0000 41.37673 19.75129 96.18353 
63 24.44732 100.0000 51.03546 42.39196 74.42480 33.95641 
64 82.68643 0.00000 55.00977 32.26139 16.57406 27.03556 
65 23.46870 23.28806 0.00000 4.403804 5.082242 1.608719 
66 0.00000 76.71285 100.0000 38.32993 47.05952 101.6153 
67 0.00000 28.88238 76.90913 13.27981 9.752894 53.83099 
68 65.47429 0.00000 75.28089 26.18592 12.89678 51.33623 
69 74.50245 46.29460 0.00000 28.43967 24.67621 4.125001 
70 53.42942 30.96031 100.0000 31.72759 18.87913 96.52338 
71 100.0000 100.0000 26.63439 78.26594 93.26484 20.14313 
72 100.0000 76.77951 0.00000 61.32688 61.04013 9.412188 
73 0.00000 65.01098 22.60851 15.20841 28.21716 9.423702 
74 46.90506 73.59337 0.00000 26.34864 40.38861 7.268083 
75 75.11023 100.0000 50.92574 61.79011 84.42869 34.76828 
76 0.00000 100.0000 21.94026 37.11068 72.08266 16.51761 
77 100.0000 40.29577 72.99163 55.39676 35.12165 50.79656 
78 70.89038 0.00000 29.28084 21.05956 11.19864 8.445033 
79 100.0000 60.43686 79.68213 63.98479 49.24548 63.06495 
80 100.0000 21.22728 50.55469 47.05977 26.24269 23.98471 
81 22.48910 0.00000 100.0000 20.56135 9.018808 95.20816 
82 24.64655 48.79878 100.0000 28.08155 23.56775 97.62046 
83 12.42459 86.07476 63.05847 33.13888 54.24654 42.88485 
84 26.53038 100.0000 24.10006 39.58764 73.34352 17.36807 
85 0.00000 18.05341 47.35190 5.370364 4.297583 19.23980 
86 34.12271 54.96593 62.42918 20.41398 24.10645 37.00828 
87 46.24809 0.00000 22.85423 9.151094 5.114456 5.365945 
88 79.36822 51.29298 100.0000 51.09933 36.65032 98.93347 
89 24.75810 100.0000 77.47529 48.48522 76.86748 65.78987 
90 42.28999 64.65396 41.38667 22.95348 31.75991 19.15984 
91 72.23479 17.46268 46.84666 24.85344 14.26707 19.73164 
92 86.46584 59.96335 11.99424 41.87088 38.76118 7.391975 
93 0.00000 64.74530 75.10691 23.70743 31.42201 54.78789 
94 75.77566 100.0000 0.00000 58.23655 83.05683 13.82481 
95 76.32727 13.69881 66.88832 31.01858 16.52083 40.35469 
96 25.71766 75.92994 100.0000 40.08468 47.30863 101.5710 
97 23.12460 48.69686 0.00000 9.941939 16.23399 3.469648 
98 77.71558 19.56880 0.00000 25.22797 15.16177 2.457590 
99 82.20534 15.73767 29.96660 29.26979 16.54641 9.358307 
100 23.11707 37.27553 72.00399 15.36456 13.44031 47.34068 
101 49.76618 22.74072 0.00000 11.14872 8.455159 1.904548 
102 51.58515 100.0000 83.72815 57.71064 81.40287 76.20826 
103 27.83897 0.00000 76.28495 13.27171 6.205398 52.21023 
104 87.16199 28.85560 61.06375 39.21881 23.57864 34.36676 
105 58.30125 0.00000 46.12070 16.42596 8.581860 18.50368 
106 100.0000 46.21505 25.25945 49.15455 35.21446 9.932676 
107 76.62783 23.33135 100.0000 42.82961 22.83603 96.70246 
108 38.90456 78.05596 86.74745 39.29635 49.27242 76.18702 
109 0.00000 0.00000 0.00000 1.000000 1.000000 1.000000 
110 69.40706 75.37529 49.75697 41.44130 49.17821 28.01336 
111 24.28812 0.00000 23.89896 3.795231 2.344947 5.476412 
112 73.60902 73.29065 0.00000 39.03173 46.68695 7.815850 
113 10.09938 51.94664 68.36213 17.24292 20.71335 43.76987 
114 66.13618 30.95885 63.41823 26.32109 17.41425 36.55514 
115 100.0000 80.40835 76.83179 73.31083 69.23697 62.03486 
116 11.09804 44.04442 32.09013 8.754753 13.38950 10.85478 
117 100.0000 74.20522 26.68011 60.92890 58.58998 14.38145 
118 41.04021 37.07601 14.36738 11.06352 12.10405 4.317211 
119 0.00000 77.27161 50.23581 24.64201 42.09541 27.94616 
120 51.61182 72.78910 27.05166 28.72779 40.85463 12.80543 
121 91.76778 45.76665 91.15208 55.34402 36.64157 80.94477 
122 100.0000 19.38885 23.56336 43.74576 24.58731 7.547108 
123 62.67044 87.61743 64.46444 48.22263 63.51748 45.54251 
124 88.10075 57.47349 39.62239 44.22663 38.24887 18.11544 
125 34.48324 31.20013 56.15725 12.71047 10.63647 28.05715 
126 100.0000 19.93594 79.96862 53.77676 28.69384 60.08917 
127 50.26340 100.0000 28.49088 46.42369 76.82968 19.42739 
128 29.11441 83.91957 33.43104 29.25441 50.71110 17.67008 
129 20.35540 77.26517 0.00000 22.17138 41.26303 7.656881 
130 48.17075 21.23077 47.06195 13.73342 9.124953 19.49725 
131 36.66325 27.19061 80.90424 18.71326 12.01045 60.21192 
132 48.15418 74.21754 58.39182 32.49236 43.43723 35.64930 
133 86.81997 96.31684 39.09751 65.41434 82.20040 25.14557 
134 52.63171 20.99387 72.93630 20.82563 12.11401 48.09831 
135 0.00000 0.00000 0.00000 1.000000 1.000000 1.000000 
136 100.0000 100.0000 100.0000 95.10649 100.0000 108.8440 
137 63.29587 60.32470 13.70757 27.34528 31.48707 7.068507 
138 7.905639 15.36489 30.46572 3.363498 3.137227 8.367899 
139 76.37286 100.0000 78.54250 68.97836 87.39763 68.38291 
140 16.76739 0.00000 47.48640 5.398771 2.872155 19.07227 
141 64.31649 62.47632 89.54115 42.39811 39.03339 79.08644 
142 7.688454 5.679622 82.01872 12.85242 6.031491 61.17879 
143 0.00000 41.67793 58.94117 11.60580 13.45075 31.54478 
144 61.14186 34.86808 45.82856 21.25805 16.31700 19.51429 
145 76.44318 46.03468 49.48637 33.34797 26.65991 23.86051 
146 85.58682 0.00000 14.96782 30.04820 15.93697 4.183399 
147 51.01656 84.35731 100.0000 52.08693 61.02199 103.5859 
148 31.83257 57.88431 85.17817 27.22451 28.55393 70.08483 
149 79.95292 39.74087 78.93783 40.73411 27.16234 58.85820 
150 77.50861 78.70117 100.0000 62.44381 61.19745 103.0743 
151 79.49482 68.68088 28.23798 41.66868 44.39965 13.30806 
152 44.63352 55.74107 20.64839 18.07272 23.97407 7.829737 
153 67.47402 28.29413 83.87599 32.16355 19.09912 65.77686 
154 21.90706 35.09741 12.41861 6.438923 9.085364 3.604157 
155 100.0000 100.0000 100.0000 95.10649 100.0000 108.8440 
156 28.98643 78.14377 53.76900 28.54961 44.78690 31.47997 
157 47.23163 12.89648 15.53001 9.637269 6.204813 3.502782 
158 9.330265 84.73197 14.11892 26.01252 49.96732 10.78790 
159 37.16233 86.67778 71.24893 39.58308 57.93461 53.61590 
160 59.13253 43.65270 88.02441 32.64217 24.16997 73.96922 
161 18.64013 88.77512 91.60442 43.85911 61.51699 87.20696 
162 9.278255 16.79510 64.24515 8.832889 5.533269 36.16203 
163 88.42779 50.73925 64.04137 46.28967 35.20107 39.67318 
164 89.31955 86.61031 13.91427 58.47300 68.53524 12.62133 
165 59.48661 82.57420 82.81104 48.38133 58.15059 70.67631 
166 20.08797 68.03127 33.01138 18.84077 32.10809 14.40777 
167 11.05302 30.85637 41.95412 6.851523 7.788202 15.77256 
168 100.0000 100.0000 100.0000 95.10649 100.0000 108.8440 
169 87.13339 31.09518 13.55703 33.96582 22.10276 4.878978 
170 40.12936 42.83673 89.68304 25.86133 20.27612 76.59828 
171 24.19111 70.07946 74.48463 28.04393 37.47963 54.82378 
172 69.82646 50.56201 69.46928 34.82600 29.05248 45.90106 
173 88.64734 22.01325 90.03153 47.55775 25.46390 77.10170 
174 4.092712 47.84226 13.72718 8.320013 14.96536 4.885214 
175 69.46094 59.88769 40.70812 32.67559 33.71641 18.56548 
176 59.28229 47.34262 31.28631 21.82882 21.57203 11.34770 
177 9.540219 85.51973 34.92703 28.01066 51.58842 18.71595 
178 26.48870 52.91771 41.48385 14.46335 20.36362 17.47383 
179 10.44972 57.14528 86.46249 24.42580 26.63221 72.09780 
180 41.50316 9.377911 86.15102 19.93577 9.766058 68.53218 
181 83.07655 63.93612 86.67198 53.73475 45.94999 74.65203 
182 88.28539 79.79756 41.22478 55.57036 60.39232 22.85827 
183 60.45090 80.17782 3.779125 35.76001 50.80332 9.056793 
184 70.86110 82.06260 20.26479 43.03998 56.20231 12.62095 
185 85.65784 35.53201 34.39546 35.15567 23.85827 12.69382 
186 22.00136 18.39842 46.63082 6.914856 5.157751 18.74612 
187 36.59385 13.37561 33.07032 7.667494 5.098110 9.813212 
188 11.63470 39.49940 86.43930 18.94696 15.56642 70.20956 
189 61.90615 86.39811 38.13850 42.50255 59.87852 21.44042 
190 74.18367 42.87583 20.72353 27.90145 22.88523 7.124660 
191 44.41682 88.95290 43.51332 37.76499 59.92235 25.31879 
192 49.50838 64.17407 77.40572 32.65729 35.57675 58.54731 
193 16.36822 66.22159 14.14191 16.27340 29.64926 7.383516 
194 87.44858 87.55114 61.69111 63.37255 71.33369 43.01907 
195 35.90210 12.56231 6.305743 5.930908 4.291914 1.864289 
196 86.66500 67.48086 62.08790 51.27976 47.91301 39.58665 
197 59.60585 11.38822 25.88640 15.22917 8.870995 6.875775 
198 7.559092 80.01363 79.11946 33.18432 48.11734 63.58461 
199 65.34234 20.03707 12.05786 18.11699 11.54321 3.400174 
200 48.19742 40.27778 69.35590 21.69009 17.84506 44.27992 
201 83.06295 4.363387 82.49333 39.50922 19.69616 63.19419 
202 60.01972 36.80166 8.431272 18.10366 15.66388 3.656625 
203 58.26993 14.55866 92.54794 28.84573 14.60133 80.74433 
204 55.43816 92.39665 14.46753 41.85345 65.93701 13.10758 
205 34.51577 67.95159 12.44787 20.08847 32.84860 7.477474 
206 15.02729 18.50837 95.89428 19.06450 9.940080 86.95125 
207 26.73421 51.86004 18.36652 12.07890 18.82679 6.503548 
208 18.45609 40.37545 55.78440 11.81417 13.13522 28.21363 
209 53.75357 5.482333 62.57079 17.62468 9.079890 34.41781 
210 95.26553 7.343471 53.59916 42.24367 22.08632 26.21571 
END_DATA
CTI1   

DESCRIPTOR "Argyll Calibration Target chart information 1"
ORIGINATOR "Argyll targen"
DENSITY_EXTREME_VALUES "8"
CREATED "September 14, 2018"

NUMBER_OF_FIELDS 7
BEGIN_DATA_FORMAT
INDEX RGB_R RGB_G RGB_B XYZ_X XYZ_Y XYZ_Z 
END_DATA_FORMAT

NUMBER_OF_SETS 8
BEGIN_DATA
0 100.0000 100.0000 100.0000 95.10649 100.0000 108.8440 
1 0.00000 47.36069 100.0000 25.61297 21.62916 97.37627 
2 100.0000 0.00000 79.35138 52.42580 26.28975 58.72152 
3 0.00000 0.00000 58.99714 6.485834 3.193987 29.89445 
4 100.0000 66.65930 0.00000 56.05879 50.50543 7.656144 
5 0.00000 35.60114 0.00000 4.685619 8.370208 2.228550 
6 84.44437 0.00000 0.00000 28.84279 15.35583 2.304665 
7 0.00000 0.00000 0.00000 1.000000 1.000000 1.000000 
END_DATA
CTI1   

DESCRIPTOR "Argyll Calibration Target chart information 1"
ORIGINATOR "Argyll targen"
DEVICE_COMBINATION_VALUES "9"
CREATED "September 14, 2018"

NUMBER_OF_FIELDS 7
BEGIN_DATA_FORMAT
INDEX RGB_R RGB_G RGB_B XYZ_X XYZ_Y XYZ_Z 
END_DATA_FORMAT

NUMBER_OF_SETS 9
BEGIN_DATA
0 100.0000 100.0000 100.0000 95.10649 100.0000 108.8440 
1 0.00000 100.0000 100.0000 54.27632 78.94783 106.9308 
2 100.0000 0.00000 100.0000 59.70128 29.19948 97.04219 
3 0.00000 0.00000 100.0000 18.87111 8.147314 95.12896 
4 100.0000 100.0000 0.00000 77.23538 92.85269 14.71507 
5 0.00000 100.0000 0.00000 36.40521 71.80052 12.80184 
6 100.0000 0.00000 0.00000 41.83017 22.05217 2.913230 
7 0.00000 0.00000 0.00000 1.000000 1.000000 1.000000 
8 50.00000 50.00000 50.00000 21.14266 22.19007 24.08306 
END_DATA
