Epson_XP-960/PermaJet/Gloss_271/PermaJet_Gloss_271_XP-960.ti3
CTI3   

DESCRIPTOR "Argyll Calibration Target chart information 3"
ORIGINATOR "Argyll chartread"
CREATED "Fri Sep 14 22:50:22 2018"
DEVICE_CLASS "OUTPUT"
COMP_GREY_STEPS "8"
COLOR_REP "iRGB_XYZ"
TARGET_INSTRUMENT "X-Rite ColorMunki"
DEVCALSTD "XRGA"
SPECTRAL_BANDS "106"
SPECTRAL_START_NM "380.000000"
SPECTRAL_END_NM "730.000000"

NUMBER_OF_FIELDS 114
BEGIN_DATA_FORMAT
SAMPLE_ID SAMPLE_LOC RGB_R RGB_G RGB_B XYZ_X XYZ_Y XYZ_Z SPEC_380 SPEC_383 SPEC_387 SPEC_390 SPEC_393 SPEC_397 SPEC_400 SPEC_403 SPEC_407 SPEC_410 SPEC_413 SPEC_417 SPEC_420 SPEC_423 SPEC_427 SPEC_430 SPEC_433 SPEC_437 SPEC_440 SPEC_443 SPEC_447 SPEC_450 SPEC_453 SPEC_457 SPEC_460 SPEC_463 SPEC_467 SPEC_470 SPEC_473 SPEC_477 SPEC_480 SPEC_483 SPEC_487 SPEC_490 SPEC_493 SPEC_497 SPEC_500 SPEC_503 SPEC_507 SPEC_510 SPEC_513 SPEC_517 SPEC_520 SPEC_523 SPEC_527 SPEC_530 SPEC_533 SPEC_537 SPEC_540 SPEC_543 SPEC_547 SPEC_550 SPEC_553 SPEC_557 SPEC_560 SPEC_563 SPEC_567 SPEC_570 SPEC_573 SPEC_577 SPEC_580 SPEC_583 SPEC_587 SPEC_590 SPEC_593 SPEC_597 SPEC_600 SPEC_603 SPEC_607 SPEC_610 SPEC_613 SPEC_617 SPEC_620 SPEC_623 SPEC_627 SPEC_630 SPEC_633 SPEC_637 SPEC_640 SPEC_643 SPEC_647 SPEC_650 SPEC_653 SPEC_657 SPEC_660 SPEC_663 SPEC_667 SPEC_670 SPEC_673 SPEC_677 SPEC_680 SPEC_683 SPEC_687 SPEC_690 SPEC_693 SPEC_697 SPEC_700 SPEC_703 SPEC_707 SPEC_710 SPEC_713 SPEC_717 SPEC_720 SPEC_723 SPEC_727 SPEC_730 
END_DATA_FORMAT

NUMBER_OF_SETS 210
BEGIN_DATA
1 "J4" 100.0000 100.0000 100.0000 81.27278 84.89504 74.08523 69.04355 69.04355 69.04355 69.04355 69.04355 69.04355 69.04355 69.06578 69.06990 69.02296 68.89197 68.84871 69.06540 76.67578 81.62920 84.54766 86.11031 86.91743 87.40455 87.89133 88.45853 89.21128 90.14751 91.08205 92.09641 93.57276 95.53301 97.37018 98.71332 99.02334 98.19035 96.55619 94.43429 92.37699 90.79919 89.64681 88.72569 88.02769 87.51551 87.12650 86.84817 86.59557 86.32099 86.05223 85.85487 85.65096 85.47066 85.31762 85.15212 85.02212 84.88333 84.69630 84.43993 84.15500 83.92537 83.80679 83.73055 83.63574 83.47227 83.25446 83.09233 82.95262 82.84198 82.78293 82.76399 82.72956 82.69257 82.67228 82.70014 82.76533 82.80323 82.88573 82.99071 83.13581 83.27428 83.43195 83.59673 83.77128 83.95849 84.21680 84.44247 84.70152 84.97393 85.24393 85.51727 85.68074 85.92035 86.09140 86.08849 86.27535 86.42923 86.67078 86.87389 87.05208 87.00187 87.15694 87.24074 87.35090 87.57293 87.84738 87.83914 87.80729 87.77120 87.56235 87.69936 87.79768 
2 "I5" 0.00000 31.54498 19.63836 2.327662 3.927945 3.629971 3.380731 3.380731 3.380731 3.380731 3.380731 3.380731 3.380731 3.381827 3.382037 3.379745 3.373339 3.371227 3.381832 3.583373 3.697859 3.727455 3.706843 3.664198 3.621810 3.598741 3.590055 3.605141 3.667752 3.749041 3.853490 3.980798 4.112069 4.315169 4.540399 4.750414 5.049172 5.539482 6.165167 6.983055 7.910098 8.793424 9.479504 9.899562 9.994553 9.805579 9.438836 9.001167 8.575587 8.187632 7.823026 7.440044 6.983680 6.445097 5.817454 5.126553 4.431997 3.760395 3.147669 2.624428 2.194366 1.845285 1.571578 1.352555 1.179488 1.043333 0.943500 0.875560 0.827413 0.802426 0.798648 0.795563 0.806755 0.831085 0.869269 0.924763 1.006825 1.125017 1.274699 1.463479 1.699548 1.986264 2.325261 2.708663 3.140286 3.625783 4.137807 4.678104 5.239327 5.806576 6.384209 6.963851 7.574178 8.231062 8.944552 9.743073 10.67238 11.72838 12.88059 14.20990 15.64737 17.23796 18.90306 20.65011 22.49256 24.34734 26.19317 28.05004 29.93929 31.63408 33.41147 35.22310 
3 "C1" 0.00000 19.55749 34.53422 2.367935 2.890820 4.863155 5.167016 5.167016 5.167016 5.167016 5.167016 5.167016 5.167016 5.168904 5.169440 5.166156 5.156584 5.153580 5.170028 5.602281 5.877532 5.990649 5.986848 5.930957 5.862002 5.798798 5.750518 5.724117 5.718434 5.731164 5.760117 5.852200 5.952343 5.954661 5.919880 5.909413 5.996237 6.106558 6.379306 6.736081 7.110285 7.381478 7.431077 7.279066 6.939408 6.495305 6.021416 5.586982 5.232607 4.949846 4.714860 4.497705 4.251202 3.957954 3.607596 3.214645 2.811953 2.432204 2.092109 1.803863 1.567481 1.383820 1.237862 1.119797 1.024877 0.950784 0.892252 0.851684 0.824354 0.813535 0.818537 0.824456 0.838505 0.865210 0.910821 0.981559 1.068502 1.185569 1.339007 1.534489 1.769719 2.057447 2.404849 2.810659 3.253452 3.729498 4.254767 4.810762 5.378439 5.958614 6.530720 7.127893 7.746268 8.393478 9.111620 9.941393 10.83713 11.86527 13.02347 14.39904 15.85838 17.44710 19.09263 20.84068 22.61687 24.44251 26.29011 28.14946 30.05332 31.92869 33.63065 35.37282 
4 "K4" 58.59770 86.10971 69.36141 35.68143 44.89987 32.90592 27.63023 27.63023 27.63023 27.63023 27.63023 27.63023 27.63023 27.63835 27.63921 27.61963 27.56641 27.54828 27.63419 31.06283 33.26328 34.41144 34.91120 35.13395 35.28867 35.50782 35.82151 36.30289 36.96742 37.71144 38.62443 39.82455 41.24562 42.77654 44.29581 45.58083 46.70385 47.89082 49.26633 50.92565 52.87130 54.98932 57.04424 58.83533 60.18196 61.08017 61.58137 61.73314 61.59176 61.22555 60.70375 60.00288 59.09763 57.95033 56.54036 54.91227 53.06795 51.03655 48.85291 46.58735 44.29751 42.02857 39.79119 37.61250 35.53599 33.62904 31.98638 30.63724 29.58655 28.82996 28.34604 28.10342 28.08950 28.29851 28.74075 29.40982 30.27255 31.33001 32.55844 33.93637 35.39399 36.91059 38.45942 40.00817 41.54593 43.06592 44.49269 45.84477 47.16382 48.43472 49.61481 50.68488 51.78789 52.89858 53.93912 55.10421 56.30644 57.63214 58.97809 60.36426 61.61809 63.04826 64.36605 65.67292 67.06906 68.40417 69.49003 70.50062 71.45412 72.24472 73.12637 73.92091 
5 "A10" 36.31952 9.677272 36.17609 8.832452 5.893492 4.445865 5.487292 5.487292 5.487292 5.487292 5.487292 5.487292 5.487292 5.489004 5.489276 5.485488 5.475021 5.471524 5.488672 5.918833 6.160486 6.215242 6.139207 6.003677 5.853158 5.719480 5.603331 5.506545 5.428321 5.376300 5.328905 5.237955 5.143345 5.030399 4.926031 4.883245 4.816001 4.812044 4.935961 5.050752 5.223227 5.311319 5.252763 5.045624 4.746319 4.407160 4.094016 3.847413 3.687714 3.596787 3.562065 3.552230 3.533256 3.475582 3.361918 3.202422 3.020155 2.844273 2.702836 2.620630 2.622374 2.726997 2.922148 3.204400 3.571632 4.003790 4.473537 4.994366 5.543707 6.119632 6.719234 7.333348 7.974630 8.662567 9.410394 10.23629 11.16116 12.18861 13.31891 14.55714 15.85654 17.21515 18.63482 20.06758 21.49053 22.90246 24.28467 25.62150 26.88521 28.10055 29.28285 30.39329 31.50469 32.67533 33.88353 35.17633 36.56924 38.07127 39.64621 41.27343 43.00672 44.85347 46.65483 48.50390 50.43859 52.25002 53.88172 55.55060 57.15745 58.48765 59.98163 61.59647 
6 "F13" 100.0000 100.0000 100.0000 81.31832 84.97493 73.91757 69.69686 69.69686 69.69686 69.69686 69.69686 69.69686 69.69686 69.71937 69.72361 69.67629 69.54414 69.50054 69.71935 77.20596 82.02165 84.80977 86.23611 86.91955 87.27810 87.61622 88.03461 88.65950 89.53584 90.49928 91.58229 93.09549 95.07534 97.01325 98.38078 98.73683 97.98274 96.43496 94.42367 92.44589 90.88499 89.75845 88.87198 88.17616 87.66302 87.26482 86.97053 86.70926 86.44141 86.15629 85.94440 85.73952 85.55854 85.39529 85.22362 85.08630 84.93687 84.74399 84.48907 84.21263 83.98901 83.87656 83.81393 83.72591 83.57621 83.37515 83.21222 83.08328 82.99017 82.93450 82.91000 82.87382 82.83928 82.81588 82.83404 82.89179 82.93748 82.99581 83.07548 83.20999 83.33237 83.46989 83.62313 83.78817 83.96844 84.19971 84.41712 84.66910 84.94450 85.21947 85.46841 85.62516 85.83687 85.98867 86.00225 86.17540 86.32964 86.54544 86.71082 86.84634 86.87291 87.07438 87.17865 87.25821 87.50375 87.71185 87.75900 87.72945 87.64917 87.44745 87.48118 87.64409 
7 "L10" 70.64317 82.40940 93.62173 50.18515 53.66128 60.13254 55.84503 55.84503 55.84503 55.84503 55.84503 55.84503 55.84503 55.86395 55.86825 55.83124 55.72627 55.69226 55.86863 63.17858 67.98239 70.70693 72.09384 72.72795 73.01419 73.28162 73.59344 74.02989 74.59970 75.02684 75.42955 76.23653 77.35989 78.37904 78.93408 78.61554 77.35252 75.51237 73.38017 71.40395 69.72495 68.42170 67.29194 66.20506 65.13770 64.09967 63.15937 62.34912 61.67565 61.11132 60.62900 60.16607 59.64508 58.97484 58.11825 57.11846 55.97020 54.70749 53.37346 52.04135 50.77018 49.58631 48.45068 47.32067 46.21240 45.15547 44.25033 43.53163 43.00614 42.67676 42.54333 42.56569 42.74819 43.09775 43.63525 44.35584 45.22320 46.25577 47.39165 48.64265 49.93854 51.26409 52.60456 53.94724 55.24681 56.54295 57.77124 58.95250 60.07401 61.12971 62.05799 62.89807 63.78095 64.63116 65.39103 66.24014 67.15304 68.20007 69.25898 70.29836 71.16861 72.19914 73.12517 74.06210 75.13442 76.16522 76.89283 77.51893 78.19727 78.68640 79.31843 79.71457 
8 "E12" 81.60983 36.98939 30.78050 35.45765 27.24724 6.438075 5.868626 5.868626 5.868626 5.868626 5.868626 5.868626 5.868626 5.868891 5.867597 5.861945 5.849140 5.843764 5.860421 6.446463 6.751283 6.820794 6.747278 6.623359 6.506957 6.431266 6.399290 6.420601 6.503042 6.645404 6.855793 7.100463 7.368340 7.698252 8.047051 8.414923 8.911915 9.616591 10.53635 11.64177 12.81996 13.98441 14.98788 15.69029 16.07666 16.18262 16.13799 16.07560 16.08648 16.21859 16.47202 16.77676 17.06660 17.25598 17.28648 17.18650 17.03366 16.93845 17.01732 17.37809 18.10784 19.24450 20.76614 22.63356 24.78066 27.15424 29.72521 32.43805 35.22133 38.01185 40.72358 43.26512 45.61390 47.77483 49.76231 51.59252 53.29084 54.90180 56.42866 57.90614 59.31803 60.67004 61.96258 63.19498 64.36530 65.49085 66.51811 67.48771 68.38475 69.21789 69.98269 70.60272 71.29754 72.07720 72.83572 73.67507 74.48685 75.36398 76.22509 77.09644 77.88946 78.86492 79.71304 80.55613 81.46689 82.31172 83.04703 83.66072 84.14677 84.52555 85.14423 85.68968 
9 "D12" 10.43259 50.62333 61.71969 6.566669 9.807943 17.17112 14.55595 14.55595 14.55595 14.55595 14.55595 14.55595 14.55595 14.56114 14.56253 14.55315 14.52606 14.51748 14.56375 16.78188 18.32220 19.19886 19.61588 19.79731 19.88175 19.96176 20.05318 20.20098 20.46102 20.78522 21.13657 21.54901 21.97718 22.40639 22.83378 23.08187 23.27147 23.50109 23.81107 24.28438 24.73222 25.01639 25.04950 24.70709 24.00558 23.07185 22.05169 21.05306 20.12530 19.25488 18.40079 17.49692 16.49404 15.33630 14.02545 12.60320 11.13394 9.679599 8.299166 7.030932 5.897204 4.913025 4.066218 3.360336 2.790214 2.346394 2.019970 1.786926 1.633571 1.542333 1.498650 1.494171 1.516979 1.578188 1.685206 1.845788 2.054639 2.321790 2.660044 3.075721 3.574502 4.156713 4.799634 5.507638 6.273881 7.076787 7.915544 8.780612 9.655367 10.51343 11.36822 12.21348 13.04301 13.89988 14.83721 15.88501 17.06699 18.34697 19.75507 21.39639 23.08824 24.86298 26.72889 28.67539 30.67498 32.67191 34.63252 36.50830 38.34068 40.06632 41.86104 43.65826 
10 "N8" 93.49660 21.73190 61.04677 40.03706 24.99222 15.20524 17.95063 17.95063 17.95063 17.95063 17.95063 17.95063 17.95063 17.95588 17.95642 17.94367 17.90908 17.89728 17.95306 20.20296 21.51577 22.00437 21.91608 21.54057 21.08876 20.67073 20.27627 19.90297 19.55129 19.14503 18.74121 18.40250 18.06608 17.67885 17.12323 16.44567 15.72361 15.02975 14.46975 13.96870 13.51967 13.05396 12.48185 11.74669 10.91729 10.08855 9.362333 8.812494 8.494429 8.387858 8.445569 8.616249 8.812050 8.949967 8.984608 8.921728 8.798227 8.706372 8.759630 9.080799 9.785630 10.96691 12.68367 14.95270 17.77141 21.10732 24.91403 29.13559 33.69013 38.46107 43.29459 48.01115 52.46340 56.55303 60.23960 63.49332 66.29016 68.69948 70.73908 72.49859 73.98278 75.26396 76.36622 77.33002 78.19019 79.00788 79.71631 80.36846 80.96568 81.51019 82.01981 82.45798 82.97772 83.42265 83.78786 84.31422 84.82622 85.40962 85.91267 86.39319 86.66455 87.20007 87.59104 87.99336 88.54876 89.10301 89.45313 89.69386 89.85068 89.72850 89.98518 90.27794 
11 "J12" 14.28550 14.28550 14.28550 3.166144 3.092030 2.457892 2.817559 2.817559 2.817559 2.817559 2.817559 2.817559 2.817559 2.818450 2.818602 2.816669 2.811306 2.809522 2.818332 2.922199 2.963610 2.960858 2.921277 2.865779 2.805050 2.757320 2.722435 2.698499 2.691190 2.690831 2.715782 2.745191 2.729692 2.773676 2.864972 2.913936 2.998086 3.220798 3.578292 3.912474 4.342379 4.720774 4.979523 5.086418 5.015576 4.826822 4.589991 4.367732 4.179430 4.049147 3.956250 3.868482 3.755437 3.598572 3.382554 3.123548 2.835845 2.550624 2.293852 2.083761 1.920740 1.800614 1.712698 1.655293 1.611425 1.572721 1.553869 1.551726 1.557792 1.583805 1.631284 1.697363 1.787212 1.904658 2.060020 2.265340 2.522368 2.840925 3.239800 3.710178 4.262863 4.889562 5.585928 6.334744 7.134900 7.978029 8.831248 9.692141 10.54787 11.40071 12.25429 13.07999 13.93197 14.82665 15.75456 16.80910 17.98983 19.29068 20.77119 22.34472 23.93271 25.70590 27.53320 29.39975 31.39615 33.40800 35.29946 37.15382 38.91192 40.59010 42.38726 44.05901 
12 "K6" 71.42901 71.42901 71.42901 43.02689 44.80812 32.84675 30.17788 30.17788 30.17788 30.17788 30.17788 30.17788 30.17788 30.18698 30.18817 30.16702 30.10914 30.08959 30.18365 33.77288 36.00851 37.11324 37.51168 37.60464 37.61060 37.66971 37.80570 38.07774 38.49049 38.92226 39.46605 40.24835 41.23149 42.25817 43.09158 43.63243 43.99865 44.37804 44.87364 45.51893 46.30889 47.17190 47.89629 48.32671 48.47967 48.32818 48.03574 47.71314 47.43995 47.26876 47.20992 47.17774 47.07699 46.81635 46.34371 45.69620 44.90905 44.05978 43.22918 42.50671 41.94874 41.56633 41.29035 41.06044 40.84629 40.65162 40.54427 40.53534 40.63482 40.84813 41.15998 41.55127 42.03326 42.61496 43.33135 44.18497 45.14881 46.24627 47.44833 48.74341 50.06776 51.41200 52.76036 54.10298 55.41667 56.71189 57.91413 59.06493 60.15622 61.18669 62.08737 62.89718 63.78092 64.68078 65.51047 66.45628 67.40906 68.45437 69.51008 70.58086 71.47504 72.56838 73.58520 74.57618 75.57280 76.60208 77.45716 78.08732 78.69434 79.08874 79.69521 80.33737 
13 "A11" 0.00000 57.14656 27.48608 3.267402 7.640880 5.945021 4.456295 4.456295 4.456295 4.456295 4.456295 4.456295 4.456295 4.457588 4.457710 4.454534 4.445932 4.442990 4.456817 4.887083 5.174167 5.315326 5.352292 5.345323 5.329918 5.330583 5.352447 5.416282 5.543559 5.738956 5.983734 6.257341 6.584662 6.999811 7.508179 8.073734 8.806895 9.831634 11.20998 12.89314 14.81195 16.80441 18.62906 20.03250 20.91277 21.23286 21.08782 20.61457 19.91271 19.04658 18.06196 16.93257 15.64309 14.18551 12.59111 10.92407 9.260362 7.673590 6.226443 4.961773 3.900939 3.040347 2.355816 1.836683 1.462567 1.194608 0.999306 0.876811 0.803925 0.761967 0.739300 0.727294 0.726588 0.744663 0.782465 0.831892 0.905456 1.014120 1.156461 1.342998 1.558476 1.824020 2.152625 2.531554 2.946352 3.412261 3.911575 4.431790 4.988097 5.555647 6.120227 6.690575 7.302574 7.977379 8.683996 9.479689 10.41092 11.46381 12.64424 13.93779 15.38427 16.96781 18.60467 20.35182 22.24148 24.11176 25.89530 27.77269 29.64840 31.38111 33.21000 35.10858 
14 "D1" 0.00000 0.00000 0.00000 0.613411 0.553213 0.658740 1.078233 1.078233 1.078233 1.078233 1.078233 1.078233 1.078233 1.078616 1.078716 1.078019 1.076010 1.075371 1.078785 1.074658 1.054053 1.018215 0.976730 0.940132 0.905677 0.874633 0.850876 0.824895 0.791933 0.758846 0.741653 0.733941 0.716716 0.697142 0.636955 0.610198 0.622951 0.652770 0.662540 0.664718 0.625609 0.648885 0.656981 0.641891 0.637470 0.640970 0.638840 0.627761 0.624347 0.605925 0.586240 0.574335 0.566991 0.556104 0.545491 0.528357 0.517678 0.506910 0.490976 0.476415 0.463455 0.459939 0.450397 0.438415 0.436887 0.427456 0.414987 0.410491 0.415350 0.422217 0.425804 0.427568 0.422595 0.417936 0.415294 0.422398 0.428885 0.434340 0.448640 0.467619 0.491317 0.515142 0.543367 0.571762 0.612139 0.661313 0.721635 0.797470 0.894259 1.025260 1.218079 1.473211 1.794900 2.222026 2.825230 3.629377 4.649884 5.946416 7.534058 9.484059 11.73082 14.29811 17.14722 20.22000 23.49649 26.87581 30.37385 33.86606 37.32101 40.67053 44.00649 47.20092 
15 "B2" 57.14351 57.14351 57.14351 27.37617 28.29718 19.69613 17.70645 17.70645 17.70645 17.70645 17.70645 17.70645 17.70645 17.71159 17.71209 17.69948 17.66531 17.65363 17.70862 20.00326 21.44700 22.13634 22.29914 22.23915 22.13563 22.07497 22.07934 22.18472 22.42130 22.78205 23.23245 23.78752 24.48075 25.15875 25.77506 26.35606 26.93816 27.44818 28.13714 29.01703 29.99842 30.96074 31.71352 32.13289 32.20152 31.96988 31.63169 31.30290 31.02514 30.85230 30.77937 30.71567 30.57353 30.26324 29.73843 29.02720 28.19424 27.31877 26.50426 25.82216 25.28895 24.89772 24.60312 24.34109 24.08761 23.87878 23.73530 23.69540 23.76964 23.95127 24.23307 24.61866 25.12320 25.75815 26.52863 27.45064 28.52823 29.76966 31.14203 32.62215 34.16381 35.74413 37.34888 38.94651 40.53546 42.08161 43.53179 44.87795 46.20699 47.50185 48.71836 49.84910 50.98087 52.07903 53.22022 54.44845 55.70178 57.01141 58.42998 59.85896 61.27591 62.77542 64.30496 65.69547 67.07592 68.45650 69.64804 70.86603 71.92681 72.88189 73.91472 74.75008 
16 "K9" 42.85649 42.85649 42.85649 15.07562 15.51144 9.227194 7.930256 7.930256 7.930256 7.930256 7.930256 7.930256 7.930256 7.932310 7.932279 7.926376 7.910817 7.905326 7.929677 8.856352 9.443864 9.692283 9.726067 9.672227 9.611421 9.593076 9.624254 9.729309 9.930668 10.19056 10.49508 10.88404 11.31219 11.71246 12.11080 12.53668 13.05197 13.77786 14.70984 15.79597 16.94319 18.00651 18.81236 19.19887 19.20654 18.94491 18.57462 18.21188 17.92528 17.73320 17.62581 17.52978 17.36232 17.06420 16.59573 15.98770 15.28547 14.58355 13.93920 13.39043 12.95302 12.61213 12.33765 12.09792 11.88025 11.69123 11.56556 11.51623 11.55199 11.68761 11.91772 12.23567 12.65307 13.17811 13.83459 14.63270 15.56648 16.64618 17.86101 19.20640 20.62677 22.10477 23.62361 25.15644 26.69044 28.21564 29.68238 31.08205 32.43435 33.75288 34.97760 36.12686 37.32250 38.56238 39.81583 41.15991 42.55214 44.08302 45.67763 47.33504 48.92591 50.70114 52.39701 54.10278 55.89630 57.70871 59.31084 60.74321 62.09004 63.19753 64.50297 65.81009 
17 "G8" 28.57099 28.57099 28.57099 8.252205 8.252506 4.980738 4.660989 4.660989 4.660989 4.660989 4.660989 4.660989 4.660989 4.662236 4.662257 4.658828 4.649723 4.646536 4.660881 5.074057 5.323482 5.417529 5.397289 5.329278 5.258591 5.209009 5.187029 5.207913 5.285193 5.382452 5.485279 5.658957 5.843665 5.995469 6.229267 6.462612 6.717540 7.223186 7.903606 8.741512 9.637248 10.42831 11.01441 11.28938 11.26610 11.02507 10.68637 10.37785 10.12041 9.941308 9.835829 9.730491 9.578583 9.319572 8.931446 8.437740 7.880601 7.311825 6.793618 6.352453 6.013623 5.772410 5.613818 5.495310 5.402219 5.341172 5.311852 5.322670 5.379893 5.490390 5.650033 5.861641 6.146720 6.499429 6.938962 7.485453 8.142821 8.921957 9.819252 10.83089 11.93489 13.12254 14.35186 15.62858 16.94935 18.27709 19.55396 20.78182 21.97539 23.13538 24.28115 25.40597 26.51746 27.62816 28.80470 30.08126 31.45485 32.97101 34.60840 36.33962 38.08931 39.98730 41.87697 43.72107 45.66189 47.72185 49.55299 51.22949 52.84110 54.20936 55.70754 57.22783 
18 "N1" 0.00000 0.00000 0.00000 0.605450 0.545978 0.618462 1.068539 1.068539 1.068539 1.068539 1.068539 1.068539 1.068539 1.068919 1.069019 1.068329 1.066339 1.065706 1.069087 1.035370 1.013414 0.994018 0.965259 0.933581 0.900171 0.870841 0.842757 0.807409 0.771629 0.727316 0.688085 0.674168 0.630014 0.564763 0.516597 0.498101 0.481861 0.473533 0.538048 0.580166 0.593544 0.605844 0.610407 0.624815 0.629194 0.628627 0.623428 0.608042 0.599718 0.599391 0.591750 0.583656 0.568835 0.556461 0.543222 0.531838 0.520757 0.508277 0.491929 0.480765 0.469014 0.455290 0.443992 0.439337 0.433366 0.425512 0.420219 0.416729 0.418520 0.421392 0.424863 0.424880 0.422417 0.417750 0.417092 0.421570 0.431083 0.444371 0.456233 0.471006 0.486148 0.502856 0.529213 0.559864 0.606812 0.662153 0.722607 0.794475 0.885385 1.014389 1.200866 1.443192 1.748109 2.185215 2.801022 3.588481 4.592996 5.858201 7.436250 9.336006 11.51380 14.03955 16.81049 19.81102 23.01806 26.34579 29.77335 33.21344 36.60958 39.82305 43.03764 46.21289 
19 "L2" 0.00000 0.00000 100.0000 4.749036 2.190603 19.06067 23.78881 23.78881 23.78881 23.78881 23.78881 23.78881 23.78881 23.79825 23.80147 23.78712 23.74383 23.73079 23.80751 28.26800 31.51340 33.30931 33.90006 33.71299 33.06202 32.14422 30.99194 29.57440 27.81789 25.74638 23.64374 21.66634 19.71645 17.74168 15.74208 13.76578 11.89519 10.21249 8.742017 7.531300 6.462693 5.571526 4.809240 4.111788 3.495305 2.995102 2.601924 2.313560 2.116617 1.985838 1.890091 1.818501 1.741574 1.639579 1.522343 1.396288 1.262353 1.139476 1.027890 0.938126 0.872412 0.822198 0.784422 0.757485 0.736082 0.720468 0.709074 0.705053 0.707487 0.711179 0.729648 0.751793 0.774310 0.804821 0.849092 0.916792 1.009685 1.132745 1.285255 1.468584 1.699000 1.984270 2.330304 2.733145 3.166990 3.644659 4.180403 4.739554 5.315692 5.903985 6.484630 7.063948 7.640946 8.249915 8.910815 9.653687 10.51600 11.55336 12.74022 14.03700 15.38650 16.87160 18.48038 20.22321 22.07598 23.93565 25.76982 27.65990 29.44601 31.15393 33.01233 34.69195 
20 "L4" 0.00000 100.0000 0.00000 3.985148 12.11773 2.696252 1.585781 1.585781 1.585781 1.585781 1.585781 1.585781 1.585781 1.585626 1.585045 1.583284 1.579587 1.577894 1.582136 1.589178 1.598333 1.590442 1.566681 1.535930 1.509005 1.492175 1.480646 1.472105 1.484413 1.512382 1.569938 1.662616 1.751783 1.914441 2.096648 2.349646 2.736350 3.345021 4.316314 5.711556 7.667044 10.32476 13.78056 18.02585 22.85798 27.73570 31.96612 34.96901 36.42511 36.41013 35.22823 33.17926 30.54624 27.52560 24.29593 21.00455 17.74624 14.62019 11.73854 9.182075 7.008001 5.240801 3.873253 2.855544 2.134373 1.651062 1.324528 1.115271 0.983534 0.894717 0.848460 0.824855 0.818393 0.823589 0.847651 0.898684 0.970704 1.071281 1.198273 1.368769 1.581555 1.837283 2.157764 2.532943 2.931902 3.374779 3.866507 4.389053 4.915614 5.478657 6.045231 6.624726 7.243959 7.898253 8.582789 9.364911 10.26492 11.29458 12.49663 13.81234 15.21206 16.76527 18.39901 20.14082 22.03531 23.90428 25.76749 27.66253 29.42781 31.15576 33.01754 34.71004 
21 "J1" 100.0000 0.00000 100.0000 39.09881 19.26411 24.92676 38.01535 38.01535 38.01535 38.01535 38.01535 38.01535 38.01535 38.02915 38.03302 38.00877 37.93827 37.91609 38.03719 43.73363 46.93448 47.85440 47.17799 45.62994 43.69836 41.66979 39.54290 37.25809 34.71393 31.89933 29.19849 26.76842 24.37707 21.86677 19.37834 16.95110 14.55283 12.28015 10.24724 8.595248 7.254053 6.100718 5.116718 4.260944 3.512335 2.911738 2.479901 2.186041 2.013260 1.954272 1.970523 2.019940 2.077641 2.126980 2.127560 2.083362 2.014964 1.960578 1.958097 2.067769 2.362111 2.916730 3.828446 5.220819 7.205633 9.877059 13.31690 17.54691 22.52162 28.13196 34.19813 40.48276 46.74109 52.74933 58.34672 63.40119 67.81826 71.62206 74.81487 77.47533 79.63586 81.38505 82.79526 83.94129 84.88299 85.71562 86.38459 86.98142 87.50511 87.98710 88.44189 88.79467 89.24019 89.62246 89.81626 90.16243 90.48508 90.85151 91.20258 91.50870 91.60311 91.87696 92.04718 92.29537 92.65288 93.00277 93.08020 93.07941 93.14819 93.03305 93.15577 93.38073 
22 "I7" 100.0000 0.00000 0.00000 34.02701 18.05864 1.081380 1.465464 1.465464 1.465464 1.465464 1.465464 1.465464 1.465464 1.464385 1.462903 1.460322 1.455945 1.453404 1.456316 1.489603 1.480652 1.446327 1.405384 1.358946 1.310786 1.273441 1.235912 1.194775 1.173488 1.158226 1.122497 1.075176 1.052898 1.079678 1.105902 1.113901 1.159935 1.211478 1.281796 1.421584 1.619656 1.768912 1.914483 2.075328 2.187573 2.266999 2.310982 2.320312 2.337233 2.376166 2.433841 2.499591 2.552981 2.585335 2.576582 2.527078 2.463206 2.406367 2.396388 2.488996 2.739110 3.211459 4.013566 5.253642 7.038992 9.474790 12.65088 16.61202 21.31442 26.66297 32.50291 38.60939 44.77801 50.80501 56.50641 61.72795 66.35016 70.36651 73.75439 76.58363 78.86074 80.69044 82.16092 83.33694 84.27276 85.08072 85.71270 86.26624 86.74474 87.16806 87.56092 87.87471 88.31356 88.75489 88.98477 89.32945 89.66266 90.04051 90.31971 90.61086 90.67874 90.97766 91.14846 91.34440 91.66001 92.03783 92.23050 92.29812 92.27642 92.00305 92.07448 92.35993 
