Epson_XP-960/PermaJet/Titanium_Lustre_280/PermaJet_Titanium_Luster_280.ti3
CTI3   

DESCRIPTOR "Argyll Calibration Target chart information 3"
ORIGINATOR "Argyll chartread"
CREATED "Sat Sep 15 00:26:50 2018"
DEVICE_CLASS "OUTPUT"
COMP_GREY_STEPS "8"
COLOR_REP "iRGB_XYZ"
TARGET_INSTRUMENT "X-Rite ColorMunki"
DEVCALSTD "XRGA"
SPECTRAL_BANDS "106"
SPECTRAL_START_NM "380.000000"
SPECTRAL_END_NM "730.000000"

NUMBER_OF_FIELDS 114
BEGIN_DATA_FORMAT
SAMPLE_ID SAMPLE_LOC RGB_R RGB_G RGB_B XYZ_X XYZ_Y XYZ_Z SPEC_380 SPEC_383 SPEC_387 SPEC_390 SPEC_393 SPEC_397 SPEC_400 SPEC_403 SPEC_407 SPEC_410 SPEC_413 SPEC_417 SPEC_420 SPEC_423 SPEC_427 SPEC_430 SPEC_433 SPEC_437 SPEC_440 SPEC_443 SPEC_447 SPEC_450 SPEC_453 SPEC_457 SPEC_460 SPEC_463 SPEC_467 SPEC_470 SPEC_473 SPEC_477 SPEC_480 SPEC_483 SPEC_487 SPEC_490 SPEC_493 SPEC_497 SPEC_500 SPEC_503 SPEC_507 SPEC_510 SPEC_513 SPEC_517 SPEC_520 SPEC_523 SPEC_527 SPEC_530 SPEC_533 SPEC_537 SPEC_540 SPEC_543 SPEC_547 SPEC_550 SPEC_553 SPEC_557 SPEC_560 SPEC_563 SPEC_567 SPEC_570 SPEC_573 SPEC_577 SPEC_580 SPEC_583 SPEC_587 SPEC_590 SPEC_593 SPEC_597 SPEC_600 SPEC_603 SPEC_607 SPEC_610 SPEC_613 SPEC_617 SPEC_620 SPEC_623 SPEC_627 SPEC_630 SPEC_633 SPEC_637 SPEC_640 SPEC_643 SPEC_647 SPEC_650 SPEC_653 SPEC_657 SPEC_660 SPEC_663 SPEC_667 SPEC_670 SPEC_673 SPEC_677 SPEC_680 SPEC_683 SPEC_687 SPEC_690 SPEC_693 SPEC_697 SPEC_700 SPEC_703 SPEC_707 SPEC_710 SPEC_713 SPEC_717 SPEC_720 SPEC_723 SPEC_727 SPEC_730 
END_DATA_FORMAT

NUMBER_OF_SETS 210
BEGIN_DATA
1 "N2" 100.0000 100.0000 100.0000 69.65085 72.11656 62.69544 72.08564 72.08564 72.08564 72.08564 72.08564 72.08564 72.08564 72.11033 72.11614 72.06864 71.93339 71.88974 72.11707 72.77775 73.69691 74.50417 74.98366 75.22206 75.33215 75.48474 75.67739 75.92773 76.25178 76.54347 76.87378 77.30810 77.75330 78.12391 78.26203 78.18056 78.01867 77.55480 76.97682 76.25078 75.58218 74.97201 74.57003 74.19784 73.87035 73.60015 73.39639 73.22948 73.03174 72.80759 72.60642 72.44358 72.29650 72.16830 72.05628 71.93818 71.82152 71.68344 71.50489 71.33022 71.20304 71.15614 71.14709 71.11688 71.02679 70.92789 70.84924 70.82061 70.81707 70.82005 70.82686 70.85192 70.91041 70.98162 71.07068 71.18688 71.32423 71.47533 71.63363 71.81718 72.03922 72.25441 72.47627 72.71464 72.99333 73.29167 73.60089 73.93846 74.29376 74.64508 75.00098 75.27623 75.46640 75.68371 75.94838 76.28107 76.56699 76.80922 77.04770 77.26731 77.53049 77.90212 78.20551 78.42506 78.61077 78.79999 78.91705 79.09093 79.14383 79.32759 79.66034 79.83595 
2 "E3" 0.00000 31.54498 19.63836 2.233279 3.654799 3.590472 4.007139 4.007139 4.007139 4.007139 4.007139 4.007139 4.007139 4.008524 4.008859 4.006230 3.998723 3.996308 4.008952 3.970036 3.951263 3.910769 3.846786 3.784046 3.732635 3.698926 3.685054 3.686865 3.711434 3.764206 3.826788 3.916791 4.027408 4.120291 4.241463 4.412383 4.686471 5.144706 5.763528 6.525081 7.361236 8.132510 8.753601 9.110493 9.194925 9.048252 8.722811 8.324033 7.935229 7.566727 7.213036 6.839650 6.422141 5.928425 5.356501 4.726178 4.083786 3.470109 2.917746 2.446438 2.055013 1.738015 1.486717 1.286265 1.127747 1.001425 0.910208 0.849697 0.807479 0.786629 0.778983 0.779088 0.791800 0.816804 0.852576 0.906670 0.988996 1.097615 1.235420 1.410750 1.630247 1.896458 2.207686 2.569157 2.976470 3.406833 3.884661 4.403058 4.913841 5.425183 5.967359 6.515656 7.082655 7.700806 8.385218 9.176348 10.05745 11.06550 12.18976 13.45224 14.85298 16.34622 17.91077 19.56438 21.26420 22.99826 24.74091 26.47439 28.21233 29.92746 31.64781 33.38382 
3 "C10" 0.00000 19.55749 34.53422 2.148212 2.617690 4.361504 5.529049 5.529049 5.529049 5.529049 5.529049 5.529049 5.529049 5.531122 5.531748 5.528287 5.518097 5.514934 5.532557 5.498785 5.485183 5.449304 5.379104 5.296088 5.219903 5.161724 5.119359 5.096017 5.089041 5.097657 5.118445 5.131936 5.125823 5.112419 5.127803 5.141090 5.202573 5.404562 5.741311 6.094624 6.428817 6.666034 6.748640 6.632379 6.326412 5.909662 5.468984 5.060724 4.723858 4.461347 4.245464 4.042836 3.821036 3.557150 3.246241 2.899624 2.544890 2.205042 1.898511 1.641152 1.438412 1.278569 1.146646 1.036990 0.945689 0.875141 0.819951 0.785133 0.765539 0.758427 0.758560 0.765547 0.780976 0.805467 0.842832 0.900620 0.981240 1.084928 1.217654 1.395507 1.610963 1.866650 2.174658 2.524968 2.917682 3.355695 3.833189 4.329317 4.847285 5.377960 5.906202 6.449573 6.999990 7.600167 8.295233 9.050632 9.894269 10.87152 11.98689 13.23667 14.61066 16.11718 17.70283 19.32752 21.04771 22.77585 24.50791 26.24523 27.94689 29.66428 31.42058 33.13293 
4 "G11" 58.59770 86.10971 69.36141 30.75201 38.37043 28.29661 30.46568 30.46568 30.46568 30.46568 30.46568 30.46568 30.46568 30.47559 30.47752 30.45691 30.39922 30.38022 30.47573 30.56827 30.77380 30.94499 30.98021 30.96741 30.98573 31.08006 31.23336 31.45130 31.77250 32.21266 32.76601 33.39238 34.08114 34.84323 35.64062 36.53648 37.63960 39.03703 40.77992 42.70568 44.73498 46.74539 48.62057 50.23069 51.48753 52.30245 52.72981 52.84973 52.71566 52.37474 51.89454 51.25620 50.44664 49.44594 48.23690 46.82235 45.22301 43.46907 41.59711 39.66080 37.70908 35.78666 33.88991 32.04197 30.28467 28.69929 27.33370 26.21301 25.34549 24.72817 24.33234 24.13843 24.14758 24.35605 24.76456 25.36795 26.15272 27.10387 28.20662 29.42617 30.73804 32.10266 33.49968 34.88099 36.23901 37.58439 38.90132 40.17853 41.41676 42.58244 43.67903 44.70587 45.70170 46.70602 47.76758 48.92141 50.08587 51.23202 52.45839 53.74929 55.08986 56.48737 57.82231 59.14787 60.36609 61.51563 62.59068 63.60585 64.51945 65.42055 66.38333 67.23725 
5 "C5" 36.31952 9.677272 36.17609 8.222030 5.461756 4.223397 6.342103 6.342103 6.342103 6.342103 6.342103 6.342103 6.342103 6.344231 6.344697 6.340472 6.328527 6.324638 6.344578 6.237983 6.144131 6.021170 5.857705 5.688146 5.531205 5.397971 5.283373 5.188935 5.108583 5.018893 4.935874 4.861238 4.776546 4.691049 4.554398 4.406330 4.405009 4.460719 4.546682 4.690155 4.831592 4.890390 4.821123 4.640686 4.387957 4.106013 3.822303 3.593393 3.434315 3.343349 3.300912 3.289024 3.268319 3.213604 3.116259 2.977417 2.811239 2.645286 2.509798 2.433039 2.429884 2.511210 2.679247 2.938032 3.264745 3.645950 4.081026 4.562288 5.078121 5.617868 6.178453 6.759749 7.371202 8.023743 8.730057 9.509488 10.37870 11.34004 12.39724 13.54439 14.76926 16.05045 17.36935 18.70611 20.04563 21.36498 22.65576 23.90882 25.11094 26.24715 27.33197 28.38665 29.43622 30.52422 31.69338 32.93320 34.24087 35.60689 37.10441 38.65896 40.30270 42.07316 43.84567 45.55541 47.23658 48.93916 50.56103 52.08658 53.52167 54.89310 56.32311 57.72198 
6 "D3" 100.0000 100.0000 100.0000 69.29637 71.69710 62.34495 71.10656 71.10656 71.10656 71.10656 71.10656 71.10656 71.10656 71.13086 71.13654 71.08963 70.95617 70.91305 71.13725 71.89193 72.87852 73.76779 74.33783 74.68599 74.93047 75.22923 75.54508 75.85990 76.17633 76.39296 76.63704 77.00422 77.38719 77.67504 77.75149 77.68792 77.48101 76.97998 76.29684 75.55082 74.87568 74.31008 73.92335 73.58195 73.27763 73.02081 72.83679 72.69025 72.50125 72.28685 72.10908 71.95976 71.82709 71.72122 71.63041 71.52818 71.41393 71.28766 71.12367 70.95496 70.82565 70.77643 70.76952 70.74322 70.65616 70.56171 70.47862 70.42430 70.40363 70.42518 70.43880 70.47046 70.53766 70.62204 70.72037 70.83937 70.98197 71.13486 71.29775 71.47853 71.70577 71.93963 72.18095 72.43635 72.72236 73.00504 73.30404 73.64909 74.01004 74.37128 74.71955 74.99483 75.18844 75.41146 75.69509 76.02475 76.31814 76.54353 76.75014 76.94891 77.21817 77.61028 77.93429 78.16174 78.37003 78.54143 78.70834 78.84968 78.93557 79.09033 79.35621 79.62286 
7 "B2" 70.64317 82.40940 93.62173 43.30546 45.70433 51.45666 60.92916 60.92916 60.92916 60.92916 60.92916 60.92916 60.92916 60.95101 60.95691 60.91775 60.80445 60.76857 60.96178 61.63841 62.49041 63.19679 63.59497 63.77391 63.84509 63.94213 64.01138 64.01069 63.95296 63.78089 63.58221 63.45719 63.30345 63.01501 62.54658 61.96645 61.28475 60.44161 59.56767 58.77166 58.03202 57.28246 56.55921 55.82575 55.08604 54.29627 53.54626 52.89163 52.33379 51.84393 51.42574 51.01930 50.57386 50.02664 49.33296 48.48265 47.50477 46.44222 45.32546 44.21861 43.16439 42.18638 41.24142 40.31605 39.41646 38.59074 37.88194 37.33290 36.95538 36.73444 36.65012 36.71638 36.93433 37.29152 37.79559 38.45458 39.26064 40.18619 41.21272 42.32914 43.51506 44.72530 45.94612 47.15584 48.35584 49.52639 50.66352 51.76096 52.79675 53.76060 54.68656 55.55768 56.34126 57.10757 57.93083 58.84823 59.75958 60.69237 61.66258 62.63247 63.61999 64.70077 65.74737 66.68095 67.56509 68.43015 69.21681 69.91564 70.53611 71.21090 71.95218 72.56677 
8 "E2" 81.60983 36.98939 30.78050 31.43464 24.16347 5.718379 6.914938 6.914938 6.914938 6.914938 6.914938 6.914938 6.914938 6.915960 6.915153 6.909217 6.894856 6.889259 6.909594 6.765525 6.634480 6.489180 6.312440 6.137231 5.993305 5.893131 5.829570 5.800162 5.805426 5.847410 5.952990 6.095444 6.227735 6.359534 6.543876 6.857143 7.305790 7.922369 8.746337 9.716239 10.75051 11.77391 12.68573 13.45439 13.97761 14.26856 14.41460 14.48265 14.55114 14.68369 14.90365 15.17290 15.42264 15.59222 15.63836 15.56352 15.42117 15.30860 15.33110 15.59346 16.16920 17.10439 18.38260 19.95364 21.77270 23.81108 26.03349 28.39609 30.84747 33.31609 35.71510 37.99458 40.12840 42.10416 43.92042 45.59716 47.16663 48.64357 50.04366 51.39947 52.70894 53.95220 55.15098 56.29451 57.40005 58.43497 59.39204 60.30115 61.15984 61.92143 62.61815 63.30822 64.02358 64.76219 65.53377 66.37937 67.18405 67.96383 68.82276 69.69943 70.64397 71.64203 72.58203 73.45351 74.28486 75.07601 75.79378 76.51359 77.04592 77.61198 78.26245 78.81984 
9 "H6" 10.43259 50.62333 61.71969 6.243535 9.016014 16.37809 18.48045 18.48045 18.48045 18.48045 18.48045 18.48045 18.48045 18.48740 18.48951 18.47795 18.44391 18.43336 18.49231 18.72171 19.03076 19.27168 19.39401 19.44832 19.47329 19.50785 19.53501 19.56997 19.65101 19.75431 19.87753 20.02205 20.14776 20.20177 20.21673 20.28516 20.45136 20.80447 21.34178 21.91997 22.47230 22.83717 22.90654 22.60159 21.95483 21.10139 20.15399 19.21276 18.33050 17.49896 16.69486 15.86694 14.95525 13.91718 12.75022 11.48449 10.16962 8.869000 7.633713 6.492828 5.477210 4.597348 3.844126 3.219171 2.718192 2.326840 2.034070 1.826222 1.685392 1.601918 1.559066 1.544875 1.569251 1.622638 1.712388 1.846047 2.031940 2.266571 2.564368 2.936255 3.374838 3.880165 4.456510 5.087655 5.763744 6.486253 7.243727 8.030188 8.818671 9.607164 10.38577 11.14864 11.91710 12.71199 13.57471 14.55369 15.64012 16.86670 18.22232 19.70087 21.30384 22.99797 24.75861 26.58705 28.45343 30.28361 32.10923 33.91865 35.63794 37.30916 39.02931 40.70692 
10 "F9" 93.49660 21.73190 61.04677 34.97958 21.62230 13.10988 20.27239 20.27239 20.27239 20.27239 20.27239 20.27239 20.27239 20.27899 20.28028 20.26656 20.22818 20.21554 20.27907 20.05870 19.88231 19.61228 19.21298 18.75127 18.28740 17.87067 17.46844 17.05875 16.64120 16.18720 15.74238 15.30639 14.79316 14.21934 13.62737 13.01805 12.48642 12.08721 11.81607 11.62443 11.39534 11.07812 10.64308 10.03760 9.321332 8.604215 7.975176 7.501654 7.207655 7.095129 7.140989 7.280248 7.441699 7.558274 7.594769 7.543194 7.433326 7.346527 7.390187 7.660674 8.261138 9.268854 10.73888 12.68846 15.10996 17.99764 21.31479 24.99915 28.98570 33.16990 37.39912 41.54708 45.50830 49.17873 52.49637 55.43552 57.99832 60.20621 62.09342 63.71858 65.13672 66.35989 67.43162 68.38808 69.25750 70.05205 70.77591 71.45972 72.10398 72.67892 73.23612 73.74310 74.18308 74.67961 75.24458 75.85967 76.42413 76.91236 77.40950 77.90987 78.46468 79.12350 79.66619 80.18922 80.69200 81.13835 81.52778 81.90049 82.18892 82.53601 82.99469 83.37059 
11 "N4" 14.28550 14.28550 14.28550 3.039019 2.905738 2.465149 3.396712 3.396712 3.396712 3.396712 3.396712 3.396712 3.396712 3.397866 3.398131 3.395883 3.389500 3.387433 3.398127 3.330500 3.274292 3.204108 3.114355 3.024507 2.942253 2.872493 2.819482 2.777009 2.744194 2.725845 2.720105 2.700233 2.674315 2.670180 2.671556 2.753654 2.850914 2.993786 3.227757 3.535352 3.869007 4.164953 4.370775 4.467245 4.461596 4.361914 4.204371 4.042933 3.896015 3.777777 3.689737 3.607414 3.506368 3.363054 3.169976 2.930819 2.665542 2.405967 2.169042 1.974566 1.826460 1.718001 1.641939 1.589153 1.551075 1.522818 1.509177 1.508643 1.520184 1.548230 1.590411 1.653184 1.740210 1.847999 1.994551 2.181912 2.417550 2.720731 3.090956 3.530830 4.048080 4.629685 5.268137 5.967391 6.717341 7.504206 8.314742 9.120505 9.920120 10.70628 11.49396 12.26599 13.07644 13.93379 14.83797 15.85953 16.96839 18.19188 19.55763 21.05669 22.66942 24.40279 26.16624 27.97882 29.80336 31.65337 33.44153 35.23939 36.96043 38.66621 40.37232 41.96912 
12 "B4" 71.42901 71.42901 71.42901 37.20338 38.29449 28.09369 32.88811 32.88811 32.88811 32.88811 32.88811 32.88811 32.88811 32.89896 32.90120 32.87911 32.81698 32.79663 32.89989 32.95406 33.14909 33.25375 33.18138 33.04886 32.93007 32.87304 32.85651 32.86861 32.91973 33.03355 33.23808 33.49053 33.74788 34.01145 34.29390 34.63957 35.08681 35.71106 36.54126 37.49462 38.48610 39.41005 40.16809 40.67697 40.90776 40.92598 40.76219 40.54269 40.34131 40.19996 40.14058 40.10549 40.01318 39.80436 39.43362 38.88890 38.22357 37.50263 36.79884 36.19021 35.72338 35.40880 35.19778 35.03728 34.88490 34.77469 34.73572 34.79132 34.94445 35.18868 35.49945 35.89136 36.37049 36.93816 37.60518 38.38056 39.27087 40.26170 41.33776 42.48737 43.70095 44.93319 46.16884 47.38481 48.58025 49.74052 50.85377 51.91502 52.90829 53.84882 54.75886 55.61797 56.42679 57.22926 58.09220 59.04205 59.96086 60.88110 61.84389 62.81465 63.86351 64.99720 66.05017 67.00884 67.92470 68.79719 69.55924 70.32946 71.05696 71.70596 72.37272 73.04325 
13 "I12" 0.00000 57.14656 27.48608 3.058815 7.014710 5.419836 4.942649 4.942649 4.942649 4.942649 4.942649 4.942649 4.942649 4.944211 4.944475 4.941083 4.931673 4.928541 4.943982 4.960190 4.972341 4.964692 4.930347 4.887236 4.857942 4.855767 4.874558 4.923236 5.028450 5.189990 5.384657 5.623094 5.889239 6.204639 6.640147 7.131854 7.771347 8.758155 10.10453 11.69020 13.48320 15.28185 16.93290 18.21840 19.01644 19.32280 19.20222 18.76399 18.11767 17.32517 16.41724 15.39047 14.23081 12.93046 11.51140 10.01661 8.518924 7.092575 5.786807 4.641638 3.674039 2.883544 2.259592 1.782568 1.431030 1.175265 0.998073 0.877834 0.798405 0.754749 0.729930 0.718345 0.721034 0.736194 0.771906 0.824915 0.896729 0.996622 1.129514 1.296200 1.509418 1.767927 2.077234 2.424087 2.818362 3.261783 3.739207 4.242577 4.763675 5.285045 5.816041 6.375697 6.947574 7.558213 8.242334 9.032314 9.896810 10.89396 12.02543 13.29487 14.69655 16.22659 17.84627 19.54434 21.24078 22.98126 24.76690 26.52598 28.17096 29.90960 31.71541 33.45520 
14 "B3" 0.00000 0.00000 0.00000 0.604785 0.551621 0.647460 1.120609 1.120609 1.120609 1.120609 1.120609 1.120609 1.120609 1.121011 1.121120 1.120399 1.118315 1.117655 1.121205 1.095034 1.057760 1.021832 0.984273 0.949822 0.917303 0.887409 0.858966 0.831431 0.804290 0.761163 0.722945 0.705388 0.684956 0.638391 0.567394 0.541677 0.539170 0.567598 0.579510 0.603255 0.612829 0.639140 0.648510 0.640544 0.633612 0.632787 0.626940 0.619205 0.610831 0.603415 0.599448 0.588214 0.573920 0.566328 0.552370 0.538557 0.527868 0.514876 0.499385 0.489622 0.477983 0.467931 0.458275 0.455090 0.444393 0.436161 0.433071 0.427097 0.421653 0.422781 0.424669 0.420718 0.417315 0.417585 0.420694 0.428214 0.435566 0.443998 0.450760 0.461467 0.481404 0.503386 0.529317 0.558313 0.591619 0.633043 0.689180 0.756368 0.846047 0.969106 1.132913 1.347264 1.653551 2.091190 2.652279 3.395075 4.361002 5.554754 7.032832 8.821035 10.92460 13.30157 15.92112 18.75556 21.74069 24.84424 28.04950 31.25455 34.33065 37.37700 40.42559 43.37965 
15 "D6" 57.14351 57.14351 57.14351 23.53543 24.10473 16.40980 19.16972 19.16972 19.16972 19.16972 19.16972 19.16972 19.16972 19.17589 19.17704 19.16400 19.12762 19.11560 19.17560 19.08363 19.07294 19.01487 18.87764 18.71067 18.56860 18.49923 18.47794 18.50493 18.59952 18.75228 18.98491 19.26114 19.53237 19.80523 20.06936 20.42695 21.00033 21.71374 22.73140 23.91112 25.08580 26.09675 26.86010 27.29434 27.39511 27.22426 26.92233 26.59307 26.33101 26.17819 26.09645 26.03416 25.91393 25.66043 25.22955 24.63140 23.92480 23.18584 22.48012 21.87448 21.40591 21.06308 20.80936 20.60407 20.41737 20.26845 20.18573 20.19332 20.29174 20.48485 20.76667 21.14134 21.61661 22.19924 22.90316 23.74151 24.71682 25.82788 27.05552 28.37903 29.78102 31.22743 32.68308 34.11503 35.51993 36.90095 38.24895 39.53887 40.76829 41.93685 43.05237 44.09291 45.11963 46.17453 47.28193 48.47864 49.68113 50.90705 52.21627 53.57853 54.96991 56.41594 57.83665 59.24546 60.60783 61.85374 62.98291 64.05468 65.06057 66.08851 67.14388 68.10057 
16 "M4" 42.85649 42.85649 42.85649 13.98330 14.32737 8.684556 9.999009 9.999009 9.999009 9.999009 9.999009 9.999009 9.999009 10.00207 10.00251 9.995556 9.976425 9.969990 10.00112 9.870551 9.783257 9.671988 9.519927 9.368970 9.248801 9.177200 9.148827 9.177650 9.284154 9.455392 9.678644 9.904747 10.14108 10.41478 10.69534 11.02828 11.54854 12.30866 13.26142 14.40704 15.57325 16.53995 17.26842 17.67461 17.73472 17.55711 17.24753 16.91624 16.63374 16.44418 16.32166 16.20291 16.03478 15.75623 15.32985 14.77289 14.13952 13.49027 12.88416 12.35871 11.93649 11.60745 11.34199 11.11766 10.92291 10.76480 10.66245 10.63104 10.68144 10.82413 11.04110 11.33564 11.72562 12.21666 12.82426 13.56098 14.42498 15.42218 16.54394 17.77107 19.08422 20.45564 21.85867 23.28137 24.69711 26.09492 27.46105 28.78072 30.04666 31.24632 32.38466 33.49457 34.58548 35.71327 36.91056 38.19455 39.52995 40.93419 42.44194 43.97147 45.55413 47.25497 48.89984 50.51003 52.14495 53.71594 55.19092 56.57016 57.78819 59.01382 60.31618 61.53436 
17 "J1" 28.57099 28.57099 28.57099 7.598658 7.561950 4.678313 5.642659 5.642659 5.642659 5.642659 5.642659 5.642659 5.642659 5.644398 5.644656 5.640738 5.629952 5.626330 5.643903 5.538865 5.458097 5.368545 5.255499 5.140896 5.041755 4.976771 4.938636 4.922434 4.947867 5.005723 5.088068 5.194776 5.294911 5.396182 5.510024 5.698185 6.008898 6.449817 7.072907 7.820513 8.583991 9.302718 9.845880 10.14200 10.20692 10.09154 9.843784 9.590990 9.366545 9.196533 9.076126 8.965277 8.813265 8.573446 8.221579 7.767266 7.251982 6.724839 6.233725 5.819543 5.492573 5.257532 5.094032 4.979267 4.904725 4.858825 4.839716 4.856875 4.921261 5.034518 5.193878 5.397087 5.658211 5.986036 6.391323 6.892112 7.494035 8.198263 9.008511 9.923802 10.93036 12.00412 13.14088 14.31800 15.52327 16.73546 17.92653 19.08713 20.21725 21.29972 22.36645 23.40838 24.42280 25.46500 26.59118 27.83496 29.16166 30.56889 32.07635 33.68680 35.38787 37.18628 38.97688 40.79914 42.57487 44.28126 45.96007 47.59562 49.09379 50.59712 52.15039 53.56233 
18 "J8" 0.00000 0.00000 0.00000 0.589434 0.539860 0.619855 1.068020 1.068020 1.068020 1.068020 1.068020 1.068020 1.068020 1.068401 1.068502 1.067813 1.065824 1.065193 1.068574 1.036472 1.015535 0.987822 0.951180 0.916571 0.882185 0.852823 0.826140 0.795181 0.760586 0.716992 0.676122 0.667093 0.641597 0.583016 0.552939 0.557273 0.552417 0.535331 0.561770 0.586797 0.596992 0.609023 0.608736 0.613866 0.624755 0.625118 0.620066 0.611959 0.607171 0.600054 0.581274 0.573334 0.564498 0.551054 0.541176 0.532751 0.517356 0.503221 0.495314 0.483555 0.469268 0.458947 0.451753 0.439489 0.432311 0.426760 0.418248 0.413547 0.412391 0.415034 0.417433 0.415390 0.415623 0.414297 0.413798 0.415197 0.423675 0.426235 0.435308 0.453182 0.473269 0.491062 0.512782 0.541861 0.579288 0.621011 0.664397 0.722915 0.815181 0.936804 1.083123 1.296545 1.601038 2.009494 2.542054 3.253882 4.200727 5.429961 6.915106 8.705630 10.79189 13.22660 15.93039 18.81123 21.84620 24.98083 28.25855 31.51725 34.67246 37.80972 40.89937 43.80717 
19 "E4" 0.00000 0.00000 100.0000 4.679698 2.121204 18.85344 31.03488 31.03488 31.03488 31.03488 31.03488 31.03488 31.03488 31.04742 31.05185 31.03335 30.97709 30.96030 31.06028 32.07940 32.98580 33.51078 33.51787 33.11567 32.39838 31.44988 30.26409 28.78154 26.93605 24.82466 22.70079 20.65586 18.60565 16.50029 14.45366 12.57771 10.92127 9.425260 8.177705 7.126093 6.217211 5.418642 4.685480 4.024384 3.462387 2.983246 2.596809 2.316344 2.116999 1.976128 1.877554 1.794719 1.710732 1.616670 1.507948 1.381387 1.246233 1.120781 1.011889 0.924962 0.855826 0.805927 0.765903 0.736415 0.715702 0.698708 0.682591 0.678506 0.684469 0.694222 0.702723 0.717086 0.745520 0.782830 0.829337 0.893880 0.977331 1.085400 1.225409 1.408319 1.633501 1.900181 2.216662 2.583861 3.004590 3.463379 3.960150 4.487640 5.029788 5.579528 6.130187 6.674305 7.225600 7.785495 8.412982 9.166862 10.02605 11.00356 12.09878 13.32043 14.67766 16.16046 17.74080 19.37050 21.07613 22.79049 24.54820 26.31482 27.98831 29.70588 31.53001 33.21916 
20 "H14" 0.00000 100.0000 0.00000 3.717485 11.16424 2.550755 1.659593 1.659593 1.659593 1.659593 1.659593 1.659593 1.659593 1.659560 1.659083 1.657372 1.653636 1.651999 1.656576 1.624268 1.599534 1.577146 1.546467 1.512806 1.484924 1.468000 1.458489 1.451740 1.453861 1.472362 1.519806 1.596985 1.687799 1.799867 1.965682 2.233169 2.577343 3.137534 4.037503 5.336430 7.135936 9.548303 12.73472 16.66135 21.10318 25.55214 29.40536 32.13735 33.44958 33.42453 32.32298 30.42902 27.99663 25.22721 22.26967 19.24943 16.26627 13.41198 10.78205 8.453478 6.479588 4.875902 3.631699 2.710906 2.050766 1.597362 1.294416 1.096032 0.968113 0.889500 0.846484 0.823129 0.815104 0.821794 0.842275 0.885937 0.948373 1.038466 1.157867 1.310553 1.508618 1.746023 2.030619 2.360726 2.732376 3.155303 3.603072 4.068072 4.565906 5.073880 5.587005 6.126168 6.682748 7.282385 7.955370 8.723993 9.572485 10.54050 11.66123 12.91683 14.28116 15.76501 17.39068 19.08311 20.77456 22.52834 24.30480 26.08249 27.83682 29.58075 31.35629 33.04515 
21 "M2" 100.0000 0.00000 100.0000 34.18431 16.77342 22.53753 45.69061 45.69061 45.69061 45.69061 45.69061 45.69061 45.69061 45.70800 45.71345 45.68512 45.60119 45.57533 45.72125 45.62072 45.30154 44.47969 43.07158 41.28253 39.31418 37.30620 35.22647 32.98386 30.48993 27.84624 25.32261 22.93521 20.49715 17.98051 15.58112 13.40521 11.51365 9.813937 8.411733 7.257738 6.262132 5.383099 4.606204 3.872846 3.241234 2.718593 2.330849 2.075904 1.927420 1.870675 1.875117 1.915856 1.974691 2.014657 2.019587 1.982657 1.921663 1.868939 1.865121 1.964997 2.222016 2.699313 3.480112 4.657305 6.326662 8.569221 11.45197 15.01173 19.23650 24.01971 29.18783 34.57171 39.97961 45.21902 50.13355 54.60972 58.58748 62.04318 64.96664 67.41374 69.45843 71.13561 72.51278 73.63159 74.57546 75.39282 76.09946 76.73061 77.30705 77.81804 78.30039 78.72434 79.07441 79.42176 79.82594 80.32403 80.73399 81.04377 81.37592 81.68475 82.04775 82.50713 82.87372 83.22007 83.49675 83.75106 83.96362 84.17505 84.31138 84.44032 84.69748 84.98157 
22 "K9" 100.0000 0.00000 0.00000 30.16025 16.06583 1.106890 1.666317 1.666317 1.666317 1.666317 1.666317 1.666317 1.666317 1.665552 1.664335 1.661872 1.657371 1.654965 1.658771 1.628063 1.592870 1.550093 1.494147 1.438365 1.385752 1.341761 1.304726 1.259584 1.210190 1.175026 1.127419 1.083664 1.103554 1.092358 1.044333 1.068541 1.114676 1.163676 1.228683 1.347430 1.516088 1.660022 1.808522 1.976382 2.109095 2.222747 2.296165 2.328750 2.355545 2.391119 2.439905 2.497067 2.545279 2.571370 2.558267 2.512700 2.447924 2.390804 2.374708 2.446664 2.648470 3.044020 3.713124 4.747684 6.246951 8.300241 10.99011 14.35578 18.39773 23.03424 28.09955 33.44917 38.90897 44.27495 49.39126 54.12676 58.38472 62.11105 65.29287 67.95528 70.16648 71.95869 73.41419 74.57999 75.54109 76.33591 77.00369 77.59814 78.13512 78.60551 79.04735 79.45041 79.83347 80.18405 80.61427 81.13556 81.53662 81.84241 82.14120 82.43113 82.78224 83.24539 83.58785 83.87317 84.14305 84.39239 84.57895 84.72350 84.84848 84.99997 85.25886 85.53281 
