Epson_XP-960/PermaJet/Titanium_Lustre_280/PermaJet_Titanium_Luster_280.ti2
CTI2   

DESCRIPTOR "Argyll Calibration Target chart information 2"
ORIGINATOR "Argyll printtarg"
CREATED "Fri Sep 14 18:25:51 2018"
TARGET_INSTRUMENT "X-Rite ColorMunki"
COMP_GREY_STEPS "8"
APPROX_WHITE_POINT "95.106486 100.000000 108.844025"
COLOR_REP "iRGB"
PAPER_SIZE "210.0x297.0"
RANDOM_START "21"
STEPS_IN_PASS "15"
PASSES_IN_STRIPS2 "14"
STRIP_INDEX_PATTERN "A-Z, A-Z"
PATCH_INDEX_PATTERN "0-9,@-9,@-9;1-999"
INDEX_ORDER "STRIP_THEN_PATCH"

NUMBER_OF_FIELDS 8
BEGIN_DATA_FORMAT
SAMPLE_ID SAMPLE_LOC RGB_R RGB_G RGB_B XYZ_X XYZ_Y XYZ_Z 
END_DATA_FORMAT

NUMBER_OF_SETS 210
BEGIN_DATA
1 "N2" 100.0000 100.0000 100.0000 95.10649 100.0000 108.8440 
2 "E3" 0.00000 31.54498 19.63836 4.443825 6.972187 4.968290 
3 "C10" 0.00000 19.55749 34.53422 3.870562 3.946096 10.57431 
4 "G11" 58.59770 86.10971 69.36141 46.42299 60.95799 51.30632 
5 "C5" 36.31952 9.677272 36.17609 7.691767 4.728544 11.45127 
6 "D3" 100.0000 100.0000 100.0000 95.10649 100.0000 108.8440 
7 "B2" 70.64317 82.40940 93.62173 57.90754 62.47944 90.53575 
8 "E2" 81.60983 36.98939 30.78050 32.15396 22.82716 10.80204 
9 "H6" 10.43259 50.62333 61.71969 15.27931 19.21424 35.52366 
10 "F9" 93.49660 21.73190 61.04677 43.33448 24.18056 34.24669 
11 "N4" 14.28550 14.28550 14.28550 2.694563 2.782680 2.941933 
12 "B4" 71.42901 71.42901 71.42901 45.09852 47.39164 51.53597 
13 "I12" 0.00000 57.14656 27.48608 12.23220 21.70573 10.15821 
14 "B3" 0.00000 0.00000 0.00000 1.000000 1.000000 1.000000 
15 "D6" 57.14351 57.14351 57.14351 27.93428 29.33486 31.86611 
16 "M4" 42.85649 42.85649 42.85649 15.47169 16.22421 17.58425 
17 "J1" 28.57099 28.57099 28.57099 7.245259 7.570011 8.156934 
18 "J8" 0.00000 0.00000 0.00000 1.000000 1.000000 1.000000 
19 "E4" 0.00000 0.00000 100.0000 18.87111 8.147314 95.12896 
20 "H14" 0.00000 100.0000 0.00000 36.40521 71.80052 12.80184 
21 "M2" 100.0000 0.00000 100.0000 59.70128 29.19948 97.04219 
22 "K9" 100.0000 0.00000 0.00000 41.83017 22.05217 2.913230 
23 "F1" 100.0000 100.0000 0.00000 77.23538 92.85269 14.71507 
24 "G6" 0.00000 100.0000 100.0000 54.27632 78.94783 106.9308 
25 "M5" 0.00000 26.35691 100.0000 20.87078 12.14610 95.79552 
26 "L8" 100.0000 0.00000 51.67468 45.93811 23.69508 24.55016 
27 "E11" 100.0000 76.06470 0.00000 60.92274 60.23196 9.277473 
28 "F5" 0.00000 100.0000 37.63180 38.49385 72.63584 23.80293 
29 "B8" 35.68627 100.0000 0.00000 40.67679 74.00296 13.00199 
30 "J11" 50.84611 0.00000 100.0000 27.93350 12.81991 95.55361 
31 "N6" 0.00000 71.47631 0.00000 17.61530 34.22595 6.538479 
32 "M15" 0.00000 0.00000 75.20562 10.39521 4.757489 50.48551 
33 "H13" 100.0000 51.49462 100.0000 67.77866 45.35199 99.73467 
34 "A2" 48.88991 0.00000 0.00000 9.325905 5.292863 1.390137 
35 "K11" 100.0000 100.0000 49.92905 81.04886 94.37784 34.80107 
36 "A11" 36.42786 100.0000 100.0000 58.73477 81.24662 107.1397 
37 "M13" 0.00000 73.47677 100.0000 36.54227 43.48469 101.0194 
38 "N7" 100.0000 25.35439 0.00000 43.68198 25.75528 3.530507 
39 "N15" 68.75257 100.0000 0.00000 53.97983 80.86205 13.62535 
40 "G15" 100.0000 24.32746 43.25628 46.34050 26.58735 18.24611 
41 "L10" 51.08263 25.42763 0.00000 12.01645 9.444324 2.049784 
42 "I4" 27.40520 49.59945 100.0000 28.81096 24.32545 97.72830 
43 "L3" 46.29740 100.0000 24.96834 44.71679 75.98110 17.92563 
44 "E13" 48.39704 0.00000 48.51911 12.73035 6.633557 20.26359 
45 "L5" 0.00000 44.55482 49.56588 10.66835 14.32883 22.74286 
46 "F15" 0.00000 46.04105 0.00000 7.345057 13.68834 3.115037 
47 "A12" 0.00000 0.00000 48.97841 4.658320 2.463097 20.26875 
48 "K7" 0.00000 100.0000 68.36805 44.00205 74.83877 52.81516 
49 "L11" 57.56619 50.42191 100.0000 38.46447 29.70287 98.25786 
50 "B11" 72.38727 100.0000 100.0000 73.98648 89.11045 107.8544 
51 "H10" 100.0000 25.67941 100.0000 61.60032 32.99704 97.67521 
52 "I3" 100.0000 53.48898 41.32601 53.14625 40.61135 19.23667 
53 "K13" 100.0000 100.0000 26.16159 78.22991 93.25044 19.95336 
54 "D4" 74.79362 0.00000 0.00000 22.20407 11.93289 1.993586 
55 "A5" 50.88426 75.72595 0.00000 28.98018 43.48123 7.726450 
56 "B5" 75.31548 0.00000 100.0000 40.40665 19.25111 96.13808 
57 "H3" 51.30846 100.0000 51.26879 49.68561 78.18081 34.50619 
58 "C12" 100.0000 0.00000 24.96834 42.73712 22.41489 7.690221 
59 "N8" 0.00000 75.42687 75.59167 29.23999 42.26817 57.30259 
60 "N5" 100.0000 51.40459 0.00000 49.87670 38.14297 5.595429 
61 "J5" 0.00000 49.51095 74.26413 17.55330 19.48867 51.58553 
62 "G5" 100.0000 0.00000 75.46654 51.29850 25.83890 52.78388 
63 "H8" 0.00000 72.44984 50.46769 22.02733 36.80499 27.26518 
64 "M3" 27.56695 0.00000 75.84039 13.09572 6.129218 51.54480 
65 "I11" 78.28336 66.20432 100.0000 56.36840 48.28035 100.9009 
66 "C8" 74.21225 51.73571 0.00000 29.99610 28.06016 4.696228 
67 "N9" 0.00000 0.00000 23.25628 1.789427 1.315721 5.157993 
68 "C1" 23.66827 0.00000 24.44648 3.736358 2.310235 5.670283 
69 "J15" 24.73335 52.48951 0.00000 11.45384 18.88621 3.901976 
70 "B10" 100.0000 26.42405 74.92332 53.15646 29.79705 52.65457 
71 "E9" 23.42565 100.0000 79.24926 48.79934 76.96897 68.53382 
72 "B12" 37.37087 25.15908 100.0000 25.39773 14.21925 95.95727 
73 "B13" 100.0000 73.04952 77.57839 69.34453 60.96000 61.77818 
74 "I15" 18.53513 100.0000 22.32242 38.30729 72.69688 16.69802 
75 "H9" 24.44038 0.00000 0.00000 2.987073 2.024542 1.093111 
76 "H7" 100.0000 100.0000 76.37598 86.96093 96.74229 65.94054 
77 "D2" 74.70512 0.00000 38.59312 24.34958 12.78441 13.58973 
78 "D8" 70.87816 87.87213 36.70253 48.19952 64.30424 21.12615 
79 "K14" 100.0000 36.72084 22.43076 46.49766 30.20815 8.101093 
80 "M10" 24.84321 100.0000 52.29725 42.67313 74.54461 35.10498 
81 "D5" 77.23659 0.00000 80.03662 34.58719 17.06822 58.96375 
82 "H11" 100.0000 77.54788 100.0000 79.63793 69.06722 103.6878 
83 "H5" 24.73793 0.00000 51.60906 7.131527 3.687566 22.67394 
84 "D9" 54.85008 36.39124 53.09377 19.90113 15.96731 25.73623 
85 "C11" 32.93050 70.67979 38.74723 23.04435 36.16105 18.26824 
86 "B14" 76.87800 76.85206 0.00000 43.08650 51.69623 8.569230 
87 "B6" 0.00000 51.06889 100.0000 26.80445 24.01179 97.77343 
88 "A3" 12.77180 67.35027 62.34836 22.35997 32.90195 38.51041 
89 "J14" 100.0000 100.0000 100.0000 95.10649 100.0000 108.8440 
90 "C7" 100.0000 71.94018 26.38743 59.69855 56.16558 13.86045 
91 "F7" 0.00000 83.74151 21.89212 25.39545 48.66023 12.59785 
92 "K4" 52.13550 0.00000 73.42794 19.47435 9.495267 48.35908 
93 "F11" 53.75601 75.88464 100.0000 48.08959 51.39837 101.9388 
94 "C2" 31.44579 76.12879 59.60784 29.03094 43.19294 37.08521 
95 "I9" 85.71450 85.71450 85.71450 67.36889 70.82005 77.05733 
96 "L2" 40.59358 12.19501 61.30007 13.05172 7.247314 32.85717 
97 "K15" 26.07156 24.87221 0.00000 5.039911 5.729538 1.700164 
98 "L4" 24.78981 0.00000 100.0000 20.91418 9.200729 95.22469 
99 "F10" 0.00000 22.40024 0.00000 2.454531 3.908656 1.484848 
100 "G9" 76.25544 100.0000 54.02457 63.07165 85.02643 37.67287 
101 "K2" 72.80842 29.59487 100.0000 41.36074 23.48676 96.90543 
102 "I5" 57.89120 64.70436 38.50614 28.53706 34.71498 17.54731 
103 "J4" 40.12970 41.04372 85.51003 23.96564 18.76357 68.94044 
104 "K12" 54.09323 35.06981 28.56336 16.12464 13.96274 8.919793 
105 "L1" 76.18219 0.00000 59.29961 28.64156 14.61040 31.25530 
106 "D11" 76.33326 26.43473 0.00000 25.20378 16.46481 2.710389 
107 "A15" 73.77432 41.82498 84.33509 38.88410 26.80055 67.68848 
108 "E6" 49.35836 100.0000 78.91814 55.37033 80.36839 68.32768 
109 "L9" 75.21630 100.0000 24.99580 58.78679 83.23540 18.59557 
110 "J3" 100.0000 76.90852 52.93965 65.72980 62.91856 32.24038 
111 "I13" 46.13565 29.20729 70.51194 18.94269 12.95557 45.02060 
112 "F8" 26.69261 77.92630 100.0000 41.39156 49.67227 101.9584 
113 "M11" 49.22560 49.36751 0.00000 16.82178 20.09921 3.853400 
114 "B7" 47.35332 0.00000 24.64942 9.656721 5.361152 6.021791 
115 "F13" 100.0000 50.03128 67.49981 56.80318 40.18065 44.33692 
116 "E14" 9.793240 92.11719 10.79423 30.98345 60.04740 11.87741 
117 "E12" 49.33242 59.66125 72.30793 29.23450 31.09378 50.44054 
118 "I7" 28.21546 25.56497 56.40040 10.49497 8.114383 27.93155 
119 "N12" 100.0000 100.0000 100.0000 95.10649 100.0000 108.8440 
120 "D7" 88.44739 19.32403 13.89639 33.31582 19.25753 4.430679 
121 "C6" 81.71664 85.98611 66.60410 59.17634 67.48948 48.35352 
122 "L6" 64.99580 12.43915 68.56641 24.66584 13.06563 42.16809 
123 "H12" 74.47623 0.00000 19.39269 22.56153 12.05261 4.924945 
124 "D15" 24.65400 19.00511 72.81605 12.82780 7.668357 47.49138 
125 "A4" 82.18051 55.69543 43.63317 39.62673 34.80466 20.45965 
126 "E1" 19.42168 72.80385 21.20851 20.25210 36.54263 10.31296 
127 "N14" 73.97726 27.97589 46.22568 27.17250 17.46368 19.73441 
128 "H1" 34.84245 44.18708 66.11124 17.92734 17.53626 40.27021 
129 "M7" 38.61601 37.53872 14.03067 10.46590 11.95407 4.251264 
130 "G12" 23.61486 79.28740 0.00000 23.81181 43.85985 8.071745 
131 "A1" 50.49973 74.70817 55.17662 33.00637 44.17184 32.48712 
132 "E8" 45.81369 74.01541 81.57168 37.47441 45.15913 66.70426 
133 "G8" 40.83925 19.86114 23.22881 8.612470 6.550759 5.799365 
134 "B9" 74.54490 100.0000 77.39071 67.46945 86.65863 66.55244 
135 "M8" 87.26940 46.90471 14.87755 37.93704 29.80497 6.425427 
136 "N1" 17.84543 38.07431 13.70413 6.633722 10.16368 4.042508 
137 "F14" 19.94049 31.32067 93.06325 20.35449 13.42438 81.96029 
138 "J10" 79.44152 47.18090 64.58076 38.65220 29.56328 39.63146 
139 "N13" 87.37163 87.94995 14.37400 57.85641 69.55338 12.94336 
140 "D14" 31.74792 89.36751 38.93339 34.03656 58.49441 22.11805 
141 "F2" 71.56023 16.36530 29.60098 22.29605 13.03555 8.880052 
142 "H4" 19.16228 39.48882 52.77790 11.12672 12.51873 25.23759 
143 "D10" 38.23758 68.66102 12.61616 21.38897 34.03234 7.667779 
144 "N10" 12.83131 67.10155 87.41588 29.22600 35.45792 75.23757 
145 "G13" 0.00000 25.66873 68.67933 10.57178 7.863879 42.05314 
146 "E7" 67.92096 31.01396 64.68452 27.59951 18.05524 38.11728 
147 "J6" 27.90265 54.55863 19.68566 13.31682 20.87700 7.198960 
148 "L14" 54.12222 87.87518 89.12795 51.55738 64.67569 82.79404 
149 "D13" 39.56512 26.90623 43.33562 11.19885 9.025221 16.76408 
150 "I6" 100.0000 100.0000 100.0000 95.10649 100.0000 108.8440 
151 "K8" 85.71145 64.32898 61.15358 48.87992 44.51701 38.00042 
152 "A6" 13.13344 80.87129 38.85710 25.77542 46.02553 20.09713 
153 "M12" 53.12276 75.85565 23.22271 30.72904 44.39892 11.93836 
154 "L15" 14.57542 60.42115 42.79850 15.95427 25.39085 19.28597 
155 "C3" 91.22301 62.65965 15.27123 46.91790 43.04967 8.594204 
156 "D12" 87.80499 86.52018 44.43427 59.87597 68.86210 26.56020 
157 "M14" 89.96872 40.01221 50.02518 41.66163 28.50852 24.24387 
158 "M9" 81.14290 21.64950 73.53170 36.74965 20.42114 49.70513 
159 "A10" 62.12100 62.92210 86.22416 40.33732 38.39137 73.11211 
160 "M6" 34.36332 56.87953 50.60655 18.90772 24.66726 25.20940 
161 "I14" 69.55673 16.70710 12.95338 20.14818 12.08971 3.559156 
162 "A9" 56.30121 31.60906 88.17121 28.63077 17.97308 73.24837 
163 "D1" 34.11917 86.29587 19.87182 30.82987 53.94054 12.71213 
164 "C4" 92.76722 44.85237 83.41955 53.28661 35.49149 67.06074 
165 "J7" 61.16426 47.17327 72.50629 29.91153 24.82627 49.47164 
166 "G7" 86.49424 16.73304 90.16861 45.36536 23.49221 77.09130 
167 "A14" 100.0000 100.0000 100.0000 95.10649 100.0000 108.8440 
168 "G4" 13.16091 47.10460 87.54253 21.52119 19.94187 72.87410 
169 "I10" 73.08919 70.65080 19.37133 37.88769 43.98508 10.27579 
170 "B15" 53.08919 12.90761 11.14366 11.70134 7.288676 2.764346 
171 "F4" 66.46677 37.75998 13.09071 21.74853 17.85099 4.612710 
172 "J13" 11.74182 13.96963 57.37545 7.302315 4.562913 28.41023 
173 "J12" 90.38682 13.41573 32.07294 35.53632 19.48301 10.61211 
174 "F3" 33.32265 85.81674 86.65751 42.66211 58.14479 77.56247 
175 "K3" 10.00534 89.66506 56.25086 33.99606 58.46926 36.26320 
176 "E5" 39.18669 91.43664 63.50500 41.54280 64.04296 44.85626 
177 "N3" 43.56298 60.10834 95.67102 34.98596 33.45869 90.20441 
178 "A13" 1.580835 23.78119 83.77966 14.65475 9.079852 64.60143 
179 "L7" 29.43923 62.73747 68.27192 23.89428 30.39493 45.17211 
180 "G14" 16.86885 43.33257 32.77790 9.128991 13.28206 11.16425 
181 "I8" 9.306477 58.60990 11.15435 12.29182 22.69582 5.708876 
182 "H2" 100.0000 100.0000 100.0000 95.10649 100.0000 108.8440 
183 "E10" 64.80964 48.09796 43.32647 26.20005 24.01201 18.86025 
184 "K10" 0.00000 0.00000 0.00000 1.000000 1.000000 1.000000 
185 "M1" 85.14382 11.00786 51.83337 33.91382 18.10475 24.24864 
186 "C9" 100.0000 100.0000 100.0000 95.10649 100.0000 108.8440 
187 "C14" 43.61486 14.46098 85.76638 20.78927 10.70996 67.99730 
188 "J9" 48.48859 90.82017 5.459678 37.71343 62.15322 11.27941 
189 "J2" 62.41398 63.23491 5.639734 27.92926 33.66626 6.312210 
190 "A8" 69.42245 76.12116 51.74945 42.20248 50.15023 29.92146 
191 "G1" 11.66247 89.15236 90.61112 43.10014 61.55392 85.38138 
192 "C13" 85.50546 62.41550 82.58335 53.53003 45.00243 67.49052 
193 "B1" 64.35645 89.13558 14.65934 43.79356 63.50763 12.57649 
194 "G3" 53.73312 53.88266 19.62768 20.70163 24.32113 7.457945 
195 "I2" 16.28443 12.51545 87.78973 15.73841 7.816012 71.28159 
196 "F6" 55.68322 15.68322 34.79667 14.56828 8.905236 11.11206 
197 "N11" 16.33783 83.72320 72.41169 34.24676 52.28957 54.41154 
198 "K6" 83.98108 43.13420 99.44457 51.66575 33.27460 97.07164 
199 "G10" 58.71366 14.71275 51.87610 18.21532 10.39299 23.62536 
200 "F12" 62.78172 13.81704 90.35935 30.17333 15.29278 76.66478 
201 "E15" 12.26520 27.90417 42.65049 6.528539 6.861369 16.10060 
202 "G2" 16.02502 36.35615 70.31510 13.83654 12.39719 44.91784 
203 "I1" 0.00000 0.00000 0.00000 1.000000 1.000000 1.000000 
204 "L13" 28.56947 58.55039 83.95056 26.42449 28.58075 68.03583 
205 "K1" 53.41573 87.35943 38.64805 39.35929 59.20503 21.79459 
206 "C15" 40.50507 54.68986 32.36744 17.30580 22.89489 12.37930 
207 "L12" 18.28794 12.99916 35.51690 4.537857 3.415128 10.98532 
208 "K5" 31.86999 13.22347 9.874113 5.116574 3.930952 2.269850 
209 "H15" 72.15076 52.83131 26.15702 30.10056 28.56276 10.00010 
210 "A7" 84.01617 69.20577 33.93149 45.67308 46.78888 16.31463 
END_DATA
