Epson_XP-960/PermaJet/Matt_Proofing_160/PermaJet_Matt_Proofing_160_XP-960.ti3
CTI3   

DESCRIPTOR "Argyll Calibration Target chart information 3"
ORIGINATOR "Argyll chartread"
CREATED "Sat Sep 15 00:17:22 2018"
DEVICE_CLASS "OUTPUT"
COMP_GREY_STEPS "8"
COLOR_REP "iRGB_XYZ"
TARGET_INSTRUMENT "X-Rite ColorMunki"
DEVCALSTD "XRGA"
SPECTRAL_BANDS "106"
SPECTRAL_START_NM "380.000000"
SPECTRAL_END_NM "730.000000"

NUMBER_OF_FIELDS 114
BEGIN_DATA_FORMAT
SAMPLE_ID SAMPLE_LOC RGB_R RGB_G RGB_B XYZ_X XYZ_Y XYZ_Z SPEC_380 SPEC_383 SPEC_387 SPEC_390 SPEC_393 SPEC_397 SPEC_400 SPEC_403 SPEC_407 SPEC_410 SPEC_413 SPEC_417 SPEC_420 SPEC_423 SPEC_427 SPEC_430 SPEC_433 SPEC_437 SPEC_440 SPEC_443 SPEC_447 SPEC_450 SPEC_453 SPEC_457 SPEC_460 SPEC_463 SPEC_467 SPEC_470 SPEC_473 SPEC_477 SPEC_480 SPEC_483 SPEC_487 SPEC_490 SPEC_493 SPEC_497 SPEC_500 SPEC_503 SPEC_507 SPEC_510 SPEC_513 SPEC_517 SPEC_520 SPEC_523 SPEC_527 SPEC_530 SPEC_533 SPEC_537 SPEC_540 SPEC_543 SPEC_547 SPEC_550 SPEC_553 SPEC_557 SPEC_560 SPEC_563 SPEC_567 SPEC_570 SPEC_573 SPEC_577 SPEC_580 SPEC_583 SPEC_587 SPEC_590 SPEC_593 SPEC_597 SPEC_600 SPEC_603 SPEC_607 SPEC_610 SPEC_613 SPEC_617 SPEC_620 SPEC_623 SPEC_627 SPEC_630 SPEC_633 SPEC_637 SPEC_640 SPEC_643 SPEC_647 SPEC_650 SPEC_653 SPEC_657 SPEC_660 SPEC_663 SPEC_667 SPEC_670 SPEC_673 SPEC_677 SPEC_680 SPEC_683 SPEC_687 SPEC_690 SPEC_693 SPEC_697 SPEC_700 SPEC_703 SPEC_707 SPEC_710 SPEC_713 SPEC_717 SPEC_720 SPEC_723 SPEC_727 SPEC_730 
END_DATA_FORMAT

NUMBER_OF_SETS 210
BEGIN_DATA
1 "A12" 100.0000 100.0000 100.0000 83.00108 86.36256 73.22028 77.76229 77.76229 77.76229 77.76229 77.76229 77.76229 77.76229 77.78825 77.79382 77.74188 77.59529 77.54749 77.79216 80.94751 83.42213 85.16667 86.12712 86.61863 86.91726 87.23594 87.63469 88.14527 88.77504 89.48814 90.19941 91.00966 91.97774 92.88200 93.60182 93.93173 93.77726 93.23327 92.37194 91.37835 90.51169 89.79937 89.29764 88.88924 88.57616 88.32392 88.11447 87.89940 87.63079 87.31768 87.06336 86.82697 86.63545 86.49653 86.40492 86.30652 86.17405 85.98125 85.71250 85.41222 85.13781 84.98285 84.91844 84.90021 84.86604 84.84398 84.86558 84.95204 85.07105 85.17575 85.24403 85.29192 85.33118 85.36566 85.39728 85.44673 85.51219 85.58364 85.68791 85.86078 86.06131 86.29263 86.58415 86.87481 87.15914 87.41385 87.63680 87.86661 88.11330 88.33933 88.49276 88.50516 88.47474 88.43165 88.39901 88.30834 88.23145 88.10791 87.99884 87.95918 87.98095 88.05459 88.14862 88.32387 88.41962 88.48245 88.49892 88.52757 88.60772 88.79061 88.94745 89.07058 
2 "A13" 0.00000 31.54498 19.63836 2.895705 4.055012 4.039171 4.928905 4.928905 4.928905 4.928905 4.928905 4.928905 4.928905 4.930658 4.931120 4.927937 4.918755 4.915836 4.931442 4.894249 4.833513 4.784537 4.733929 4.686044 4.647134 4.623049 4.606074 4.584728 4.570756 4.586273 4.596698 4.581968 4.617828 4.693969 4.749294 4.826022 4.979190 5.197575 5.559330 5.885990 6.207077 6.533196 6.851207 7.057626 7.206752 7.293984 7.319898 7.280045 7.180882 7.004638 6.788995 6.531201 6.219239 5.873693 5.513435 5.128681 4.737245 4.342372 3.962213 3.606090 3.280438 2.993509 2.745692 2.539945 2.359585 2.216415 2.111640 2.032537 1.980303 1.945901 1.925058 1.920024 1.925480 1.935353 1.952963 1.990406 2.036787 2.096748 2.163001 2.230865 2.310884 2.407934 2.517074 2.632925 2.750749 2.869926 2.987730 3.132924 3.302872 3.481535 3.675432 3.874071 4.105340 4.389866 4.730183 5.111362 5.566483 6.070511 6.628185 7.348152 8.223132 9.190371 10.23626 11.49392 12.84856 14.24293 15.75470 17.38838 19.07684 20.83072 22.68845 24.50356 
3 "N3" 0.00000 19.55749 34.53422 3.163970 3.289479 6.330186 9.100318 9.100318 9.100318 9.100318 9.100318 9.100318 9.100318 9.103829 9.104962 9.099368 9.082699 9.077599 9.106716 9.095514 9.084934 9.039525 8.941915 8.810495 8.662514 8.514781 8.356708 8.190377 8.020048 7.816794 7.608931 7.429209 7.229295 6.999963 6.799280 6.598499 6.424002 6.314362 6.165686 6.025768 5.926944 5.806151 5.641256 5.462669 5.289691 5.108181 4.943202 4.785088 4.636603 4.512321 4.387732 4.255941 4.113898 3.954572 3.771507 3.572570 3.371975 3.165405 2.958281 2.770386 2.605748 2.460877 2.336728 2.238679 2.152146 2.077429 2.022261 1.988503 1.967442 1.957293 1.955588 1.955633 1.968804 1.992963 2.019227 2.059656 2.112311 2.176174 2.244963 2.327487 2.416462 2.514835 2.628242 2.760327 2.879361 3.012665 3.170029 3.336931 3.512887 3.697129 3.917003 4.165251 4.409787 4.679567 4.995261 5.375493 5.868485 6.444890 7.137281 7.913117 8.792609 9.738774 10.79811 12.02900 13.40297 14.89794 16.44026 18.13317 19.87049 21.58297 23.40476 25.23743 
4 "H3" 58.59770 86.10971 69.36141 30.92746 40.14540 28.22417 29.12377 29.12377 29.12377 29.12377 29.12377 29.12377 29.12377 29.13302 29.13463 29.11469 29.05930 29.04090 29.13197 29.55287 29.95007 30.22393 30.30615 30.32586 30.36111 30.45162 30.59975 30.82812 31.18925 31.66616 32.20058 32.81868 33.53365 34.32671 35.20712 36.30109 37.71981 39.63800 42.09421 44.88058 47.84005 50.62022 53.16042 55.25994 56.85314 57.79893 58.27468 58.35008 58.11838 57.61397 56.89064 55.93605 54.76443 53.35208 51.68767 49.80270 47.73569 45.52682 43.22554 40.88944 38.59006 36.40078 34.31493 32.36368 30.57528 28.99191 27.65258 26.57731 25.74713 25.14463 24.73051 24.48679 24.42045 24.53092 24.80932 25.25398 25.86177 26.63519 27.56609 28.63665 29.81502 31.08707 32.41735 33.76764 35.14561 36.52098 37.87455 39.19090 40.45524 41.66298 42.81194 43.90338 44.93444 46.02673 47.15042 48.26589 49.45496 50.73183 52.15969 53.63958 55.12235 56.65176 58.27326 59.86530 61.44976 62.95193 64.30658 65.70886 66.96318 68.22090 69.48360 70.54051 
5 "N14" 36.31952 9.677272 36.17609 5.176507 4.222797 4.502100 6.882205 6.882205 6.882205 6.882205 6.882205 6.882205 6.882205 6.884706 6.885406 6.881017 6.868252 6.864232 6.886075 6.738562 6.626059 6.508355 6.363896 6.212486 6.065935 5.931367 5.808171 5.694671 5.584984 5.447909 5.318350 5.222847 5.051314 4.867237 4.771227 4.658978 4.578388 4.561839 4.481869 4.470204 4.479056 4.435339 4.337855 4.197787 4.046282 3.885289 3.749518 3.634631 3.546073 3.498175 3.481799 3.469054 3.456666 3.442389 3.402877 3.343120 3.275099 3.197836 3.125332 3.079165 3.063730 3.086712 3.161855 3.289145 3.441582 3.612986 3.804643 4.007252 4.212457 4.413725 4.605232 4.777747 4.951710 5.133837 5.313576 5.507600 5.715938 5.947048 6.196550 6.460865 6.751962 7.053682 7.377124 7.719872 8.070671 8.446876 8.845817 9.280175 9.765572 10.30656 10.90870 11.57665 12.33674 13.22563 14.26293 15.40979 16.77848 18.34094 20.12433 22.08256 24.22403 26.58910 29.05372 31.66907 34.42054 37.27256 40.09123 42.94144 45.67135 48.33723 51.07784 53.58451 
6 "G3" 100.0000 100.0000 100.0000 83.52815 86.86307 74.02903 78.29447 78.29447 78.29447 78.29447 78.29447 78.29447 78.29447 78.32060 78.32621 78.27391 78.12631 78.07818 78.32452 81.56057 84.18682 86.05442 87.09490 87.65184 87.99733 88.34657 88.75655 89.28501 89.98016 90.73440 91.39947 92.18388 93.15232 93.97388 94.51175 94.77751 94.65230 93.96975 93.07609 92.00446 91.14519 90.37964 89.80756 89.42295 89.13170 88.85076 88.63388 88.40388 88.13591 87.81624 87.56068 87.30908 87.12265 86.99324 86.89743 86.79258 86.65972 86.46731 86.19101 85.88213 85.60949 85.46286 85.39505 85.36806 85.33908 85.31439 85.32646 85.40951 85.52924 85.64962 85.72345 85.75119 85.76976 85.81728 85.86479 85.91660 85.98721 86.04459 86.14245 86.32639 86.51902 86.74493 87.05295 87.34752 87.63650 87.89742 88.12271 88.37227 88.61595 88.82166 88.99451 89.01903 89.00313 89.03124 88.96316 88.78099 88.65220 88.51790 88.50080 88.49089 88.44731 88.45213 88.55564 88.66477 88.78226 88.88617 88.93645 88.99894 88.99147 89.00106 89.32117 89.36815 
7 "G8" 70.64317 82.40940 93.62173 45.35411 48.94293 57.56950 63.69874 63.69874 63.69874 63.69874 63.69874 63.69874 63.69874 63.72142 63.72743 63.68633 63.56772 63.53005 63.73199 66.20211 68.21335 69.60010 70.36380 70.73864 70.90202 71.04029 71.16442 71.29980 71.50703 71.64613 71.63044 71.67900 71.74555 71.64813 71.29781 70.76916 70.10534 69.19995 68.26854 67.28813 66.40519 65.41758 64.48736 63.56632 62.54907 61.48939 60.50568 59.65301 58.88526 58.15684 57.47333 56.74987 55.94847 55.01450 53.91686 52.66443 51.29649 49.84375 48.35315 46.88046 45.46273 44.15140 42.90589 41.73065 40.64009 39.65790 38.82786 38.18883 37.72966 37.44171 37.29645 37.27657 37.39822 37.69108 38.12862 38.72386 39.49012 40.39735 41.44587 42.64467 43.91996 45.26031 46.67681 48.10317 49.51265 50.89788 52.21665 53.49510 54.69838 55.80885 56.88845 57.82601 58.68332 59.61513 60.55088 61.39153 62.30597 63.26592 64.39814 65.61030 66.75889 67.93203 69.17966 70.36788 71.51926 72.68305 73.72811 74.71115 75.46665 76.18102 77.25477 77.94855 
8 "N6" 81.60983 36.98939 30.78050 29.49356 21.72266 7.043754 8.592380 8.592380 8.592380 8.592380 8.592380 8.592380 8.592380 8.594228 8.593813 8.587030 8.569783 8.563433 8.589333 8.483105 8.401912 8.303853 8.188989 8.075150 7.974821 7.905053 7.859540 7.841418 7.869130 7.906360 7.935376 7.987852 8.012995 8.049792 8.139971 8.314044 8.578174 9.003782 9.656002 10.42999 11.23916 12.01979 12.63960 13.03262 13.22349 13.21792 13.10857 12.98689 12.90488 12.90758 13.00132 13.13065 13.25113 13.31695 13.28986 13.17977 13.01845 12.85024 12.73643 12.76099 12.99910 13.51587 14.36277 15.57533 17.13535 19.03784 21.24936 23.71055 26.36001 29.11396 31.86902 34.53765 37.07557 39.45024 41.60662 43.55912 45.34786 47.00391 48.55282 50.05252 51.47997 52.87380 54.27070 55.62889 56.92564 58.13086 59.24221 60.29637 61.26036 62.09263 62.87572 63.58032 64.25822 65.08160 65.88874 66.56754 67.35105 68.21357 69.24192 70.27422 71.25169 72.29931 73.42928 74.54416 75.68678 76.73196 77.62459 78.70481 79.48527 80.16704 81.02600 81.77192 
9 "J1" 10.43259 50.62333 61.71969 6.620347 8.072176 13.05545 15.21992 15.21992 15.21992 15.21992 15.21992 15.21992 15.21992 15.22559 15.22728 15.21772 15.18964 15.18090 15.22940 15.49937 15.76185 15.96431 16.06975 16.12191 16.13541 16.12472 16.09912 16.07513 16.07382 16.05870 15.99647 15.92432 15.80972 15.66279 15.52102 15.42464 15.41484 15.61207 15.91559 16.19783 16.48572 16.59853 16.53679 16.26910 15.82365 15.22728 14.59535 13.96171 13.37413 12.83524 12.34621 11.84214 11.29625 10.68317 9.993825 9.258753 8.497942 7.744138 7.025308 6.374159 5.812397 5.338904 4.945777 4.622813 4.362798 4.156871 3.994385 3.867943 3.780849 3.731216 3.707710 3.708420 3.732477 3.781597 3.857526 3.964402 4.111241 4.295402 4.512327 4.765428 5.060057 5.395230 5.749090 6.132461 6.550966 6.975293 7.411399 7.878144 8.354034 8.833717 9.328161 9.796123 10.29873 10.83476 11.38657 12.01199 12.71727 13.51622 14.40227 15.44584 16.61060 17.89734 19.27148 20.65338 22.10210 23.64222 25.27411 27.01170 28.69395 30.33055 32.01055 33.73258 
10 "E1" 93.49660 21.73190 61.04677 36.01981 21.97100 12.03182 18.11301 18.11301 18.11301 18.11301 18.11301 18.11301 18.11301 18.11865 18.11953 18.10702 18.07245 18.06088 18.11737 18.10848 18.02267 17.82356 17.50832 17.12160 16.71554 16.32338 15.94086 15.56159 15.17156 14.77252 14.36341 13.94885 13.47031 12.90823 12.39609 11.96694 11.60841 11.37405 11.24156 11.15120 11.02065 10.81220 10.49702 10.08908 9.592081 9.097885 8.660073 8.315752 8.092292 7.992208 7.991000 8.049139 8.131132 8.182526 8.185231 8.147011 8.079437 8.019815 8.014720 8.123541 8.413851 8.961581 9.841097 11.11974 12.85337 15.08616 17.87071 21.24501 25.18323 29.61851 34.43995 39.49134 44.58606 49.54096 54.16733 58.32699 61.97352 65.10988 67.78795 70.07836 72.01079 73.67039 75.14110 76.42578 77.53534 78.48044 79.30694 80.05055 80.70356 81.23640 81.72240 82.08745 82.34852 82.67620 83.10733 83.46368 83.74145 84.01466 84.39201 84.80778 85.18434 85.60425 86.17540 86.67643 87.17126 87.68507 88.06535 88.45088 88.70374 88.99588 89.37769 89.68136 
11 "F1" 14.28550 14.28550 14.28550 3.414289 3.540319 3.192691 4.387108 4.387108 4.387108 4.387108 4.387108 4.387108 4.387108 4.388653 4.389049 4.386201 4.378013 4.375399 4.389270 4.298611 4.235163 4.174119 4.102223 4.022718 3.949327 3.892148 3.843402 3.804119 3.770319 3.743031 3.694742 3.648589 3.644584 3.634152 3.645961 3.620936 3.672062 3.667936 3.770651 3.938440 4.051322 4.131717 4.225749 4.263139 4.256094 4.226798 4.192852 4.157948 4.123647 4.088087 4.052169 4.015863 3.971966 3.903820 3.821112 3.714901 3.594177 3.470554 3.342967 3.221790 3.119484 3.041858 2.988077 2.954979 2.933435 2.917243 2.904339 2.901455 2.904100 2.908803 2.924520 2.945060 2.970179 3.009097 3.061659 3.126458 3.207266 3.303653 3.399509 3.514980 3.638013 3.767813 3.912621 4.075947 4.252934 4.428238 4.614437 4.835770 5.080511 5.365945 5.685169 6.055588 6.500530 7.020349 7.642018 8.370395 9.235318 10.22246 11.39546 12.81183 14.38586 16.16479 18.22740 20.43730 22.91490 25.50008 28.20908 31.15234 34.10772 36.99667 39.94682 42.82856 
12 "J5" 71.42901 71.42901 71.42901 38.09538 39.51375 28.67489 32.33637 32.33637 32.33637 32.33637 32.33637 32.33637 32.33637 32.34690 32.34894 32.32706 32.26582 32.24566 32.34705 32.87062 33.30470 33.56403 33.57830 33.48899 33.39422 33.34917 33.35117 33.40535 33.54712 33.75040 33.96280 34.22644 34.47628 34.68690 34.94151 35.31108 35.90053 36.79571 37.95074 39.23659 40.60246 41.74318 42.64998 43.24038 43.49041 43.44464 43.23675 42.97110 42.73021 42.51930 42.35504 42.15682 41.87548 41.45095 40.85137 40.10608 39.26982 38.40968 37.58878 36.87996 36.32596 35.93374 35.65991 35.47711 35.35566 35.30739 35.35373 35.49756 35.73368 36.04387 36.40203 36.80933 37.27375 37.83095 38.47384 39.21158 40.06546 41.03841 42.12810 43.33753 44.61856 45.96048 47.36151 48.75451 50.14105 51.47572 52.74452 53.98038 55.11544 56.16841 57.19912 58.09341 58.97023 59.94761 60.87365 61.73200 62.66417 63.61646 64.73199 65.91614 67.06293 68.25212 69.50613 70.69819 71.84733 72.95079 73.95629 75.08106 76.00393 76.78453 77.69391 78.40190 
13 "N7" 0.00000 57.14656 27.48608 3.892149 6.410521 5.436352 5.821067 5.821067 5.821067 5.821067 5.821067 5.821067 5.821067 5.823034 5.823475 5.819610 5.808660 5.805105 5.823425 5.763841 5.746639 5.731751 5.705849 5.681473 5.666348 5.669507 5.686583 5.727175 5.797670 5.871012 5.981713 6.119886 6.213857 6.339502 6.564114 6.876995 7.250501 7.774640 8.453510 9.265057 10.13133 11.03256 11.86752 12.56355 13.09803 13.41033 13.51238 13.42120 13.15178 12.73705 12.21446 11.58102 10.87010 10.10142 9.283802 8.451446 7.630819 6.830686 6.070262 5.381667 4.766600 4.230987 3.779182 3.410569 3.108227 2.865996 2.679372 2.546919 2.450920 2.384795 2.344767 2.316733 2.309468 2.324974 2.350402 2.395011 2.458638 2.543784 2.633946 2.737749 2.860677 2.997398 3.157416 3.337899 3.519509 3.714359 3.912358 4.134564 4.385795 4.636043 4.902325 5.180972 5.471548 5.812739 6.160897 6.551131 7.060459 7.661564 8.391382 9.199792 10.05718 11.04711 12.10201 13.28331 14.56031 15.99898 17.44535 18.97218 20.55030 22.13148 23.69351 25.35315 
14 "E5" 0.00000 0.00000 0.00000 2.343464 2.392717 2.416718 3.540203 3.540203 3.540203 3.540203 3.540203 3.540203 3.540203 3.541485 3.541840 3.539578 3.533007 3.530934 3.542166 3.487663 3.410338 3.337206 3.266895 3.195950 3.130593 3.068089 3.010612 2.956751 2.899143 2.847750 2.807763 2.794973 2.748585 2.642989 2.621426 2.659807 2.644548 2.647716 2.666755 2.640331 2.626825 2.634069 2.656078 2.693506 2.709183 2.712868 2.713270 2.708278 2.694314 2.678903 2.658583 2.631790 2.604410 2.563339 2.513738 2.466597 2.422632 2.376782 2.327082 2.279362 2.232059 2.193591 2.164093 2.133154 2.105181 2.069648 2.048150 2.038096 2.034684 2.036870 2.042246 2.046626 2.052087 2.062803 2.081525 2.110193 2.150801 2.194014 2.243026 2.294885 2.348038 2.414038 2.482959 2.557633 2.622615 2.689826 2.783798 2.902806 3.017793 3.135713 3.305619 3.522894 3.745303 4.035435 4.435366 4.926859 5.453786 6.116259 7.004620 8.042546 9.232066 10.69255 12.52033 14.57941 16.89908 19.59256 22.59771 25.88997 29.38143 33.15175 37.14473 41.21522 
15 "J3" 57.14351 57.14351 57.14351 22.01627 22.60340 14.76321 17.20237 17.20237 17.20237 17.20237 17.20237 17.20237 17.20237 17.20784 17.20880 17.19703 17.16431 17.15345 17.20722 17.19339 17.17638 17.12140 16.99256 16.85035 16.71903 16.62063 16.56143 16.55081 16.63110 16.76993 16.90398 17.05456 17.18984 17.35506 17.60331 18.02506 18.67625 19.60927 20.83330 22.18699 23.59355 24.74289 25.58536 26.05573 26.15127 25.96118 25.64227 25.30834 25.02572 24.81795 24.68120 24.52436 24.29884 23.94033 23.43118 22.79424 22.07143 21.33425 20.64332 20.05142 19.59392 19.28892 19.10816 19.02211 19.00775 19.06434 19.18795 19.37643 19.62386 19.91697 20.24865 20.62230 21.04112 21.52753 22.08001 22.71457 23.45697 24.31087 25.27296 26.34655 27.49514 28.71739 30.00894 31.33163 32.67579 33.99224 35.26995 36.54031 37.76404 38.91135 40.01281 41.03217 42.06377 43.18784 44.29395 45.40582 46.62862 47.92656 49.34188 50.84318 52.41545 54.07978 55.79720 57.47758 59.12713 60.76472 62.29987 63.88611 65.30871 66.55733 67.89684 69.10643 
16 "J14" 42.85649 42.85649 42.85649 10.14578 10.18976 7.546280 9.124540 9.124540 9.124540 9.124540 9.124540 9.124540 9.124540 9.127546 9.128160 9.122024 9.104782 9.099129 9.127764 9.067658 9.024219 8.969532 8.884729 8.788436 8.698829 8.635461 8.597074 8.587753 8.622302 8.681108 8.727066 8.764630 8.808395 8.850560 8.896659 9.025025 9.292285 9.752384 10.31902 10.92702 11.58436 12.14171 12.51462 12.68071 12.64602 12.44439 12.16681 11.86460 11.61643 11.43307 11.31098 11.19460 11.05287 10.84358 10.54362 10.16585 9.725308 9.255694 8.804090 8.412931 8.113489 7.915696 7.822361 7.822018 7.887792 7.998267 8.138105 8.298541 8.472701 8.659022 8.854074 9.062335 9.287127 9.545623 9.838144 10.17008 10.56692 11.02529 11.54126 12.12582 12.76293 13.45667 14.19460 14.96340 15.76562 16.56560 17.37138 18.21146 19.05249 19.87685 20.70945 21.53359 22.41203 23.39417 24.41209 25.48580 26.70222 28.03103 29.51901 31.15125 32.91096 34.78121 36.71875 38.68214 40.71474 42.76052 44.76997 46.89338 48.89854 50.70689 52.54095 54.28939 
17 "A6" 28.57099 28.57099 28.57099 5.179310 5.292128 4.387984 5.758581 5.758581 5.758581 5.758581 5.758581 5.758581 5.758581 5.760560 5.761032 5.757244 5.746447 5.742966 5.761123 5.673530 5.592326 5.521226 5.439563 5.351323 5.276964 5.226795 5.185399 5.146548 5.120259 5.097075 5.062183 5.028314 5.007215 5.000049 5.040361 5.106951 5.181205 5.307036 5.530859 5.840941 6.089914 6.301471 6.466125 6.528458 6.506448 6.430874 6.326912 6.222686 6.132748 6.051656 5.991038 5.938646 5.864316 5.758787 5.618850 5.435043 5.222572 4.994086 4.770867 4.575878 4.418612 4.312535 4.251161 4.223739 4.220692 4.238284 4.267317 4.303358 4.350656 4.403361 4.459715 4.528052 4.611684 4.702137 4.805434 4.931839 5.088861 5.280476 5.487163 5.706557 5.958453 6.239244 6.541356 6.850841 7.185744 7.541320 7.898379 8.285387 8.712353 9.179178 9.694966 10.24756 10.85172 11.56259 12.41481 13.37594 14.48818 15.70142 17.06447 18.67024 20.47288 22.44342 24.50747 26.76977 29.13780 31.58018 34.03408 36.52862 39.00216 41.54720 43.97809 46.22576 
18 "D11" 0.00000 0.00000 0.00000 2.277009 2.324986 2.350867 3.479001 3.479001 3.479001 3.479001 3.479001 3.479001 3.479001 3.480263 3.480614 3.478392 3.471937 3.469902 3.480941 3.403041 3.355069 3.291656 3.208976 3.135493 3.067655 3.005566 2.949807 2.896424 2.844560 2.787162 2.731746 2.670592 2.618220 2.549377 2.491074 2.552074 2.538753 2.488029 2.530213 2.586345 2.592697 2.572948 2.593284 2.611860 2.617301 2.622377 2.628234 2.625338 2.619060 2.612625 2.591922 2.557266 2.531912 2.497000 2.450977 2.414114 2.370281 2.317093 2.266627 2.214433 2.165495 2.131324 2.103208 2.069025 2.039490 2.011159 1.991877 1.981125 1.976438 1.975443 1.980962 1.984216 1.989721 2.004587 2.029911 2.052836 2.083970 2.125572 2.178588 2.235669 2.291838 2.347489 2.403922 2.461043 2.526338 2.604815 2.693533 2.787766 2.913241 3.034924 3.193747 3.375807 3.615877 3.927070 4.291272 4.722866 5.300848 5.947370 6.788881 7.813643 9.053524 10.50903 12.28469 14.34804 16.57950 19.21302 22.26911 25.58843 29.10080 32.87653 36.89193 40.92276 
19 "L13" 0.00000 0.00000 100.0000 5.178698 3.895079 11.88579 19.23485 19.23485 19.23485 19.23485 19.23485 19.23485 19.23485 19.24246 19.24505 19.23342 19.19839 19.18781 19.24959 19.52300 19.76032 19.80764 19.60475 19.22731 18.72688 18.15693 17.51630 16.79524 15.99772 15.12142 14.20633 13.32475 12.45466 11.52439 10.58655 9.721358 8.964059 8.295804 7.725192 7.234096 6.752368 6.264824 5.840612 5.434522 5.042058 4.699950 4.422611 4.198148 4.032582 3.925873 3.840626 3.780311 3.722141 3.654422 3.555847 3.427222 3.289198 3.144833 3.013079 2.897033 2.808878 2.753081 2.728807 2.727129 2.737492 2.763641 2.799326 2.832710 2.872654 2.916092 2.967205 3.021751 3.080466 3.154730 3.251079 3.357582 3.479572 3.631882 3.806453 4.007313 4.235473 4.478181 4.744324 5.025563 5.326697 5.647616 5.980062 6.324932 6.692124 7.100138 7.513686 7.922247 8.389609 8.952570 9.555872 10.22236 11.00160 11.88623 12.91487 14.02481 15.25843 16.65759 18.12510 19.67000 21.41872 23.16222 24.88942 26.68052 28.49850 30.30381 32.28207 34.13384 
20 "J2" 0.00000 100.0000 0.00000 5.539957 10.07567 4.447700 4.040553 4.040553 4.040553 4.040553 4.040553 4.040553 4.040553 4.041551 4.041485 4.038427 4.030448 4.027596 4.039915 4.017478 3.981053 3.960849 3.949883 3.937305 3.931854 3.946097 3.979012 4.026834 4.116556 4.240877 4.346325 4.471806 4.624977 4.790136 4.990467 5.336626 5.850072 6.550760 7.473426 8.669990 10.15416 11.85461 13.75536 15.72692 17.58411 19.15232 20.31828 21.02064 21.26097 21.07093 20.54096 19.71599 18.68030 17.48993 16.18392 14.81964 13.43179 12.05018 10.71684 9.472579 8.342745 7.341518 6.476668 5.749604 5.147147 4.665260 4.288420 3.998635 3.788585 3.641646 3.539359 3.475585 3.446521 3.448401 3.475421 3.535638 3.630894 3.752186 3.902555 4.084539 4.286883 4.525520 4.787322 5.064070 5.363093 5.668636 5.982004 6.334998 6.697020 7.062086 7.463700 7.868662 8.335504 8.854767 9.411575 10.03098 10.76223 11.57121 12.48910 13.52093 14.70429 16.05315 17.49629 18.98435 20.56423 22.29537 24.12614 26.03768 27.86446 29.66214 31.61340 33.49595 
21 "H9" 100.0000 0.00000 100.0000 35.56542 18.05633 20.17317 40.10328 40.10328 40.10328 40.10328 40.10328 40.10328 40.10328 40.11820 40.12265 40.09744 40.02343 40.00038 40.12816 40.87637 41.06189 40.49585 39.16178 37.36618 35.35445 33.28157 31.16378 28.94395 26.57507 24.13436 21.79926 19.69839 17.72444 15.73576 13.88060 12.28173 10.88187 9.680151 8.708772 7.882065 7.181389 6.528226 5.930969 5.389930 4.930380 4.526164 4.218181 3.990740 3.851970 3.782257 3.764454 3.782173 3.822785 3.857287 3.861809 3.844037 3.816291 3.784849 3.776895 3.821686 3.960758 4.239758 4.704833 5.412271 6.444566 7.879848 9.816526 12.35787 15.60999 19.66870 24.53166 30.12884 36.33425 42.93501 49.61441 56.03960 61.96035 67.21609 71.72455 75.51133 78.59096 81.08461 83.14164 84.78319 86.09826 87.14125 87.96684 88.65827 89.23120 89.70391 90.07011 90.29350 90.46338 90.70970 90.83382 90.82022 90.81076 90.83534 90.95214 91.07417 91.11323 91.20553 91.39819 91.62018 91.86945 92.00314 92.05078 92.25089 92.36778 92.51430 92.81746 92.92512 
22 "C7" 100.0000 0.00000 0.00000 14.50570 9.549841 3.098293 4.092810 4.092810 4.092810 4.092810 4.092810 4.092810 4.092810 4.093681 4.093473 4.090233 4.082007 4.078973 4.091297 4.018194 3.939437 3.873693 3.810723 3.747888 3.692183 3.649259 3.615982 3.589824 3.573390 3.590069 3.599322 3.572699 3.549894 3.530003 3.555484 3.585328 3.686802 3.768467 3.899631 4.079674 4.278295 4.446105 4.601690 4.689045 4.683415 4.575507 4.472784 4.409247 4.357877 4.331928 4.351934 4.395952 4.450486 4.482512 4.480508 4.455819 4.406072 4.358318 4.334679 4.360950 4.476445 4.704844 5.081497 5.642858 6.392639 7.361620 8.547915 9.929836 11.48018 13.15287 14.89713 16.65006 18.33526 19.90864 21.35945 22.65873 23.78687 24.77404 25.63598 26.39363 27.05322 27.66376 28.25398 28.83793 29.42897 30.02953 30.68308 31.44429 32.31217 33.32048 34.53445 35.91896 37.51218 39.38416 41.51225 43.79739 46.28288 49.01546 51.87867 54.79354 57.85159 60.99256 64.10786 67.13516 70.09839 72.85286 75.36115 77.70923 79.76738 81.70670 83.49231 85.06625 
