Epson_XP-960/ScandinavianPhoto/SatinProfessional/XP_960-satin-professional.ti2
CTI2   

DESCRIPTOR "Argyll Calibration Target chart information 2"
ORIGINATOR "Argyll printtarg"
CREATED "Wed Nov 15 20:17:34 2023"
TARGET_INSTRUMENT "GretagMacbeth i1 Pro"
COMP_GREY_STEPS "128"
APPROX_WHITE_POINT "95.106486 100.000000 108.844025"
COLOR_REP "iRGB"
PAPER_SIZE "210.0x297.0"
RANDOM_START "334"
STEPS_IN_PASS "24"
PASSES_IN_STRIPS2 "24,24"
STRIP_INDEX_PATTERN "A-Z, A-Z"
PATCH_INDEX_PATTERN "0-9,@-9,@-9;1-999"
INDEX_ORDER "STRIP_THEN_PATCH"

NUMBER_OF_FIELDS 8
BEGIN_DATA_FORMAT
SAMPLE_ID SAMPLE_LOC RGB_R RGB_G RGB_B XYZ_X XYZ_Y XYZ_Z 
END_DATA_FORMAT

NUMBER_OF_SETS 1152
BEGIN_DATA
1 "AR20" 100.0000 100.0000 100.0000 95.10649 100.0000 108.8440 
2 "AI9" 99.21263 99.21263 99.21263 93.42961 98.23592 106.9224 
3 "L10" 55.11864 55.11864 55.11864 25.89198 27.18635 29.52568 
4 "U14" 92.46662 45.90982 6.677348 41.58578 31.27348 5.232402 
5 "AQ20" 56.71931 14.39841 100.0000 31.01459 15.36775 95.88314 
6 "L3" 44.09400 44.09400 44.09400 16.37637 17.17594 18.62099 
7 "O18" 67.10613 66.88029 39.85199 34.34314 39.19163 18.96715 
8 "AS13" 57.48074 57.48074 57.48074 28.28382 29.70258 32.26668 
9 "AE1" 13.80331 0.00000 23.99176 2.531670 1.692717 5.450342 
10 "AR17" 98.42527 98.42527 98.42527 91.77029 96.49032 105.0208 
11 "AS23" 97.63790 97.63790 97.63790 90.12848 94.76313 103.1393 
12 "K19" 96.85054 96.85054 96.85054 88.50412 93.05431 101.2779 
13 "P19" 96.06317 96.06317 96.06317 86.89716 91.36379 99.43632 
14 "AB16" 95.27581 95.27581 95.27581 85.30756 89.69153 97.61466 
15 "AJ20" 94.48844 94.48844 94.48844 83.73524 88.03745 95.81282 
16 "Z22" 93.70108 93.70108 93.70108 82.18017 86.40152 94.03074 
17 "A5" 92.91371 92.91371 92.91371 80.64228 84.78366 92.26835 
18 "AL16" 92.12634 92.12634 92.12634 79.12152 83.18382 90.52559 
19 "I9" 91.33898 91.33898 91.33898 77.61783 81.60194 88.80240 
20 "AG15" 90.55161 90.55161 90.55161 76.13117 80.03797 87.09872 
21 "AV8" 89.76425 89.76425 89.76425 74.66147 78.49185 85.41448 
22 "AC7" 88.97688 88.97688 88.97688 73.20868 76.96352 83.74961 
23 "AV16" 88.18952 88.18952 88.18952 71.77274 75.45291 82.10406 
24 "M19" 87.40215 87.40215 87.40215 70.35360 73.95997 80.47775 
25 "AV10" 86.61479 86.61479 86.61479 68.95120 72.48465 78.87063 
26 "W7" 85.82742 85.82742 85.82742 67.56549 71.02687 77.28263 
27 "AA6" 85.04005 85.04005 85.04005 66.19639 69.58659 75.71368 
28 "A7" 84.25269 84.25269 84.25269 64.84387 68.16374 74.16371 
29 "Q21" 83.46532 83.46532 83.46532 63.50786 66.75825 72.63267 
30 "Q10" 82.67643 82.67643 82.67643 62.18830 65.37007 71.12048 
31 "H8" 81.88907 81.88907 81.88907 60.88513 63.99914 69.62708 
32 "I4" 81.10170 81.10170 81.10170 59.59830 62.64540 68.15240 
33 "K15" 80.31434 80.31434 80.31434 58.32775 61.30878 66.69637 
34 "AC5" 79.52697 79.52697 79.52697 57.07341 59.98921 65.25893 
35 "B6" 78.73960 78.73960 78.73960 55.83523 58.68665 63.84000 
36 "B8" 77.95224 77.95224 77.95224 54.61315 57.40102 62.43952 
37 "F12" 77.16487 77.16487 77.16487 53.40710 56.13226 61.05742 
38 "AS3" 76.37751 76.37751 76.37751 52.21703 54.88030 59.69362 
39 "AN23" 75.59014 75.59014 75.59014 51.04288 53.64509 58.34807 
40 "E13" 74.80278 74.80278 74.80278 49.88458 52.42656 57.02068 
41 "AS9" 74.01541 74.01541 74.01541 48.74207 51.22464 55.71139 
42 "AL23" 73.22805 73.22805 73.22805 47.61529 50.03927 54.42012 
43 "U17" 72.44068 72.44068 72.44068 46.50418 48.87038 53.14681 
44 "K7" 71.65332 71.65332 71.65332 45.40867 47.71791 51.89139 
45 "AC12" 70.86595 70.86595 70.86595 44.32870 46.58179 50.65377 
46 "L23" 70.07858 70.07858 70.07858 43.26422 45.46194 49.43389 
47 "E11" 69.29122 69.29122 69.29122 42.21514 44.35832 48.23167 
48 "F20" 68.50385 68.50385 68.50385 41.18142 43.27084 47.04705 
49 "C13" 67.71649 67.71649 67.71649 40.16297 42.19944 45.87993 
50 "AQ19" 66.92912 66.92912 66.92912 39.15975 41.14405 44.73026 
51 "C9" 66.14176 66.14176 66.14176 38.17168 40.10460 43.59796 
52 "I15" 65.35439 65.35439 65.35439 37.19870 39.08103 42.48294 
53 "V12" 64.56703 64.56703 64.56703 36.24074 38.07325 41.38514 
54 "C15" 63.77966 63.77966 63.77966 35.29774 37.08121 40.30447 
55 "C11" 62.99229 62.99229 62.99229 34.36962 36.10483 39.24087 
56 "Y14" 62.20493 62.20493 62.20493 33.45631 35.14403 38.19424 
57 "AO19" 61.41756 61.41756 61.41756 32.55776 34.19876 37.16452 
58 "D3" 60.63020 60.63020 60.63020 31.67389 33.26893 36.15162 
59 "G7" 59.84283 59.84283 59.84283 30.80463 32.35447 35.15547 
60 "N7" 59.05547 59.05547 59.05547 29.94991 31.45530 34.17598 
61 "X21" 58.26810 58.26810 58.26810 29.10967 30.57136 33.21308 
62 "Q18" 0.00000 0.00000 0.00000 1.000000 1.000000 1.000000 
63 "AU10" 56.69337 56.69337 56.69337 27.47231 28.84886 31.33670 
64 "AG4" 55.90600 55.90600 55.90600 26.67505 28.01015 30.42306 
65 "AN10" 100.0000 100.0000 100.0000 95.10649 100.0000 108.8440 
66 "I13" 54.33127 54.33127 54.33127 25.12302 26.37741 28.64446 
67 "AT19" 53.54391 53.54391 53.54391 24.36809 25.58323 27.77934 
68 "AP8" 52.75654 52.75654 52.75654 23.62713 24.80374 26.93021 
69 "L5" 51.96918 51.96918 51.96918 22.90006 24.03886 26.09701 
70 "AJ22" 51.18181 51.18181 51.18181 22.18681 23.28852 25.27963 
71 "G5" 50.39445 50.39445 50.39445 21.48729 22.55262 24.47800 
72 "U2" 49.60555 49.60555 49.60555 20.80143 21.83110 23.69202 
73 "AO3" 48.81819 48.81819 48.81819 20.12916 21.12387 22.92161 
74 "AQ16" 48.03082 48.03082 48.03082 19.47039 20.43085 22.16668 
75 "L21" 47.24346 47.24346 47.24346 18.82505 19.75195 21.42713 
76 "AA20" 46.45609 46.45609 46.45609 18.19306 19.08710 20.70288 
77 "AC14" 45.66873 45.66873 45.66873 17.57434 18.43620 19.99384 
78 "AA18" 44.88136 44.88136 44.88136 16.96880 17.79918 19.29991 
79 "AT13" 0.00000 0.00000 0.00000 1.000000 1.000000 1.000000 
80 "S4" 43.30663 43.30663 43.30663 15.79696 16.56640 17.95700 
81 "X3" 42.51926 42.51926 42.51926 15.23049 15.97048 17.30784 
82 "AS17" 41.73190 41.73190 41.73190 14.67688 15.38808 16.67342 
83 "AB22" 40.94453 40.94453 40.94453 14.13604 14.81911 16.05362 
84 "Y2" 40.15717 40.15717 40.15717 13.60789 14.26349 15.44837 
85 "D5" 39.36980 39.36980 39.36980 13.09233 13.72113 14.85755 
86 "Q14" 38.58244 38.58244 38.58244 12.58929 13.19193 14.28108 
87 "AE6" 37.79507 37.79507 37.79507 12.09867 12.67580 13.71884 
88 "M7" 37.00771 37.00771 37.00771 11.62038 12.17264 13.17073 
89 "AS15" 36.22034 36.22034 36.22034 11.15434 11.68237 12.63666 
90 "R12" 35.43297 35.43297 35.43297 10.70045 11.20487 12.11651 
91 "AK6" 34.64561 34.64561 34.64561 10.25863 10.74007 11.61019 
92 "Y10" 33.85824 33.85824 33.85824 9.828766 10.28786 11.11758 
93 "AT17" 33.07088 33.07088 33.07088 9.410778 9.848137 10.63857 
94 "AO15" 32.28351 32.28351 32.28351 9.004568 9.420804 10.17306 
95 "AU3" 31.49615 31.49615 31.49615 8.610039 9.005759 9.720942 
96 "AQ4" 30.70878 30.70878 30.70878 8.227092 8.602899 9.282093 
97 "Z20" 29.92142 29.92142 29.92142 7.855628 8.212119 8.856404 
98 "AS5" 29.13405 29.13405 29.13405 7.495547 7.833314 8.443759 
99 "AK4" 28.34668 28.34668 28.34668 7.146747 7.466377 8.044041 
100 "AJ2" 27.55932 27.55932 27.55932 6.809125 7.111198 7.657133 
101 "U13" 26.77195 26.77195 26.77195 6.482575 6.767667 7.282914 
102 "Y19" 25.98459 25.98459 25.98459 6.166992 6.435674 6.921262 
103 "F2" 25.19722 25.19722 25.19722 5.862267 6.115104 6.572054 
104 "AL14" 24.40986 24.40986 24.40986 5.568292 5.805842 6.235165 
105 "AB11" 23.62249 23.62249 23.62249 5.284955 5.507771 5.910466 
106 "AT15" 22.83513 22.83513 22.83513 5.012142 5.220773 5.597830 
107 "AS11" 22.04776 22.04776 22.04776 4.749741 4.944726 5.297123 
108 "AB13" 21.26040 21.26040 21.26040 4.497633 4.679509 5.008212 
109 "AE20" 20.47303 20.47303 20.47303 4.255699 4.424995 4.730962 
110 "X13" 19.68566 19.68566 19.68566 4.023820 4.181058 4.465234 
111 "R16" 18.89830 18.89830 18.89830 3.801872 3.947569 4.210886 
112 "AQ24" 18.11093 18.11093 18.11093 3.589730 3.724395 3.967775 
113 "AI24" 17.32357 17.32357 17.32357 3.387265 3.511402 3.735755 
114 "G1" 16.53468 16.53468 16.53468 3.194348 3.308453 3.514676 
115 "AU1" 15.74731 15.74731 15.74731 3.010845 3.115408 3.304385 
116 "AO1" 14.95995 14.95995 14.95995 2.836620 2.932124 3.104727 
117 "E23" 14.17258 14.17258 14.17258 2.671534 2.758453 2.915542 
118 "AN9" 13.38521 13.38521 13.38521 2.515445 2.594247 2.736667 
119 "AR24" 12.59785 12.59785 12.59785 2.368206 2.439353 2.567935 
120 "D1" 11.81048 11.81048 11.81048 2.229669 2.293612 2.409175 
121 "X15" 11.02312 11.02312 11.02312 2.099680 2.156863 2.260210 
122 "L1" 10.23575 10.23575 10.23575 1.978081 2.028941 2.120860 
123 "E21" 9.448386 9.448386 9.448386 1.864709 1.909674 1.990938 
124 "AT5" 8.661021 8.661021 8.661021 1.759399 1.798887 1.870255 
125 "N13" 7.873655 7.873655 7.873655 1.661976 1.696398 1.758610 
126 "B15" 7.086290 7.086290 7.086290 1.572262 1.602020 1.655800 
127 "O1" 6.298924 6.298924 6.298924 1.490073 1.515557 1.561613 
128 "C24" 5.511559 5.511559 5.511559 1.415217 1.436808 1.475829 
129 "AM22" 4.724193 4.724193 4.724193 1.347492 1.365562 1.398219 
130 "AP24" 3.936828 3.936828 3.936828 1.286692 1.301600 1.328543 
131 "Z23" 3.149462 3.149462 3.149462 1.229411 1.241340 1.262900 
132 "AR19" 2.362097 2.362097 2.362097 1.172058 1.181005 1.197175 
133 "AC8" 1.574731 1.574731 1.574731 1.114705 1.120670 1.131450 
134 "F22" 0.787366 0.787366 0.787366 1.057353 1.060335 1.065725 
135 "AO18" 100.0000 0.00000 100.0000 59.70128 29.19948 97.04219 
136 "G8" 100.0000 100.0000 0.00000 77.23538 92.85269 14.71507 
137 "M12" 0.00000 100.0000 0.00000 36.40521 71.80052 12.80184 
138 "AO8" 0.00000 0.00000 100.0000 18.87111 8.147314 95.12896 
139 "D2" 100.0000 0.00000 0.00000 41.83017 22.05217 2.913230 
140 "AU17" 0.00000 100.0000 100.0000 54.27632 78.94783 106.9308 
141 "AA7" 0.00000 38.33219 100.0000 23.17205 16.74800 96.56262 
142 "AK23" 100.0000 0.00000 31.79828 43.30380 22.64153 10.67501 
143 "AD19" 100.0000 44.03754 0.00000 47.59924 33.58869 4.836269 
144 "V13" 0.00000 100.0000 28.22919 37.56286 72.26351 18.89931 
145 "B19" 43.27306 100.0000 0.00000 42.81425 75.10504 13.10215 
146 "AR13" 58.52903 0.00000 100.0000 31.18740 14.49763 95.70608 
147 "AI4" 0.00000 74.99657 0.00000 19.49788 37.99058 7.166010 
148 "V16" 0.00000 0.00000 62.47196 7.222242 3.488504 33.77319 
149 "X10" 100.0000 60.26703 100.0000 71.08999 51.97372 100.8385 
150 "AI11" 56.58503 0.00000 0.00000 12.43767 6.897300 1.535949 
151 "T19" 100.0000 100.0000 39.87640 79.59448 93.79618 27.14070 
152 "S20" 51.84558 100.0000 100.0000 63.72949 83.82192 107.3738 
153 "X14" 100.0000 0.00000 50.50889 45.73992 23.61582 23.50628 
154 "AA4" 0.00000 63.72473 100.0000 31.75013 33.90177 99.42200 
155 "J8" 0.00000 48.39094 0.00000 8.061413 15.12085 3.353824 
156 "F3" 0.00000 100.0000 58.99901 41.89137 73.99464 41.69802 
157 "N8" 100.0000 15.70916 100.0000 60.45446 30.70564 97.29325 
158 "W6" 73.99557 36.40803 0.00000 25.56340 19.39606 3.257265 
159 "AM7" 41.70138 43.67742 100.0000 30.46437 22.53790 97.29617 
160 "R1" 30.62486 0.00000 71.09636 12.40638 5.922522 44.79987 
161 "AM1" 65.03548 100.0000 56.64149 56.95934 81.81796 39.95636 
162 "AV6" 0.00000 44.81575 54.68681 11.63569 14.83468 27.47103 
163 "AD14" 100.0000 41.25277 44.97444 49.89735 33.31145 20.63018 
164 "AK5" 100.0000 72.11414 0.00000 58.77787 55.94282 8.562510 
165 "AE15" 0.00000 0.00000 37.52804 3.076544 1.830487 11.93737 
166 "Z5" 72.39185 100.0000 0.00000 56.11799 81.96449 13.72554 
167 "AU20" 50.53025 0.00000 59.11345 15.45067 7.813528 30.43896 
168 "AF15" 41.79446 75.15526 0.00000 25.53827 41.23529 7.474198 
169 "AU5" 12.98390 100.0000 100.0000 54.90075 79.26979 106.9601 
170 "AS2" 72.22248 0.00000 0.00000 20.61046 11.11122 1.918912 
171 "AU13" 15.05455 0.00000 100.0000 19.67674 8.562700 95.16671 
172 "S8" 100.0000 100.0000 77.47616 87.27747 96.86889 67.60779 
173 "F9" 70.96666 0.00000 100.0000 37.72962 17.87083 96.01264 
174 "AO14" 23.84680 100.0000 72.06531 46.84075 76.19311 57.88150 
175 "O12" 0.00000 73.49050 56.49195 23.66687 38.34702 33.16734 
176 "AU11" 37.88968 100.0000 24.78370 42.13959 74.65381 17.73622 
177 "AI21" 100.0000 88.04913 52.78096 72.66291 76.82785 34.41262 
178 "P15" 62.43687 28.59846 100.0000 35.42355 20.17563 96.57899 
179 "AA8" 26.42405 0.00000 0.00000 3.317702 2.195015 1.108603 
180 "P10" 29.01808 78.22385 100.0000 41.99463 50.23874 102.0360 
181 "U16" 100.0000 100.0000 27.31365 78.31905 93.28609 20.42289 
182 "C2" 0.00000 24.47547 0.00000 2.727743 4.455003 1.575919 
183 "Z16" 29.52773 53.12123 0.00000 12.53725 19.77366 4.016217 
184 "K5" 43.22576 70.12284 100.0000 41.18887 43.28660 100.7364 
185 "D15" 74.45182 0.00000 24.99580 22.89620 12.18462 6.770867 
186 "A21" 100.0000 45.10109 100.0000 65.77195 41.33914 99.06577 
187 "AP9" 100.0000 30.06027 0.00000 44.43389 27.25889 3.781146 
188 "I14" 100.0000 0.00000 85.53140 54.37327 27.06862 68.97903 
189 "R5" 76.30121 100.0000 100.0000 76.44768 90.37946 107.9697 
190 "AU6" 100.0000 64.39460 61.02388 60.91925 50.77250 38.42800 
191 "X7" 0.00000 57.15419 87.80957 24.44696 26.59505 74.48166 
192 "AA21" 28.07813 100.0000 0.00000 39.02167 73.14957 12.92444 
193 "AO20" 72.24231 0.00000 82.68101 32.24408 15.76536 63.12991 
194 "AK12" 67.46471 74.33127 0.00000 35.98470 45.94970 7.834021 
195 "K23" 61.44961 61.97147 100.0000 44.68952 39.43258 99.80812 
196 "T23" 49.38430 0.00000 29.48501 10.77189 5.892252 8.054668 
197 "AK11" 37.22438 13.03273 0.00000 6.209239 4.494556 1.400190 
198 "T10" 0.00000 32.94118 76.31342 13.84660 11.15917 53.17848 
199 "B11" 100.0000 50.70420 35.35363 51.47483 38.40558 15.17425 
200 "V8" 0.00000 100.0000 86.77195 49.36250 76.98262 81.04922 
201 "AO22" 100.0000 29.67117 73.01289 53.16022 30.63998 50.07945 
202 "C6" 0.00000 0.00000 87.75921 14.29225 6.316061 71.01166 
203 "T24" 0.00000 53.62173 32.44373 11.35503 19.25061 12.02777 
204 "L17" 46.62089 100.0000 33.79110 45.59118 76.34370 21.94898 
205 "AS10" 67.15038 100.0000 14.76310 53.42370 80.53589 15.37819 
206 "AQ11" 100.0000 79.63836 42.10269 65.63860 65.42869 23.90619 
207 "AK10" 39.07988 100.0000 100.0000 59.44191 81.61123 107.1728 
208 "AQ13" 0.00000 0.00000 12.34760 1.251261 1.100488 2.323415 
209 "N18" 87.00542 0.00000 0.00000 30.78301 16.35621 2.395580 
210 "AR21" 0.00000 100.0000 14.27329 36.72650 71.92901 14.49412 
211 "W12" 0.00000 61.87533 75.27581 22.48406 28.90012 54.61291 
212 "D17" 63.59960 0.00000 38.95781 18.03450 9.523243 13.52339 
213 "Y24" 0.00000 22.05386 22.71458 3.165850 4.124541 5.442991 
214 "AA5" 100.0000 32.19654 33.72244 46.48778 28.70610 12.66924 
215 "C21" 64.27253 100.0000 72.36286 60.16230 83.05265 58.91600 
216 "AA10" 0.00000 85.00801 12.24079 25.75606 50.10901 10.47394 
217 "AE5" 13.12276 100.0000 48.21851 40.57789 73.54286 31.46112 
218 "AK13" 37.97513 0.00000 35.21477 7.682100 4.234961 10.80667 
219 "AB21" 86.71397 100.0000 0.00000 65.96397 87.04111 14.18691 
220 "B3" 0.00000 76.09522 100.0000 37.98112 46.36200 101.4990 
221 "R14" 100.0000 86.57816 100.0000 85.24213 80.27405 105.5559 
222 "AJ17" 78.29404 70.76677 0.00000 40.74059 45.60754 7.517490 
223 "D24" 100.0000 86.85893 0.00000 67.55814 73.50092 11.48929 
224 "AM4" 33.38216 55.42077 100.0000 32.06894 29.01800 98.46250 
225 "W11" 34.73869 25.22774 0.00000 6.873212 6.749735 1.800535 
226 "U1" 27.23278 14.04593 100.0000 21.95135 10.65434 95.45066 
227 "AP15" 0.00000 13.26619 100.0000 19.43267 9.270274 95.31615 
228 "F13" 72.86946 35.07439 100.0000 42.44896 25.60744 97.25747 
229 "AP21" 44.74098 62.30106 0.00000 20.13431 29.04984 5.406667 
230 "Q11" 40.46235 82.94347 30.63401 31.11191 50.78144 16.18301 
231 "J20" 80.15869 14.94011 68.58015 34.10329 18.20636 42.67974 
232 "D21" 100.0000 66.24399 78.13993 66.09901 54.20765 61.50502 
233 "AV5" 100.0000 61.04372 28.62745 54.73516 45.95363 13.08970 
234 "S21" 0.00000 12.54749 63.70489 8.007908 4.620722 35.38864 
235 "Y3" 78.34440 90.08469 24.61280 53.34348 69.34973 16.05926 
236 "AO23" 32.17670 44.87221 64.95460 17.23598 17.49921 38.88166 
237 "H18" 25.71756 0.00000 58.44663 8.570604 4.281813 29.40943 
238 "M11" 57.97971 22.22171 36.35615 16.44007 10.86196 12.27903 
239 "X8" 79.31945 67.40520 27.67834 40.88231 43.07893 12.85535 
240 "AD5" 13.51492 72.55818 0.00000 18.85029 35.70378 6.758699 
241 "AC21" 45.99222 78.07126 83.30053 40.35862 49.96469 70.33613 
242 "Q15" 87.36706 100.0000 26.12497 67.46027 87.69789 19.43419 
243 "W23" 0.00000 32.41016 28.11322 5.183741 7.529721 8.058680 
244 "R15" 0.00000 73.71939 28.84871 20.01061 37.08123 13.30351 
245 "P14" 40.98573 49.62997 0.00000 14.16894 18.85792 3.753515 
246 "O21" 0.00000 52.62837 65.50240 16.37720 20.69739 40.21256 
247 "E14" 41.61288 15.54894 100.0000 25.50865 12.66729 95.65186 
248 "AS18" 39.19280 100.0000 47.60204 45.04269 75.85608 31.16661 
249 "AP5" 100.0000 10.37766 43.32494 45.01866 23.92883 17.85241 
250 "AV13" 16.61250 82.97856 68.57404 32.81755 50.96640 49.06402 
251 "W18" 66.22568 29.40108 75.65423 29.18320 18.12454 52.73605 
252 "AJ21" 83.89868 0.00000 100.0000 46.31068 22.29525 96.41473 
253 "Q9" 74.04593 23.66064 0.00000 23.35033 14.92422 2.510628 
254 "G19" 100.0000 76.45838 72.36591 69.76591 64.12338 54.76145 
255 "B2" 58.99290 53.22652 32.95796 23.79631 25.45116 12.83395 
256 "O22" 86.05325 100.0000 74.18173 74.56954 90.42426 62.15541 
257 "F21" 57.37697 0.00000 75.72442 22.33233 10.89543 51.80676 
258 "AU9" 100.0000 100.0000 13.56680 77.52984 92.97045 16.26600 
259 "AJ23" 29.73220 0.00000 100.0000 21.80763 9.661393 95.26656 
260 "AL17" 85.92508 41.77310 100.0000 52.98321 33.38825 98.20457 
261 "V2" 67.82788 12.19501 0.00000 18.54186 10.76839 1.961686 
262 "AT3" 100.0000 22.33768 57.54330 48.47061 27.02249 30.75092 
263 "F10" 72.45289 75.08507 100.0000 57.16815 55.41862 102.2367 
264 "AS8" 100.0000 12.24079 15.32311 42.68458 23.17879 4.992811 
265 "H10" 13.61105 100.0000 0.00000 37.08164 72.14929 12.83353 
266 "O4" 100.0000 68.03693 14.05814 57.03282 51.95246 9.525161 
267 "F5" 0.00000 87.41894 0.00000 27.10459 53.20188 9.701602 
268 "I8" 16.38514 43.44244 0.00000 7.540504 12.68915 2.911870 
269 "AH8" 100.0000 100.0000 52.43458 81.47558 94.54850 37.04865 
270 "R21" 100.0000 14.01083 0.00000 42.44671 23.28507 3.118745 
271 "AJ10" 100.0000 100.0000 100.0000 95.10649 100.0000 108.8440 
272 "Y23" 12.61158 42.28428 100.0000 24.75695 19.03485 96.92058 
273 "T4" 32.47883 68.41993 62.62760 25.84889 35.46354 39.14255 
274 "AF20" 0.00000 43.61334 26.06699 7.638669 12.69590 8.084374 
275 "Y6" 85.77554 55.10796 0.00000 39.20349 34.59116 5.471965 
276 "AC23" 70.66453 48.36347 0.00000 26.73282 24.73509 4.226262 
277 "F7" 16.06165 0.00000 85.30556 14.37225 6.452586 66.71533 
278 "J6" 71.34508 15.73358 100.0000 38.70971 19.49711 96.27494 
279 "AB17" 68.76783 0.00000 12.90455 18.85384 10.17421 3.248763 
280 "AP1" 22.81834 59.65515 23.81018 14.70130 24.49675 9.146424 
281 "P11" 14.32822 0.00000 37.50973 3.813432 2.210677 11.96068 
282 "Q3" 0.00000 51.91272 14.32364 9.543198 17.56684 5.442707 
283 "S17" 78.31388 32.71534 50.71183 31.54207 20.88455 23.90649 
284 "AF9" 57.67605 87.82940 100.0000 57.17963 67.05342 104.4819 
285 "AL9" 100.0000 0.00000 69.25307 49.64760 25.17865 44.08843 
286 "H6" 0.00000 14.27329 48.56336 5.228318 3.709397 20.13041 
287 "AH23" 89.84054 0.00000 58.14145 38.33459 19.63533 30.48335 
288 "G3" 60.41047 45.16518 70.95445 28.54319 23.28403 47.10704 
289 "N24" 45.41238 37.14046 0.00000 12.13043 12.71338 2.674803 
290 "N5" 67.94995 26.34470 25.56344 21.07003 14.20321 7.472377 
291 "Q24" 44.76844 0.00000 85.61837 20.46299 9.581017 67.54105 
292 "AG21" 58.14450 100.0000 27.58984 49.65009 78.50173 19.19440 
293 "U5" 100.0000 14.77531 71.54192 50.91022 26.76509 47.40348 
294 "I18" 43.52789 100.0000 87.74243 56.18195 80.46062 83.08947 
295 "AL5" 63.69268 0.00000 52.55360 20.09755 10.35387 24.14000 
296 "V24" 75.85870 100.0000 47.47387 61.71081 84.45254 31.84301 
297 "L18" 29.94125 0.00000 11.70672 4.208528 2.627705 2.351849 
298 "AH1" 56.87953 44.77913 100.0000 36.41822 26.06747 97.66390 
299 "Y15" 100.0000 0.00000 15.73816 42.21158 22.20471 4.922177 
300 "AV21" 41.17037 0.00000 0.00000 6.766156 3.973049 1.270192 
301 "K3" 58.84031 92.70008 52.67109 47.55022 68.74406 34.07323 
302 "Z2" 100.0000 87.26482 67.82635 75.29463 77.03129 50.89272 
303 "AG1" 0.00000 36.87343 0.00000 4.965364 8.929618 2.321799 
304 "AV18" 0.00000 83.75525 77.67758 34.80280 52.43664 62.10395 
305 "AJ19" 0.00000 12.15534 32.11414 2.988832 2.571281 9.082571 
306 "D4" 13.93759 100.0000 35.33227 38.94104 72.89619 22.48003 
307 "Z1" 16.43702 22.13321 67.24956 10.68708 7.257004 40.09362 
308 "J12" 72.53071 57.87442 53.86282 35.71284 33.84180 29.07889 
309 "M14" 50.63554 100.0000 61.44656 51.38585 78.83070 44.82042 
310 "AV14" 11.15435 69.84207 85.96017 29.95346 37.88315 73.09934 
311 "F15" 83.07927 49.68185 21.91806 36.01750 30.06654 8.457714 
312 "AP17" 0.00000 87.03441 54.27176 31.41561 54.51156 33.68638 
313 "K10" 34.04288 16.13489 66.38132 12.77961 7.423038 38.92462 
314 "AV11" 16.15778 0.00000 70.81865 10.12931 4.756797 44.31679 
315 "Q4" 0.00000 25.01717 61.03151 8.714093 6.970567 32.73223 
316 "T8" 50.82322 48.07965 77.43038 27.04659 23.60487 56.56859 
317 "AF6" 6.861982 45.96017 37.72488 9.658449 14.60281 14.17655 
318 "H20" 100.0000 43.37530 24.69368 48.30313 33.57658 9.449266 
319 "AF16" 48.24598 31.73571 17.36782 12.45419 11.16864 4.747661 
320 "AQ23" 0.00000 11.10704 81.99283 12.82356 6.398635 61.20974 
321 "Z3" 100.0000 84.16114 11.99359 66.03113 70.06426 12.16170 
322 "AU8" 75.79461 53.50118 83.52636 43.51018 34.56890 67.57601 
323 "AC1" 0.00000 51.11925 100.0000 26.82123 24.04535 97.77902 
324 "AB8" 73.55001 100.0000 84.09247 68.90212 87.15964 77.34652 
325 "G2" 75.72595 100.0000 66.03037 65.23721 85.85294 50.86542 
326 "AJ14" 25.95254 100.0000 100.0000 56.51263 80.10088 107.0356 
327 "AI6" 26.29587 100.0000 87.41588 51.87595 78.25335 82.30449 
328 "M15" 59.15923 36.31037 51.27337 21.48836 16.79596 24.14610 
329 "T20" 100.0000 35.79767 57.45022 50.73352 31.57707 31.41456 
330 "AH11" 0.00000 87.18090 100.0000 44.81527 60.02838 103.7771 
331 "AI16" 50.46616 100.0000 15.12627 45.67744 76.54018 15.09267 
332 "Y9" 54.94163 82.68406 24.54108 35.62614 52.92332 13.79503 
333 "C18" 0.00000 100.0000 44.13062 39.33027 72.97036 28.20846 
334 "AD1" 34.78141 92.36286 37.52956 36.68926 63.03615 21.98228 
335 "S14" 14.47929 57.57992 0.00000 12.05627 21.99243 4.469837 
336 "R4" 51.66857 33.29671 77.86221 23.74745 16.31659 55.99666 
337 "AT24" 31.35882 81.30770 36.45991 28.39976 47.80737 18.84164 
338 "Z21" 100.0000 53.91928 15.55810 51.13033 40.05200 7.857169 
339 "J18" 26.99168 41.49996 73.21126 17.35070 15.95377 49.41098 
340 "M4" 100.0000 11.89899 84.81575 54.60598 27.91084 67.89430 
341 "AB24" 18.14603 20.01221 53.17006 7.671741 5.675854 24.46489 
342 "Y13" 31.23064 88.26276 0.00000 30.92248 56.02025 10.04455 
343 "P9" 79.07988 69.97482 46.96727 44.21403 46.41587 25.01395 
344 "AP14" 79.62768 35.99145 31.25811 30.59031 21.68761 10.89500 
345 "AM13" 51.85931 0.00000 12.86030 10.72741 5.984377 2.859689 
346 "C22" 36.43244 24.93935 47.31975 10.64911 8.242928 19.69770 
347 "T22" 64.85695 100.0000 100.0000 69.71888 86.91007 107.6544 
348 "AS16" 54.87297 79.18517 0.00000 32.58867 48.29541 8.465673 
349 "T17" 13.28908 100.0000 83.57824 48.96127 76.89726 75.54584 
350 "AO16" 0.00000 0.00000 75.21477 10.39813 4.758658 50.50091 
351 "AE21" 57.65011 68.07813 0.00000 27.82364 36.95765 6.528122 
352 "Y11" 11.48089 100.0000 22.45212 37.65215 72.35814 16.71025 
353 "AR3" 36.81697 100.0000 61.65866 47.00836 76.56836 44.85396 
354 "U21" 86.44846 41.96994 0.00000 35.56267 26.54973 4.111489 
355 "AM9" 11.30388 29.64370 0.00000 4.027854 6.317553 1.866971 
356 "AE11" 61.37942 0.00000 25.81064 15.64177 8.437345 6.740825 
357 "Z24" 52.04547 61.06508 14.15122 22.57211 29.48470 7.021900 
358 "M6" 88.59541 85.44900 0.00000 56.82197 66.58100 10.71900 
359 "M23" 0.00000 52.95338 46.51408 12.85588 19.47110 21.10410 
360 "Z7" 100.0000 55.20562 72.09277 59.77666 44.26325 51.07525 
361 "AA16" 76.10742 62.32242 100.0000 53.17878 44.03456 100.2493 
362 "AV12" 100.0000 73.76822 100.0000 77.52873 64.84940 102.9847 
363 "AD4" 80.17243 55.51690 61.60525 41.32000 35.21003 37.11057 
