Epson_XP-960/ScandinavianPhoto/SatinProfessional/XP_960-satin-professional.ti1
CTI1   

DESCRIPTOR "Argyll Calibration Target chart information 1"
ORIGINATOR "Argyll targen"
CREATED "Tue Nov 14 22:05:27 2023"
APPROX_WHITE_POINT "95.106486 100.000000 108.844025"
COLOR_REP "iRGB"
WHITE_COLOR_PATCHES "4"
BLACK_COLOR_PATCHES "4"
COMP_GREY_STEPS "128"
OFPS_PATCHES "1018"

NUMBER_OF_FIELDS 7
BEGIN_DATA_FORMAT
SAMPLE_ID RGB_R RGB_G RGB_B XYZ_X XYZ_Y XYZ_Z 
END_DATA_FORMAT

NUMBER_OF_SETS 1152
BEGIN_DATA
1 100.0000 100.0000 100.0000 95.10649 100.0000 108.8440 
2 99.21260 99.21260 99.21260 93.42961 98.23592 106.9224 
3 55.11811 55.11811 55.11811 25.89198 27.18635 29.52568 
4 92.46668 45.90914 6.677716 41.58578 31.27348 5.232402 
5 56.71901 14.39887 100.0000 31.01459 15.36775 95.88314 
6 44.09449 44.09449 44.09449 16.37637 17.17594 18.62099 
7 67.10647 66.88003 39.85142 34.34314 39.19163 18.96715 
8 57.48031 57.48031 57.48031 28.28382 29.70258 32.26668 
9 13.80295 0.00000 23.99217 2.531670 1.692717 5.450342 
10 98.42520 98.42520 98.42520 91.77029 96.49032 105.0208 
11 97.63780 97.63780 97.63780 90.12848 94.76313 103.1393 
12 96.85039 96.85039 96.85039 88.50412 93.05431 101.2779 
13 96.06299 96.06299 96.06299 86.89716 91.36379 99.43632 
14 95.27559 95.27559 95.27559 85.30756 89.69153 97.61466 
15 94.48819 94.48819 94.48819 83.73524 88.03745 95.81282 
16 93.70079 93.70079 93.70079 82.18017 86.40152 94.03074 
17 92.91339 92.91339 92.91339 80.64228 84.78366 92.26835 
18 92.12598 92.12598 92.12598 79.12152 83.18382 90.52559 
19 91.33858 91.33858 91.33858 77.61783 81.60194 88.80240 
20 90.55118 90.55118 90.55118 76.13117 80.03797 87.09872 
21 89.76378 89.76378 89.76378 74.66147 78.49185 85.41448 
22 88.97638 88.97638 88.97638 73.20868 76.96352 83.74961 
23 88.18898 88.18898 88.18898 71.77274 75.45291 82.10406 
24 87.40157 87.40157 87.40157 70.35360 73.95997 80.47775 
25 86.61417 86.61417 86.61417 68.95120 72.48465 78.87063 
26 85.82677 85.82677 85.82677 67.56549 71.02687 77.28263 
27 85.03937 85.03937 85.03937 66.19639 69.58659 75.71368 
28 84.25197 84.25197 84.25197 64.84387 68.16374 74.16371 
29 83.46457 83.46457 83.46457 63.50786 66.75825 72.63267 
30 82.67717 82.67717 82.67717 62.18830 65.37007 71.12048 
31 81.88976 81.88976 81.88976 60.88513 63.99914 69.62708 
32 81.10236 81.10236 81.10236 59.59830 62.64540 68.15240 
33 80.31496 80.31496 80.31496 58.32775 61.30878 66.69637 
34 79.52756 79.52756 79.52756 57.07341 59.98921 65.25893 
35 78.74016 78.74016 78.74016 55.83523 58.68665 63.84000 
36 77.95276 77.95276 77.95276 54.61315 57.40102 62.43952 
37 77.16535 77.16535 77.16535 53.40710 56.13226 61.05742 
38 76.37795 76.37795 76.37795 52.21703 54.88030 59.69362 
39 75.59055 75.59055 75.59055 51.04288 53.64509 58.34807 
40 74.80315 74.80315 74.80315 49.88458 52.42656 57.02068 
41 74.01575 74.01575 74.01575 48.74207 51.22464 55.71139 
42 73.22835 73.22835 73.22835 47.61529 50.03927 54.42012 
43 72.44094 72.44094 72.44094 46.50418 48.87038 53.14681 
44 71.65354 71.65354 71.65354 45.40867 47.71791 51.89139 
45 70.86614 70.86614 70.86614 44.32870 46.58179 50.65377 
46 70.07874 70.07874 70.07874 43.26422 45.46194 49.43389 
47 69.29134 69.29134 69.29134 42.21514 44.35832 48.23167 
48 68.50394 68.50394 68.50394 41.18142 43.27084 47.04705 
49 67.71654 67.71654 67.71654 40.16297 42.19944 45.87993 
50 66.92913 66.92913 66.92913 39.15975 41.14405 44.73026 
51 66.14173 66.14173 66.14173 38.17168 40.10460 43.59796 
52 65.35433 65.35433 65.35433 37.19870 39.08103 42.48294 
53 64.56693 64.56693 64.56693 36.24074 38.07325 41.38514 
54 63.77953 63.77953 63.77953 35.29774 37.08121 40.30447 
55 62.99213 62.99213 62.99213 34.36962 36.10483 39.24087 
56 62.20472 62.20472 62.20472 33.45631 35.14403 38.19424 
57 61.41732 61.41732 61.41732 32.55776 34.19876 37.16452 
58 60.62992 60.62992 60.62992 31.67389 33.26893 36.15162 
59 59.84252 59.84252 59.84252 30.80463 32.35447 35.15547 
60 59.05512 59.05512 59.05512 29.94991 31.45530 34.17598 
61 58.26772 58.26772 58.26772 29.10967 30.57136 33.21308 
62 0.00000 0.00000 0.00000 1.000000 1.000000 1.000000 
63 56.69291 56.69291 56.69291 27.47231 28.84886 31.33670 
64 55.90551 55.90551 55.90551 26.67505 28.01015 30.42306 
65 100.0000 100.0000 100.0000 95.10649 100.0000 108.8440 
66 54.33071 54.33071 54.33071 25.12302 26.37741 28.64446 
67 53.54331 53.54331 53.54331 24.36809 25.58323 27.77934 
68 52.75591 52.75591 52.75591 23.62713 24.80374 26.93021 
69 51.96850 51.96850 51.96850 22.90006 24.03886 26.09701 
70 51.18110 51.18110 51.18110 22.18681 23.28852 25.27963 
71 50.39370 50.39370 50.39370 21.48729 22.55262 24.47800 
72 49.60630 49.60630 49.60630 20.80143 21.83110 23.69202 
73 48.81890 48.81890 48.81890 20.12916 21.12387 22.92161 
74 48.03150 48.03150 48.03150 19.47039 20.43085 22.16668 
75 47.24409 47.24409 47.24409 18.82505 19.75195 21.42713 
76 46.45669 46.45669 46.45669 18.19306 19.08710 20.70288 
77 45.66929 45.66929 45.66929 17.57434 18.43620 19.99384 
78 44.88189 44.88189 44.88189 16.96880 17.79918 19.29991 
79 0.00000 0.00000 0.00000 1.000000 1.000000 1.000000 
80 43.30709 43.30709 43.30709 15.79696 16.56640 17.95700 
81 42.51969 42.51969 42.51969 15.23049 15.97048 17.30784 
82 41.73228 41.73228 41.73228 14.67688 15.38808 16.67342 
83 40.94488 40.94488 40.94488 14.13604 14.81911 16.05362 
84 40.15748 40.15748 40.15748 13.60789 14.26349 15.44837 
85 39.37008 39.37008 39.37008 13.09233 13.72113 14.85755 
86 38.58268 38.58268 38.58268 12.58929 13.19193 14.28108 
87 37.79528 37.79528 37.79528 12.09867 12.67580 13.71884 
88 37.00787 37.00787 37.00787 11.62038 12.17264 13.17073 
89 36.22047 36.22047 36.22047 11.15434 11.68237 12.63666 
90 35.43307 35.43307 35.43307 10.70045 11.20487 12.11651 
91 34.64567 34.64567 34.64567 10.25863 10.74007 11.61019 
92 33.85827 33.85827 33.85827 9.828766 10.28786 11.11758 
93 33.07087 33.07087 33.07087 9.410778 9.848137 10.63857 
94 32.28346 32.28346 32.28346 9.004568 9.420804 10.17306 
95 31.49606 31.49606 31.49606 8.610039 9.005759 9.720942 
96 30.70866 30.70866 30.70866 8.227092 8.602899 9.282093 
97 29.92126 29.92126 29.92126 7.855628 8.212119 8.856404 
98 29.13386 29.13386 29.13386 7.495547 7.833314 8.443759 
99 28.34646 28.34646 28.34646 7.146747 7.466377 8.044041 
100 27.55906 27.55906 27.55906 6.809125 7.111198 7.657133 
101 26.77165 26.77165 26.77165 6.482575 6.767667 7.282914 
102 25.98425 25.98425 25.98425 6.166992 6.435674 6.921262 
103 25.19685 25.19685 25.19685 5.862267 6.115104 6.572054 
104 24.40945 24.40945 24.40945 5.568292 5.805842 6.235165 
105 23.62205 23.62205 23.62205 5.284955 5.507771 5.910466 
106 22.83465 22.83465 22.83465 5.012142 5.220773 5.597830 
107 22.04724 22.04724 22.04724 4.749741 4.944726 5.297123 
108 21.25984 21.25984 21.25984 4.497633 4.679509 5.008212 
109 20.47244 20.47244 20.47244 4.255699 4.424995 4.730962 
110 19.68504 19.68504 19.68504 4.023820 4.181058 4.465234 
111 18.89764 18.89764 18.89764 3.801872 3.947569 4.210886 
112 18.11024 18.11024 18.11024 3.589730 3.724395 3.967775 
113 17.32283 17.32283 17.32283 3.387265 3.511402 3.735755 
114 16.53543 16.53543 16.53543 3.194348 3.308453 3.514676 
115 15.74803 15.74803 15.74803 3.010845 3.115408 3.304385 
116 14.96063 14.96063 14.96063 2.836620 2.932124 3.104727 
117 14.17323 14.17323 14.17323 2.671534 2.758453 2.915542 
118 13.38583 13.38583 13.38583 2.515445 2.594247 2.736667 
119 12.59843 12.59843 12.59843 2.368206 2.439353 2.567935 
120 11.81102 11.81102 11.81102 2.229669 2.293612 2.409175 
121 11.02362 11.02362 11.02362 2.099680 2.156863 2.260210 
122 10.23622 10.23622 10.23622 1.978081 2.028941 2.120860 
123 9.448819 9.448819 9.448819 1.864709 1.909674 1.990938 
124 8.661417 8.661417 8.661417 1.759399 1.798887 1.870255 
125 7.874016 7.874016 7.874016 1.661976 1.696398 1.758610 
126 7.086614 7.086614 7.086614 1.572262 1.602020 1.655800 
127 6.299213 6.299213 6.299213 1.490073 1.515557 1.561613 
128 5.511811 5.511811 5.511811 1.415217 1.436808 1.475829 
129 4.724409 4.724409 4.724409 1.347492 1.365562 1.398219 
130 3.937008 3.937008 3.937008 1.286692 1.301600 1.328543 
131 3.149606 3.149606 3.149606 1.229411 1.241340 1.262900 
132 2.362205 2.362205 2.362205 1.172058 1.181005 1.197175 
133 1.574803 1.574803 1.574803 1.114705 1.120670 1.131450 
134 0.787402 0.787402 0.787402 1.057353 1.060335 1.065725 
135 100.0000 0.00000 100.0000 59.70128 29.19948 97.04219 
136 100.0000 100.0000 0.00000 77.23538 92.85269 14.71507 
137 0.00000 100.0000 0.00000 36.40521 71.80052 12.80184 
138 0.00000 0.00000 100.0000 18.87111 8.147314 95.12896 
139 100.0000 0.00000 0.00000 41.83017 22.05217 2.913230 
140 0.00000 100.0000 100.0000 54.27632 78.94783 106.9308 
141 0.00000 38.33214 100.0000 23.17205 16.74800 96.56262 
142 100.0000 0.00000 31.79796 43.30380 22.64153 10.67501 
143 100.0000 44.03762 0.00000 47.59924 33.58869 4.836269 
144 0.00000 100.0000 28.22979 37.56286 72.26351 18.89931 
145 43.27239 100.0000 0.00000 42.81425 75.10504 13.10215 
146 58.52903 0.00000 100.0000 31.18740 14.49763 95.70608 
147 0.00000 74.99618 0.00000 19.49788 37.99058 7.166010 
148 0.00000 0.00000 62.47260 7.222242 3.488504 33.77319 
149 100.0000 60.26663 100.0000 71.08999 51.97372 100.8385 
150 56.58466 0.00000 0.00000 12.43767 6.897300 1.535949 
151 100.0000 100.0000 39.87680 79.59448 93.79618 27.14070 
152 51.84573 100.0000 100.0000 63.72949 83.82192 107.3738 
153 100.0000 0.00000 50.50817 45.73992 23.61582 23.50628 
154 0.00000 63.72438 100.0000 31.75013 33.90177 99.42200 
155 0.00000 48.39056 0.00000 8.061413 15.12085 3.353824 
156 0.00000 100.0000 58.99875 41.89137 73.99464 41.69802 
157 100.0000 15.70882 100.0000 60.45446 30.70564 97.29325 
158 73.99630 36.40779 0.00000 25.56340 19.39606 3.257265 
159 41.70081 43.67681 100.0000 30.46437 22.53790 97.29617 
160 30.62550 0.00000 71.09670 12.40638 5.922522 44.79987 
161 65.03612 100.0000 56.64186 56.95934 81.81796 39.95636 
162 0.00000 44.81587 54.68661 11.63569 14.83468 27.47103 
163 100.0000 41.25337 44.97452 49.89735 33.31145 20.63018 
164 100.0000 72.11350 0.00000 58.77787 55.94282 8.562510 
165 0.00000 0.00000 37.52770 3.076544 1.830487 11.93737 
166 72.39123 100.0000 0.00000 56.11799 81.96449 13.72554 
167 50.53007 0.00000 59.11376 15.45067 7.813528 30.43896 
168 41.79391 75.15511 0.00000 25.53827 41.23529 7.474198 
169 12.98398 100.0000 100.0000 54.90075 79.26979 106.9601 
170 72.22253 0.00000 0.00000 20.61046 11.11122 1.918912 
171 15.05418 0.00000 100.0000 19.67674 8.562700 95.16671 
172 100.0000 100.0000 77.47541 87.27747 96.86889 67.60779 
173 70.96660 0.00000 100.0000 37.72962 17.87083 96.01264 
174 23.84633 100.0000 72.06572 46.84075 76.19311 57.88150 
175 0.00000 73.49076 56.49266 23.66687 38.34702 33.16734 
176 37.88960 100.0000 24.78305 42.13959 74.65381 17.73622 
177 100.0000 88.04948 52.78053 72.66291 76.82785 34.41262 
178 62.43737 28.59871 100.0000 35.42355 20.17563 96.57899 
179 26.42402 0.00000 0.00000 3.317702 2.195015 1.108603 
180 29.01819 78.22317 100.0000 41.99463 50.23874 102.0360 
181 100.0000 100.0000 27.31436 78.31905 93.28609 20.42289 
182 0.00000 24.47488 0.00000 2.727743 4.455003 1.575919 
183 29.52759 53.12104 0.00000 12.53725 19.77366 4.016217 
184 43.22586 70.12335 100.0000 41.18887 43.28660 100.7364 
185 74.45125 0.00000 24.99609 22.89620 12.18462 6.770867 
186 100.0000 45.10071 100.0000 65.77195 41.33914 99.06577 
187 100.0000 30.06087 0.00000 44.43389 27.25889 3.781146 
188 100.0000 0.00000 85.53144 54.37327 27.06862 68.97903 
189 76.30072 100.0000 100.0000 76.44768 90.37946 107.9697 
190 100.0000 64.39494 61.02346 60.91925 50.77250 38.42800 
191 0.00000 57.15346 87.80896 24.44696 26.59505 74.48166 
192 28.07825 100.0000 0.00000 39.02167 73.14957 12.92444 
193 72.24291 0.00000 82.68167 32.24408 15.76536 63.12991 
194 67.46457 74.33071 0.00000 35.98470 45.94970 7.834021 
195 61.44993 61.97197 100.0000 44.68952 39.43258 99.80812 
196 49.38361 0.00000 29.48429 10.77189 5.892252 8.054668 
197 37.22419 13.03237 0.00000 6.209239 4.494556 1.400190 
198 0.00000 32.94061 76.31329 13.84660 11.15917 53.17848 
199 100.0000 50.70467 35.35300 51.47483 38.40558 15.17425 
200 0.00000 100.0000 86.77207 49.36250 76.98262 81.04922 
201 100.0000 29.67052 73.01306 53.16022 30.63998 50.07945 
202 0.00000 0.00000 87.75857 14.29225 6.316061 71.01166 
203 0.00000 53.62108 32.44313 11.35503 19.25061 12.02777 
204 46.62057 100.0000 33.79147 45.59118 76.34370 21.94898 
205 67.14972 100.0000 14.76349 53.42370 80.53589 15.37819 
206 100.0000 79.63797 42.10247 65.63860 65.42869 23.90619 
207 39.08040 100.0000 100.0000 59.44191 81.61123 107.1728 
208 0.00000 0.00000 12.34738 1.251261 1.100488 2.323415 
209 87.00471 0.00000 0.00000 30.78301 16.35621 2.395580 
210 0.00000 100.0000 14.27265 36.72650 71.92901 14.49412 
211 0.00000 61.87594 75.27584 22.48406 28.90012 54.61291 
212 63.59990 0.00000 38.95815 18.03450 9.523243 13.52339 
213 0.00000 22.05462 22.71466 3.165850 4.124541 5.442991 
214 100.0000 32.19640 33.72206 46.48778 28.70610 12.66924 
215 64.27326 100.0000 72.36229 60.16230 83.05265 58.91600 
216 0.00000 85.00845 12.24010 25.75606 50.10901 10.47394 
217 13.12257 100.0000 48.21780 40.57789 73.54286 31.46112 
218 37.97493 0.00000 35.21429 7.682100 4.234961 10.80667 
219 86.71386 100.0000 0.00000 65.96397 87.04111 14.18691 
220 0.00000 76.09557 100.0000 37.98112 46.36200 101.4990 
221 100.0000 86.57801 100.0000 85.24213 80.27405 105.5559 
222 78.29435 70.76618 0.00000 40.74059 45.60754 7.517490 
223 100.0000 86.85848 0.00000 67.55814 73.50092 11.48929 
224 33.38204 55.42073 100.0000 32.06894 29.01800 98.46250 
225 34.73884 25.22784 0.00000 6.873212 6.749735 1.800535 
226 27.23272 14.04553 100.0000 21.95135 10.65434 95.45066 
227 0.00000 13.26675 100.0000 19.43267 9.270274 95.31615 
228 72.86941 35.07489 100.0000 42.44896 25.60744 97.25747 
229 44.74044 62.30077 0.00000 20.13431 29.04984 5.406667 
230 40.46238 82.94372 30.63419 31.11191 50.78144 16.18301 
231 80.15927 14.93952 68.57948 34.10329 18.20636 42.67974 
232 100.0000 66.24389 78.13933 66.09901 54.20765 61.50502 
233 100.0000 61.04350 28.62802 54.73516 45.95363 13.08970 
234 0.00000 12.54803 63.70565 8.007908 4.620722 35.38864 
235 78.34388 90.08486 24.61265 53.34348 69.34973 16.05926 
236 32.17686 44.87222 64.95399 17.23598 17.49921 38.88166 
237 25.71689 0.00000 58.44703 8.570604 4.281813 29.40943 
238 57.97983 22.22236 36.35622 16.44007 10.86196 12.27903 
239 79.31902 67.40460 27.67777 40.88231 43.07893 12.85535 
240 13.51419 72.55881 0.00000 18.85029 35.70378 6.758699 
241 45.99265 78.07190 83.30107 40.35862 49.96469 70.33613 
242 87.36647 100.0000 26.12448 67.46027 87.69789 19.43419 
243 0.00000 32.40967 28.11262 5.183741 7.529721 8.058680 
244 0.00000 73.71896 28.84926 20.01061 37.08123 13.30351 
245 40.98550 49.63039 0.00000 14.16894 18.85792 3.753515 
246 0.00000 52.62862 65.50285 16.37720 20.69739 40.21256 
247 41.61249 15.54843 100.0000 25.50865 12.66729 95.65186 
248 39.19318 100.0000 47.60224 45.04269 75.85608 31.16661 
249 100.0000 10.37770 43.32543 45.01866 23.92883 17.85241 
250 16.61187 82.97816 68.57403 32.81755 50.96640 49.06402 
251 66.22503 29.40138 75.65371 29.18320 18.12454 52.73605 
252 83.89932 0.00000 100.0000 46.31068 22.29525 96.41473 
253 74.04621 23.66137 0.00000 23.35033 14.92422 2.510628 
254 100.0000 76.45786 72.36599 69.76591 64.12338 54.76145 
255 58.99226 53.22707 32.95779 23.79631 25.45116 12.83395 
256 86.05266 100.0000 74.18115 74.56954 90.42426 62.15541 
257 57.37710 0.00000 75.72500 22.33233 10.89543 51.80676 
258 100.0000 100.0000 13.56696 77.52984 92.97045 16.26600 
259 29.73227 0.00000 100.0000 21.80763 9.661393 95.26656 
260 85.92533 41.77342 100.0000 52.98321 33.38825 98.20457 
261 67.82859 12.19531 0.00000 18.54186 10.76839 1.961686 
262 100.0000 22.33843 57.54285 48.47061 27.02249 30.75092 
263 72.45331 75.08433 100.0000 57.16815 55.41862 102.2367 
264 100.0000 12.24013 15.32264 42.68458 23.17879 4.992811 
265 13.61038 100.0000 0.00000 37.08164 72.14929 12.83353 
266 100.0000 68.03760 14.05875 57.03282 51.95246 9.525161 
267 0.00000 87.41942 0.00000 27.10459 53.20188 9.701602 
268 16.38559 43.44168 0.00000 7.540504 12.68915 2.911870 
269 100.0000 100.0000 52.43403 81.47558 94.54850 37.04865 
270 100.0000 14.01151 0.00000 42.44671 23.28507 3.118745 
271 100.0000 100.0000 100.0000 95.10649 100.0000 108.8440 
272 12.61118 42.28473 100.0000 24.75695 19.03485 96.92058 
273 32.47938 68.42035 62.62714 25.84889 35.46354 39.14255 
274 0.00000 43.61372 26.06626 7.638669 12.69590 8.084374 
275 85.77569 55.10828 0.00000 39.20349 34.59116 5.471965 
276 70.66422 48.36311 0.00000 26.73282 24.73509 4.226262 
277 16.06219 0.00000 85.30552 14.37225 6.452586 66.71533 
278 71.34507 15.73358 100.0000 38.70971 19.49711 96.27494 
279 68.76811 0.00000 12.90504 18.85384 10.17421 3.248763 
280 22.81849 59.65586 23.81027 14.70130 24.49675 9.146424 
281 14.32841 0.00000 37.50914 3.813432 2.210677 11.96068 
282 0.00000 51.91201 14.32331 9.543198 17.56684 5.442707 
283 78.31333 32.71574 50.71219 31.54207 20.88455 23.90649 
284 57.67664 87.82971 100.0000 57.17963 67.05342 104.4819 
285 100.0000 0.00000 69.25369 49.64760 25.17865 44.08843 
286 0.00000 14.27290 48.56315 5.228318 3.709397 20.13041 
287 89.84096 0.00000 58.14136 38.33459 19.63533 30.48335 
288 60.41105 45.16486 70.95386 28.54319 23.28403 47.10704 
289 45.41244 37.14041 0.00000 12.13043 12.71338 2.674803 
290 67.95024 26.34457 25.56381 21.07003 14.20321 7.472377 
291 44.76822 0.00000 85.61885 20.46299 9.581017 67.54105 
292 58.14381 100.0000 27.59040 49.65009 78.50173 19.19440 
293 100.0000 14.77477 71.54171 50.91022 26.76509 47.40348 
294 43.52761 100.0000 87.74296 56.18195 80.46062 83.08947 
295 63.69294 0.00000 52.55407 20.09755 10.35387 24.14000 
296 75.85912 100.0000 47.47311 61.71081 84.45254 31.84301 
297 29.94061 0.00000 11.70693 4.208528 2.627705 2.351849 
298 56.87982 44.77917 100.0000 36.41822 26.06747 97.66390 
299 100.0000 0.00000 15.73756 42.21158 22.20471 4.922177 
300 41.17091 0.00000 0.00000 6.766156 3.973049 1.270192 
301 58.84085 92.69976 52.67095 47.55022 68.74406 34.07323 
302 100.0000 87.26512 67.82560 75.29463 77.03129 50.89272 
303 0.00000 36.87331 0.00000 4.965364 8.929618 2.321799 
304 0.00000 83.75507 77.67807 34.80280 52.43664 62.10395 
305 0.00000 12.15477 32.11468 2.988832 2.571281 9.082571 
306 13.93825 100.0000 35.33166 38.94104 72.89619 22.48003 
307 16.43647 22.13330 67.24981 10.68708 7.257004 40.09362 
308 72.53123 57.87386 53.86242 35.71284 33.84180 29.07889 
309 50.63588 100.0000 61.44595 51.38585 78.83070 44.82042 
310 11.15401 69.84231 85.96069 29.95346 37.88315 73.09934 
311 83.07879 49.68198 21.91820 36.01750 30.06654 8.457714 
312 0.00000 87.03407 54.27111 31.41561 54.51156 33.68638 
313 34.04265 16.13509 66.38138 12.77961 7.423038 38.92462 
314 16.15811 0.00000 70.81835 10.12931 4.756797 44.31679 
315 0.00000 25.01658 61.03216 8.714093 6.970567 32.73223 
316 50.82375 48.07904 77.42985 27.04659 23.60487 56.56859 
317 6.862049 45.96036 37.72536 9.658449 14.60281 14.17655 
318 100.0000 43.37475 24.69337 48.30313 33.57658 9.449266 
319 48.24548 31.73568 17.36829 12.45419 11.16864 4.747661 
320 0.00000 11.10741 81.99346 12.82356 6.398635 61.20974 
321 100.0000 84.16137 11.99305 66.03113 70.06426 12.16170 
322 75.79402 53.50172 83.52624 43.51018 34.56890 67.57601 
323 0.00000 51.11919 100.0000 26.82123 24.04535 97.77902 
324 73.55058 100.0000 84.09279 68.90212 87.15964 77.34652 
325 75.72589 100.0000 66.03046 65.23721 85.85294 50.86542 
326 25.95204 100.0000 100.0000 56.51263 80.10088 107.0356 
327 26.29653 100.0000 87.41548 51.87595 78.25335 82.30449 
328 59.15854 36.31079 51.27386 21.48836 16.79596 24.14610 
329 100.0000 35.79780 57.44981 50.73352 31.57707 31.41456 
330 0.00000 87.18106 100.0000 44.81527 60.02838 103.7771 
331 50.46637 100.0000 15.12656 45.67744 76.54018 15.09267 
332 54.94193 82.68379 24.54033 35.62614 52.92332 13.79503 
333 0.00000 100.0000 44.13018 39.33027 72.97036 28.20846 
334 34.78100 92.36317 37.52894 36.68926 63.03615 21.98228 
335 14.47976 57.57931 0.00000 12.05627 21.99243 4.469837 
336 51.66920 33.29668 77.86278 23.74745 16.31659 55.99666 
337 31.35909 81.30830 36.46038 28.39976 47.80737 18.84164 
338 100.0000 53.91876 15.55806 51.13033 40.05200 7.857169 
339 26.99169 41.49967 73.21164 17.35070 15.95377 49.41098 
340 100.0000 11.89889 84.81511 54.60598 27.91084 67.89430 
341 18.14570 20.01172 53.17038 7.671741 5.675854 24.46489 
342 31.23084 88.26334 0.00000 30.92248 56.02025 10.04455 
343 79.08064 69.97517 46.96703 44.21403 46.41587 25.01395 
344 79.62720 35.99131 31.25848 30.59031 21.68761 10.89500 
345 51.85912 0.00000 12.85999 10.72741 5.984377 2.859689 
346 36.43228 24.94001 47.32022 10.64911 8.242928 19.69770 
347 64.85743 100.0000 100.0000 69.71888 86.91007 107.6544 
348 54.87276 79.18592 0.00000 32.58867 48.29541 8.465673 
349 13.28850 100.0000 83.57758 48.96127 76.89726 75.54584 
350 0.00000 0.00000 75.21544 10.39813 4.758658 50.50091 
351 57.64970 68.07827 0.00000 27.82364 36.95765 6.528122 
352 11.48094 100.0000 22.45286 37.65215 72.35814 16.71025 
353 36.81690 100.0000 61.65807 47.00836 76.56836 44.85396 
354 86.44819 41.96971 0.00000 35.56267 26.54973 4.111489 
355 11.30426 29.64391 0.00000 4.027854 6.317553 1.866971 
356 61.37953 0.00000 25.81069 15.64177 8.437345 6.740825 
357 52.04520 61.06476 14.15125 22.57211 29.48470 7.021900 
358 88.59512 85.44827 0.00000 56.82197 66.58100 10.71900 
359 0.00000 52.95276 46.51482 12.85588 19.47110 21.10410 
360 100.0000 55.20514 72.09347 59.77666 44.26325 51.07525 
361 76.10733 62.32246 100.0000 53.17878 44.03456 100.2493 
362 100.0000 73.76747 100.0000 77.52873 64.84940 102.9847 
363 80.17167 55.51614 61.60539 41.32000 35.21003 37.11057 
364 0.00000 0.00000 0.00000 1.000000 1.000000 1.000000 
365 13.04171 0.00000 53.67600 6.090767 3.108754 24.52942 
366 42.22398 64.25150 75.56767 29.69587 34.16238 55.67791 
367 0.00000 0.00000 25.30930 1.931498 1.372540 5.906295 
368 84.02498 27.04594 100.0000 48.50834 26.55245 97.12075 
369 52.90987 19.24284 65.08295 18.78117 10.99831 37.70179 
370 100.0000 29.49229 100.0000 62.20620 34.20863 97.87717 
371 100.0000 57.06418 0.00000 51.93300 42.25500 6.280869 
372 25.07359 51.15974 49.21211 14.74924 19.48085 23.22036 
373 54.93299 67.27638 56.32508 31.19945 37.55062 32.44753 
374 86.97466 0.00000 74.30646 39.90591 20.00212 50.56805 
375 100.0000 67.99128 41.44357 59.25664 52.80585 21.34930 
376 0.00000 62.15601 24.53366 14.06600 25.72662 9.678359 
377 30.05400 89.81617 100.0000 49.62227 65.18678 104.5196 
378 51.32001 100.0000 76.19096 55.32477 80.43666 64.18402 
379 17.00390 29.04486 100.0000 22.30122 13.52043 95.98547 
380 40.36332 55.36017 42.39539 18.67023 23.83249 18.55642 
381 100.0000 13.65404 29.37401 43.67410 23.73313 9.715571 
382 23.41259 77.54080 42.29317 25.43157 42.87006 21.80311 
383 100.0000 100.0000 89.69267 91.19887 98.43720 88.26220 
384 92.30375 16.81862 7.377986 36.00912 20.30091 3.483672 
385 0.00000 26.30701 100.0000 20.86323 12.13100 95.79301 
386 86.86136 100.0000 57.58577 71.27969 89.18020 41.59237 
387 31.15589 48.33682 20.32130 11.88358 16.99599 6.710701 
388 70.51953 43.77494 52.37814 29.52129 23.66977 26.05189 
389 46.17342 77.04259 56.71270 33.04002 46.09596 34.39278 
390 100.0000 47.09187 82.55582 60.07155 40.00192 66.13417 
391 14.75633 86.58633 100.0000 45.19540 59.63405 103.6809 
392 24.50841 12.79313 0.00000 3.525973 3.086228 1.269664 
393 12.54363 0.00000 0.00000 1.589322 1.303856 1.027615 
394 24.68503 100.0000 22.88785 39.19673 73.15131 16.92799 
395 100.0000 87.59280 84.81489 80.35926 79.41032 76.47845 
396 0.00000 87.26796 67.43201 34.37058 55.94463 48.47558 
397 40.67437 35.50541 91.94443 25.05445 17.13360 80.27690 
398 16.22653 57.25183 100.0000 29.96716 28.97042 98.56402 
399 48.17877 30.65965 100.0000 29.64810 17.72620 96.41036 
400 84.37103 13.21837 0.00000 29.34643 16.44378 2.488145 
401 0.00000 100.0000 73.75192 45.39954 75.39768 60.17592 
402 43.78271 0.00000 70.79941 15.78217 7.671997 44.55613 
403 62.17690 47.31535 8.148316 21.92798 21.76040 4.597081 
404 51.78833 69.85943 79.75783 36.93868 41.72512 63.15742 
