Epson_XP-960/Navigator/Colour_Documents/Navigator_Colour_Documents_XP_960.ti3
CTI3   

DESCRIPTOR "Argyll Calibration Target chart information 3"
ORIGINATOR "Argyll chartread"
CREATED "Wed Jun 17 17:14:11 2020"
DEVICE_CLASS "OUTPUT"
COMP_GREY_STEPS "16"
COLOR_REP "iRGB_XYZ"
TARGET_INSTRUMENT "X-Rite ColorMunki"
DEVCALSTD "XRGA"
SPECTRAL_BANDS "106"
SPECTRAL_START_NM "380.000000"
SPECTRAL_END_NM "730.000000"

NUMBER_OF_FIELDS 114
BEGIN_DATA_FORMAT
SAMPLE_ID SAMPLE_LOC RGB_R RGB_G RGB_B XYZ_X XYZ_Y XYZ_Z SPEC_380 SPEC_383 SPEC_387 SPEC_390 SPEC_393 SPEC_397 SPEC_400 SPEC_403 SPEC_407 SPEC_410 SPEC_413 SPEC_417 SPEC_420 SPEC_423 SPEC_427 SPEC_430 SPEC_433 SPEC_437 SPEC_440 SPEC_443 SPEC_447 SPEC_450 SPEC_453 SPEC_457 SPEC_460 SPEC_463 SPEC_467 SPEC_470 SPEC_473 SPEC_477 SPEC_480 SPEC_483 SPEC_487 SPEC_490 SPEC_493 SPEC_497 SPEC_500 SPEC_503 SPEC_507 SPEC_510 SPEC_513 SPEC_517 SPEC_520 SPEC_523 SPEC_527 SPEC_530 SPEC_533 SPEC_537 SPEC_540 SPEC_543 SPEC_547 SPEC_550 SPEC_553 SPEC_557 SPEC_560 SPEC_563 SPEC_567 SPEC_570 SPEC_573 SPEC_577 SPEC_580 SPEC_583 SPEC_587 SPEC_590 SPEC_593 SPEC_597 SPEC_600 SPEC_603 SPEC_607 SPEC_610 SPEC_613 SPEC_617 SPEC_620 SPEC_623 SPEC_627 SPEC_630 SPEC_633 SPEC_637 SPEC_640 SPEC_643 SPEC_647 SPEC_650 SPEC_653 SPEC_657 SPEC_660 SPEC_663 SPEC_667 SPEC_670 SPEC_673 SPEC_677 SPEC_680 SPEC_683 SPEC_687 SPEC_690 SPEC_693 SPEC_697 SPEC_700 SPEC_703 SPEC_707 SPEC_710 SPEC_713 SPEC_717 SPEC_720 SPEC_723 SPEC_727 SPEC_730 
END_DATA_FORMAT

NUMBER_OF_SETS 420
BEGIN_DATA
1 "V9" 100.0000 100.0000 100.0000 77.20425 79.48587 71.19460 75.55720 75.55720 75.55720 75.55720 75.55720 75.55720 75.55720 75.58268 75.58836 75.53817 75.39600 75.34984 75.58786 78.75579 81.21986 82.96223 83.96033 84.51974 84.90124 85.31402 85.85021 86.50904 87.18376 87.77454 88.33061 89.02820 89.84689 90.59611 90.86763 90.84119 90.60289 89.78982 88.69905 87.44918 86.22961 85.28848 84.50999 83.71734 83.12210 82.51775 81.90154 81.26115 80.58545 79.93730 79.39182 79.00416 78.74914 78.59133 78.51162 78.45017 78.36037 78.17944 77.85460 77.47914 77.10131 76.88673 76.81275 76.84856 76.97902 77.21144 77.49437 77.87068 78.29525 78.70624 79.04454 79.28556 79.43365 79.48677 79.48186 79.41787 79.31553 79.26884 79.25095 79.33368 79.49038 79.78329 80.20093 80.72182 81.31284 81.92852 82.51793 83.08216 83.68574 84.24750 84.60860 84.82758 84.88241 84.83776 84.96982 84.99105 84.97868 84.80299 84.72900 84.71463 84.72441 84.88111 85.02889 85.17824 85.29034 85.49547 85.81844 85.91606 85.94880 86.41401 86.73598 86.75506 
2 "W10" 19.82452 100.0000 0.00000 14.87212 22.53881 8.125012 7.681861 7.681861 7.681861 7.681861 7.681861 7.681861 7.681861 7.683519 7.683152 7.677093 7.661677 7.656005 7.679165 7.596338 7.549283 7.513842 7.478837 7.453099 7.449044 7.475201 7.528690 7.612422 7.742578 7.905485 8.101740 8.361777 8.671892 9.016929 9.345474 9.831118 10.48762 11.40364 12.66748 14.29835 16.34072 18.88456 21.92395 25.32580 28.95652 32.50162 35.62037 38.03620 39.55547 40.14494 39.91245 39.01840 37.62545 35.88129 33.90842 31.78089 29.58702 27.38486 25.21205 23.13712 21.21546 19.48258 17.92545 16.54939 15.38335 14.41482 13.62810 13.02799 12.58719 12.27060 12.06087 11.93593 11.89577 11.93813 12.05056 12.22741 12.47715 12.79395 13.17018 13.60500 14.08300 14.61313 15.17148 15.75863 16.37192 16.98752 17.58593 18.15937 18.75155 19.33633 19.86193 20.36809 20.86313 21.39042 21.98320 22.61558 23.32215 24.05901 24.90500 25.85495 26.86935 27.97663 29.11134 30.28833 31.49765 32.79177 34.11822 35.41063 36.65559 38.01414 39.37774 40.62575 
3 "M2" 6.633097 86.82689 50.43717 12.58304 18.76701 16.46617 16.94352 16.94352 16.94352 16.94352 16.94352 16.94352 16.94352 16.94923 16.95050 16.93924 16.90736 16.89700 16.95033 17.04523 17.20048 17.32440 17.39083 17.43070 17.48258 17.57877 17.69814 17.85751 18.08605 18.36305 18.71302 19.12564 19.54589 19.99162 20.52074 21.23454 22.13966 23.27995 24.82267 26.59704 28.61554 30.76811 32.85213 34.57282 35.82603 36.46589 36.50665 35.96404 34.99477 33.70384 32.18743 30.50858 28.72862 26.88938 25.03049 23.17585 21.37171 19.63443 17.98071 16.44797 15.05331 13.82984 12.75281 11.82595 11.04256 10.39542 9.882067 9.494159 9.207544 9.006444 8.877579 8.799679 8.767898 8.792313 8.873749 8.993867 9.157877 9.371733 9.631521 9.930111 10.25983 10.62856 11.02756 11.45041 11.89561 12.34775 12.78583 13.24076 13.70954 14.16890 14.58748 14.99702 15.37229 15.78129 16.27055 16.78506 17.33956 17.94076 18.60945 19.37332 20.16088 21.05567 22.06277 23.06015 24.03963 25.13541 26.23604 27.34015 28.48134 29.71663 30.98012 32.10904 
4 "AA12" 8.972305 9.893950 63.28069 13.24592 11.59828 16.02068 22.61328 22.61328 22.61328 22.61328 22.61328 22.61328 22.61328 22.62176 22.62432 22.61016 22.56849 22.55555 22.62765 22.74427 22.83296 22.81494 22.63506 22.34989 22.01624 21.67884 21.32914 20.95434 20.53348 20.04030 19.53005 19.05040 18.51989 17.86386 17.13346 16.51417 15.98401 15.55015 15.21314 14.85561 14.47934 14.07829 13.59737 13.05992 12.54481 12.03682 11.58738 11.24724 11.00430 10.85120 10.77611 10.71780 10.64855 10.54246 10.39511 10.20300 9.981191 9.754652 9.557193 9.418654 9.350996 9.367340 9.458206 9.611610 9.800350 10.02310 10.26229 10.52044 10.78960 11.06947 11.34966 11.63046 11.92744 12.22788 12.54231 12.89511 13.27981 13.71703 14.19718 14.71876 15.25457 15.83526 16.44403 17.07697 17.71282 18.35701 18.99266 19.59279 20.20803 20.79328 21.32605 21.81022 22.29786 22.79721 23.39477 23.99624 24.66430 25.34605 26.16789 27.11264 28.09674 29.16895 30.23256 31.35882 32.50848 33.78840 35.07419 36.28955 37.49211 38.75803 40.02300 41.22883 
5 "L4" 68.29328 48.81819 6.939803 26.35854 23.70243 8.771686 10.05534 10.05534 10.05534 10.05534 10.05534 10.05534 10.05534 10.05774 10.05750 10.04981 10.02987 10.02270 10.05327 9.965704 9.894033 9.830636 9.741213 9.638258 9.554239 9.506168 9.479041 9.476808 9.527472 9.626517 9.758546 9.925699 10.09597 10.28145 10.50652 10.76337 11.12594 11.70713 12.47793 13.34298 14.32064 15.41341 16.48218 17.42772 18.19841 18.76647 19.16576 19.45579 19.69574 19.91268 20.12327 20.31973 20.46182 20.49804 20.42640 20.27450 20.09742 19.95931 19.89821 19.96659 20.19068 20.59004 21.14192 21.81505 22.57834 23.41844 24.32934 25.29645 26.28611 27.27908 28.25273 29.19426 30.10140 30.98714 31.86592 32.75214 33.66888 34.61980 35.62095 36.68034 37.78662 38.92997 40.11799 41.33365 42.56900 43.74966 44.85585 45.95942 47.03826 48.04746 48.96869 49.80942 50.61570 51.43436 52.32728 53.22492 54.15273 55.17109 56.24624 57.43142 58.71368 60.08289 61.51795 62.96907 64.38639 65.74115 67.06341 68.29406 69.48922 70.78720 71.99191 73.01919 
6 "J12" 30.29068 40.49287 81.40078 22.66571 21.16345 28.27846 38.14134 38.14134 38.14134 38.14134 38.14134 38.14134 38.14134 38.15554 38.15976 38.13578 38.06539 38.04347 38.16499 38.62623 38.96039 39.03189 38.80224 38.40956 37.92757 37.42225 36.90675 36.38478 35.83226 35.21302 34.55993 33.93820 33.22100 32.36498 31.42622 30.45182 29.70895 29.06568 28.48952 27.95782 27.35267 26.64794 25.84070 24.94014 24.03444 23.20176 22.51252 21.96418 21.56938 21.30494 21.14000 21.01676 20.85511 20.60954 20.29487 19.91420 19.49743 19.10581 18.75981 18.49016 18.30814 18.21047 18.17650 18.17061 18.19215 18.25303 18.34589 18.50020 18.70921 18.95652 19.23487 19.54189 19.87382 20.24904 20.67561 21.15408 21.70507 22.31659 22.98755 23.72959 24.50606 25.32916 26.19080 27.09970 28.00469 28.88548 29.75323 30.62235 31.48185 32.26787 33.01557 33.70124 34.33300 34.99834 35.72628 36.51474 37.42624 38.31709 39.32862 40.41470 41.59670 42.83702 44.14450 45.50406 46.76239 48.05356 49.52869 50.76107 51.91035 53.25947 54.81402 56.14539 
7 "A4" 23.11284 80.82704 51.46563 17.49841 23.63121 17.77890 19.38521 19.38521 19.38521 19.38521 19.38521 19.38521 19.38521 19.39160 19.39290 19.37987 19.34324 19.33123 19.39208 19.43135 19.46853 19.46643 19.40063 19.30715 19.21647 19.16498 19.14689 19.19774 19.37015 19.63506 19.98357 20.39166 20.83885 21.36164 21.87104 22.48561 23.39748 24.65671 26.24424 28.11847 30.15805 32.30931 34.34145 36.02733 37.28737 38.03716 38.31258 38.13436 37.63953 36.88910 35.96892 34.87733 33.63012 32.23591 30.72148 29.11596 27.46205 25.80297 24.18003 22.62354 21.16178 19.83872 18.63282 17.54318 16.59586 15.79962 15.14982 14.64527 14.27658 14.01696 13.84156 13.74697 13.73589 13.78651 13.91111 14.10928 14.37692 14.71711 15.11714 15.59293 16.13213 16.71982 17.34389 17.99352 18.66665 19.36341 20.04823 20.72943 21.40952 22.07109 22.70995 23.28161 23.83909 24.43991 25.10298 25.83146 26.61215 27.41175 28.32701 29.35957 30.51270 31.71234 32.87691 34.13255 35.50342 36.93102 38.23856 39.62410 40.95924 42.36202 43.79340 45.04210 
8 "O15" 15.23919 0.00000 25.87472 8.368227 7.648106 8.331377 11.82264 11.82264 11.82264 11.82264 11.82264 11.82264 11.82264 11.82696 11.82819 11.82068 11.79878 11.79190 11.82946 11.66672 11.55113 11.43077 11.26980 11.07989 10.87994 10.69882 10.53150 10.37611 10.23253 10.08464 9.950039 9.821022 9.681632 9.530949 9.311523 9.115378 9.011838 8.948722 8.894716 8.849643 8.800860 8.702464 8.571214 8.374910 8.162049 7.940465 7.726216 7.541809 7.407651 7.320693 7.260481 7.212177 7.165214 7.093615 6.991103 6.864180 6.726097 6.592676 6.471079 6.385947 6.345209 6.359654 6.423260 6.528078 6.659186 6.807986 6.956923 7.121639 7.301101 7.473701 7.648036 7.818021 7.988692 8.170139 8.355465 8.555677 8.776520 9.014830 9.272026 9.540039 9.817593 10.11265 10.41816 10.73671 11.07380 11.42433 11.77954 12.15068 12.55790 12.99798 13.46424 13.98604 14.57260 15.22922 16.01173 16.90042 17.87200 18.91790 20.10465 21.46756 22.93630 24.45457 26.12832 27.87650 29.62562 31.42990 33.31811 35.17320 37.00822 38.91506 40.73646 42.39675 
9 "P10" 62.68406 100.0000 0.00000 29.26783 37.70423 7.833448 7.176759 7.176759 7.176759 7.176759 7.176759 7.176759 7.176759 7.177159 7.175652 7.168814 7.153228 7.146727 7.167123 7.104854 7.069135 7.054300 7.026667 6.997583 6.991696 7.015354 7.060170 7.122307 7.219594 7.344731 7.507757 7.747363 8.012094 8.319454 8.667472 9.102113 9.636203 10.43600 11.54889 12.95285 14.79040 17.24996 20.40489 24.24470 28.76324 33.73445 38.79218 43.52101 47.56654 50.71488 52.91630 54.22809 54.76201 54.62610 53.92202 52.71918 51.10266 49.12946 46.87762 44.47792 42.02311 39.66186 37.42460 35.35158 33.48394 31.86181 30.49766 29.41597 28.58717 27.97319 27.54064 27.26702 27.14778 27.16857 27.32591 27.62309 28.05735 28.61857 29.28614 30.08378 30.97040 31.91777 32.93022 33.99221 35.09135 36.19579 37.26286 38.29872 39.31791 40.29119 41.15557 41.96366 42.76931 43.60927 44.50926 45.43391 46.45567 47.45743 48.57503 49.77118 51.07291 52.48601 53.95782 55.46420 56.82180 58.23995 59.77938 61.07592 62.22915 63.65383 64.99437 66.06208 
10 "S1" 82.46128 67.78058 0.00000 35.99531 33.50947 7.228049 7.385130 7.385130 7.385130 7.385130 7.385130 7.385130 7.385130 7.385756 7.384422 7.377607 7.361790 7.355326 7.376548 7.294224 7.267935 7.246770 7.204527 7.167071 7.148453 7.155853 7.184399 7.239052 7.323125 7.431887 7.581025 7.738002 7.934259 8.200423 8.455863 8.771467 9.173179 9.796615 10.60657 11.63360 12.91951 14.52104 16.37951 18.40419 20.51496 22.53418 24.33369 25.89051 27.20312 28.30488 29.19531 29.91508 30.43962 30.77032 30.91436 30.90858 30.83717 30.77191 30.77714 30.93060 31.26621 31.81757 32.53246 33.37016 34.29831 35.29935 36.34813 37.44903 38.57023 39.68371 40.74068 41.72644 42.64863 43.51052 44.34736 45.18461 46.03972 46.95012 47.90555 48.94738 50.04368 51.20203 52.43419 53.72317 55.03376 56.30310 57.51603 58.65306 59.75742 60.73973 61.56742 62.34506 63.07319 63.80672 64.62013 65.40216 66.21277 66.93932 67.76639 68.74318 69.82819 70.98455 72.18125 73.44898 74.59679 75.81568 77.07210 78.03315 78.86839 79.90315 80.86261 81.66687 
11 "Y5" 53.86893 57.56924 86.30350 26.27413 24.60752 31.57531 40.90169 40.90169 40.90169 40.90169 40.90169 40.90169 40.90169 40.91675 40.92112 40.89524 40.81959 40.79592 40.92607 41.68116 42.21469 42.43717 42.32413 42.04299 41.70786 41.39177 41.07827 40.72785 40.26057 39.62696 38.94644 38.28123 37.56892 36.74308 35.72260 34.77038 33.94517 33.18562 32.50148 31.79345 31.12741 30.45381 29.62750 28.64572 27.68659 26.77761 25.97840 25.35133 24.89177 24.59906 24.40658 24.24710 24.05969 23.81010 23.47980 23.07437 22.64022 22.21232 21.83072 21.53758 21.33727 21.24764 21.23305 21.26147 21.32327 21.42704 21.56773 21.77160 22.02681 22.32271 22.65976 23.01691 23.40165 23.82584 24.30234 24.84233 25.44611 26.13619 26.90629 27.75667 28.65861 29.61025 30.60945 31.67494 32.76917 33.86376 34.92919 35.95721 36.99821 38.01301 38.90066 39.71847 40.51351 41.33799 42.25581 43.15879 44.12329 45.09735 46.20639 47.43341 48.71029 50.09636 51.53558 52.94983 54.33172 55.76821 57.23228 58.51142 59.75595 61.27756 62.62607 63.80510 
12 "M6" 88.41688 18.38712 35.41009 31.21047 21.18856 10.65781 14.56224 14.56224 14.56224 14.56224 14.56224 14.56224 14.56224 14.56653 14.56700 14.55668 14.52864 14.51909 14.56423 14.43781 14.33728 14.22199 14.03013 13.81311 13.61536 13.44381 13.28416 13.13837 12.99908 12.84686 12.71706 12.61599 12.46477 12.25163 12.00724 11.83038 11.79394 11.77332 11.77678 11.82606 11.90401 11.92165 11.87358 11.72206 11.51571 11.27610 11.03424 10.83577 10.73722 10.71567 10.76333 10.83991 10.90665 10.95553 10.96691 10.94035 10.91094 10.90440 10.95564 11.12770 11.46435 12.01907 12.82486 13.90116 15.28003 16.98715 19.03759 21.43768 24.15575 27.15493 30.36541 33.69789 37.05824 40.35243 43.48567 46.39985 49.06955 51.50054 53.69016 55.71646 57.58033 59.32939 61.00436 62.62014 64.16331 65.61636 66.95392 68.15050 69.29781 70.36393 71.21832 71.90289 72.49494 73.11912 73.85440 74.48411 75.08800 75.55792 76.12816 76.81523 77.53568 78.35210 79.30831 80.19503 81.09169 82.12109 83.06059 83.77590 84.53436 85.44543 86.16422 86.78446 
13 "E14" 32.29877 43.89258 59.70397 21.52926 21.25855 20.34321 26.04697 26.04697 26.04697 26.04697 26.04697 26.04697 26.04697 26.05620 26.05861 26.04176 25.99321 25.97775 26.06021 26.04594 26.05371 25.99413 25.78733 25.50925 25.22585 24.97178 24.75383 24.57499 24.43348 24.32770 24.24554 24.19122 24.12460 24.03181 23.89795 23.82052 23.91294 24.15504 24.45649 24.77939 25.03628 25.11446 24.95016 24.56696 24.05892 23.48965 22.94889 22.50598 22.18240 21.95589 21.80053 21.66642 21.49389 21.25712 20.94280 20.55804 20.14474 19.74106 19.37509 19.08671 18.87866 18.75936 18.70309 18.68104 18.67457 18.70159 18.77827 18.91490 19.10533 19.34080 19.60815 19.90600 20.23271 20.59556 21.01196 21.48378 22.00587 22.60258 23.26359 23.97719 24.74307 25.55469 26.40269 27.27703 28.14997 29.01140 29.86845 30.69092 31.49217 32.26403 32.96884 33.62024 34.24154 34.89605 35.65356 36.44639 37.29539 38.17116 39.14206 40.22481 41.38453 42.61864 43.90580 45.19658 46.46889 47.78866 49.11785 50.36200 51.56975 52.89203 54.16928 55.42987 
14 "P4" 86.66667 86.66667 86.66667 52.80915 54.24401 44.12617 49.07788 49.07788 49.07788 49.07788 49.07788 49.07788 49.07788 49.09425 49.09777 49.06498 48.97245 48.94227 49.09664 50.47858 51.52183 52.16352 52.39637 52.45192 52.46468 52.52865 52.66217 52.86628 53.10212 53.31858 53.59184 53.98864 54.42474 54.78963 54.85698 54.90663 55.08681 55.20753 55.39340 55.59637 55.94742 56.48032 56.95622 57.25276 57.44861 57.40427 57.14625 56.81820 56.45414 56.10655 55.82113 55.56245 55.30543 55.00933 54.63944 54.17613 53.64205 53.04634 52.40898 51.81897 51.30650 50.96473 50.75471 50.65274 50.62786 50.69208 50.84435 51.12324 51.49247 51.91053 52.33548 52.75144 53.17086 53.59538 54.04850 54.54968 55.10289 55.73698 56.44303 57.28216 58.19627 59.20053 60.31894 61.50557 62.72625 63.95702 65.12604 66.22124 67.30270 68.30249 69.10365 69.77050 70.35542 70.92957 71.54474 72.12251 72.69321 73.16514 73.73153 74.31035 74.98564 75.77943 76.55608 77.32816 77.99830 78.69447 79.44339 80.04015 80.55614 81.30127 82.01725 82.56912 
15 "C8" 80.00000 80.00000 80.00000 42.93823 43.94928 34.00703 39.35708 39.35708 39.35708 39.35708 39.35708 39.35708 39.35708 39.37019 39.37299 39.34667 39.27245 39.24823 39.37197 40.08593 40.59324 40.81131 40.72217 40.49382 40.23918 40.03579 39.89604 39.88588 40.04461 40.30866 40.59747 40.90326 41.28440 41.62333 41.91711 42.24248 42.48192 42.81937 43.41077 44.12439 44.86481 45.62776 46.26909 46.68188 46.88590 46.84853 46.64544 46.35061 46.05052 45.77934 45.56538 45.37191 45.14507 44.82167 44.38325 43.83796 43.22895 42.60173 41.96876 41.41838 40.98482 40.69113 40.51461 40.42676 40.40510 40.46048 40.58303 40.81808 41.14302 41.52860 41.93732 42.35166 42.79360 43.27396 43.80384 44.39866 45.07037 45.84839 46.73044 47.73489 48.82406 50.01149 51.27637 52.60166 53.98583 55.34378 56.65618 57.93394 59.17611 60.27530 61.24173 62.13265 62.93822 63.72929 64.57924 65.34589 66.16370 66.94273 67.78386 68.69786 69.73005 70.78893 71.78050 72.80289 73.83654 74.93047 75.92138 76.76184 77.50930 78.39383 79.29393 80.10405 
16 "A10" 73.33333 73.33333 73.33333 34.92064 35.46197 25.85511 30.27016 30.27016 30.27016 30.27016 30.27016 30.27016 30.27016 30.28012 30.28214 30.26178 30.20456 30.18580 30.28081 30.60649 30.83105 30.89166 30.73989 30.51510 30.29884 30.13330 30.02715 29.99963 30.09238 30.29449 30.58901 30.92585 31.19063 31.40294 31.56704 31.87339 32.24356 32.76403 33.59149 34.51339 35.46255 36.38878 37.15223 37.63550 37.84144 37.80996 37.63104 37.35345 37.07058 36.84556 36.68209 36.53454 36.33337 36.04470 35.63695 35.11964 34.54029 33.95268 33.39244 32.91464 32.55656 32.34430 32.23255 32.20320 32.23307 32.31814 32.47743 32.72269 33.04712 33.42361 33.83321 34.26995 34.74707 35.25291 35.80792 36.43581 37.15145 37.96906 38.88122 39.92210 41.05964 42.29478 43.59119 44.92408 46.28448 47.67466 49.01307 50.28462 51.50607 52.68876 53.79989 54.75822 55.60107 56.48951 57.44592 58.43115 59.43496 60.38063 61.39935 62.51670 63.75984 65.03134 66.33385 67.64123 68.93654 70.27693 71.42486 72.46831 73.41486 74.63781 75.65531 76.54126 
17 "U12" 66.66667 66.66667 66.66667 29.20309 29.12059 20.86824 24.59579 24.59579 24.59579 24.59579 24.59579 24.59579 24.59579 24.60384 24.60545 24.58886 24.54233 24.52705 24.60420 24.71935 24.79817 24.81898 24.70845 24.55292 24.42742 24.36745 24.37546 24.42839 24.50123 24.60211 24.75976 24.99371 25.16642 25.26274 25.35899 25.47378 25.77173 26.25138 26.90262 27.66280 28.49213 29.31679 29.94765 30.32051 30.46323 30.36786 30.15925 29.96493 29.79601 29.65975 29.57112 29.49082 29.36238 29.12901 28.78997 28.35341 27.87285 27.39145 26.95829 26.62529 26.38828 26.29394 26.29364 26.34016 26.42625 26.56669 26.76205 27.03428 27.37327 27.75686 28.18152 28.61932 29.07865 29.58428 30.14375 30.77928 31.49569 32.31118 33.20810 34.21504 35.29487 36.44588 37.65209 38.91684 40.19910 41.45430 42.68636 43.89295 45.09519 46.24542 47.25117 48.19153 49.06243 49.96862 50.95239 51.97683 53.03080 54.01262 55.12651 56.35362 57.68094 59.04174 60.42291 61.81036 63.15752 64.51941 65.92765 67.15607 68.30585 69.58127 70.89761 71.84464 
18 "G6" 60.00000 60.00000 60.00000 26.46766 25.96702 18.98009 23.33916 23.33916 23.33916 23.33916 23.33916 23.33916 23.33916 23.34693 23.34858 23.33296 23.28894 23.27456 23.34790 23.31205 23.28798 23.21488 23.01278 22.76116 22.51869 22.32360 22.17624 22.08823 22.10534 22.19028 22.31468 22.47225 22.58870 22.71539 22.80093 22.94227 23.22175 23.69978 24.30982 25.00704 25.73996 26.39936 26.87054 27.06918 27.04257 26.83999 26.55536 26.27531 26.07194 25.95005 25.86160 25.78621 25.66343 25.45841 25.15677 24.76747 24.34505 23.93918 23.57816 23.31797 23.17199 23.14239 23.20577 23.33004 23.49302 23.70747 23.96615 24.29104 24.67903 25.09999 25.54845 26.02314 26.51319 27.02827 27.59212 28.21384 28.90270 29.67057 30.52574 31.46340 32.46028 33.52136 34.64431 35.79287 36.93223 38.08433 39.24161 40.35562 41.46006 42.52239 43.49268 44.38277 45.21743 46.07076 47.03022 48.04228 49.05930 50.08891 51.27117 52.50060 53.78136 55.18662 56.67775 58.13557 59.59743 61.03785 62.51389 63.85804 65.12787 66.47722 67.73831 68.93559 
19 "V3" 53.33333 53.33333 53.33333 25.01895 24.23434 17.96920 22.05931 22.05931 22.05931 22.05931 22.05931 22.05931 22.05931 22.06667 22.06824 22.05350 22.01190 21.99833 22.06766 21.94484 21.90684 21.84824 21.70367 21.52838 21.37536 21.27488 21.21552 21.19284 21.20292 21.22481 21.28083 21.38411 21.43229 21.47048 21.54293 21.62704 21.82475 22.19095 22.78610 23.43949 24.10232 24.66544 24.99756 25.07016 24.95583 24.67369 24.33982 24.04176 23.82630 23.69859 23.62994 23.57035 23.48310 23.32403 23.07562 22.75504 22.39925 22.05477 21.76311 21.56927 21.47916 21.51757 21.63358 21.79874 22.00664 22.26199 22.55494 22.90853 23.31757 23.75632 24.21180 24.68762 25.18178 25.70531 26.27199 26.89182 27.56863 28.32814 29.15112 30.05164 31.00180 32.00768 33.04658 34.09081 35.18356 36.27514 37.33536 38.36046 39.38227 40.37304 41.23824 42.04692 42.82156 43.62911 44.56974 45.49947 46.51375 47.51086 48.63065 49.83956 51.14964 52.63078 54.02217 55.43440 56.83368 58.29410 59.85107 61.19777 62.45056 64.00947 65.37895 66.44752 
20 "S10" 46.66667 46.66667 46.66667 24.01986 23.18757 16.88458 20.81206 20.81206 20.81206 20.81206 20.81206 20.81206 20.81206 20.81898 20.82044 20.80651 20.76725 20.75442 20.81980 20.70051 20.64518 20.57141 20.42035 20.24026 20.07008 19.94848 19.86127 19.81022 19.80299 19.81344 19.86146 19.93706 20.01938 20.08452 20.13788 20.31656 20.60661 21.09205 21.73605 22.44328 23.08659 23.61530 23.91353 23.92627 23.75282 23.43139 23.07658 22.78070 22.55133 22.42674 22.37614 22.33314 22.24837 22.10167 21.87576 21.58341 21.26398 20.96406 20.71280 20.55757 20.51171 20.57861 20.72579 20.92393 21.15879 21.43171 21.74077 22.10774 22.52076 22.96865 23.43033 23.90457 24.39879 24.91291 25.46143 26.06299 26.72331 27.46325 28.25279 29.10900 29.99734 30.92594 31.88156 32.87742 33.89498 34.89392 35.86401 36.77906 37.69434 38.58321 39.37927 40.10924 40.82299 41.56986 42.42126 43.30685 44.25265 45.15193 46.17205 47.32879 48.61377 49.95810 51.28649 52.68489 54.00282 55.40200 56.83498 58.13361 59.33071 60.69296 62.00787 63.19386 
21 "X11" 40.00000 40.00000 40.00000 22.63982 21.90311 15.96812 19.78224 19.78224 19.78224 19.78224 19.78224 19.78224 19.78224 19.78883 19.79023 19.77700 19.73970 19.72752 19.78968 19.66466 19.59493 19.50129 19.35142 19.17079 18.98726 18.84349 18.73686 18.67999 18.67958 18.70345 18.76070 18.83423 18.89287 18.97749 19.06092 19.19056 19.46614 19.95220 20.60484 21.28863 21.89031 22.40913 22.68933 22.66605 22.46900 22.14938 21.81803 21.54203 21.34905 21.24487 21.20508 21.19040 21.12158 20.97973 20.75928 20.46815 20.15016 19.85050 19.59558 19.43839 19.38249 19.44012 19.57676 19.76606 19.99427 20.25680 20.54291 20.86966 21.23456 21.62952 22.04313 22.46704 22.91243 23.38905 23.90475 24.47146 25.09742 25.79622 26.54351 27.36452 28.20557 29.07585 29.99631 30.94952 31.92073 32.87875 33.79187 34.66191 35.52646 36.34902 37.10882 37.82116 38.49756 39.19169 40.00864 40.84331 41.76720 42.67118 43.67657 44.77549 45.98029 47.28903 48.58314 49.85107 51.13107 52.52781 53.95914 55.19385 56.40111 57.80178 59.06284 60.18216 
22 "M11" 33.33333 33.33333 33.33333 18.70835 17.90109 13.64546 17.01282 17.01282 17.01282 17.01282 17.01282 17.01282 17.01282 17.01854 17.01981 17.00849 16.97646 16.96604 17.01956 16.92785 16.90077 16.83944 16.70687 16.55497 16.41507 16.31235 16.22909 16.16604 16.13526 16.12005 16.14316 16.16932 16.13795 16.10367 16.12067 16.18119 16.33561 16.68688 17.19661 17.72808 18.19348 18.56575 18.75242 18.73736 18.56792 18.29476 17.97645 17.70847 17.52942 17.41664 17.36099 17.32671 17.25932 17.12366 16.91875 16.64956 16.33838 16.02656 15.75542 15.56817 15.47424 15.49440 15.59867 15.77031 15.98916 16.24338 16.52602 16.84395 17.18467 17.55028 17.92972 18.30900 18.70281 19.13458 19.60413 20.11250 20.67172 21.29383 21.96870 22.71465 23.50085 24.31903 25.16840 26.04309 26.94814 27.84153 28.67634 29.49073 30.31185 31.11301 31.81525 32.45783 33.11006 33.79820 34.58338 35.38452 36.25582 37.17941 38.15523 39.26019 40.47942 41.74372 43.11117 44.51659 45.82504 47.23310 48.63301 49.87163 51.15374 52.61198 53.96845 55.15718 
