Epson_XP-960/Navigator/Colour_Documents/Navigator_Colour_Documents_XP_960.ti1
CTI1   

DESCRIPTOR "Argyll Calibration Target chart information 1"
ORIGINATOR "Argyll targen"
CREATED "Wed Jun 17 12:21:49 2020"
APPROX_WHITE_POINT "95.106486 100.000000 108.844025"
COLOR_REP "iRGB"
WHITE_COLOR_PATCHES "8"
BLACK_COLOR_PATCHES "4"
COMP_GREY_STEPS "16"
OFPS_PATCHES "394"

NUMBER_OF_FIELDS 7
BEGIN_DATA_FORMAT
SAMPLE_ID RGB_R RGB_G RGB_B XYZ_X XYZ_Y XYZ_Z 
END_DATA_FORMAT

NUMBER_OF_SETS 420
BEGIN_DATA
1 100.0000 100.0000 100.0000 95.10649 100.0000 108.8440 
2 19.82430 100.0000 0.00000 37.73464 72.48598 12.86413 
3 6.632840 86.82729 50.43677 30.83226 54.08315 30.10987 
4 8.972960 9.894700 63.28022 8.097399 4.437152 34.84815 
5 68.29270 48.81809 6.939531 25.61666 24.36083 4.766690 
6 30.29007 40.49303 81.40079 20.09708 16.71328 61.85027 
7 23.11276 80.82707 51.46520 28.73237 47.29790 29.82402 
8 15.23936 0.00000 25.87526 2.796255 1.813600 6.163964 
9 62.68356 100.0000 0.00000 50.72730 79.18504 13.47294 
10 82.46130 67.78018 0.00000 42.15702 44.13346 7.158348 
11 53.86839 57.56885 86.30281 34.37248 32.01216 72.33194 
12 88.41728 18.38755 35.40974 34.72784 19.66451 12.47078 
13 32.29901 43.89228 59.70324 15.83599 16.49997 32.73189 
14 86.66667 86.66667 86.66667 69.04418 72.58246 78.97718 
15 80.00000 80.00000 80.00000 57.82407 60.77891 66.11917 
16 73.33333 73.33333 73.33333 47.76462 50.19637 54.59125 
17 66.66667 66.66667 66.66667 38.82872 40.79580 44.35090 
18 60.00000 60.00000 60.00000 30.97732 32.53613 35.35337 
19 53.33333 53.33333 53.33333 24.16914 25.37393 27.55134 
20 46.66667 46.66667 46.66667 18.36029 19.26302 20.89453 
21 40.00000 40.00000 40.00000 13.50377 14.15396 15.32905 
22 33.33333 33.33333 33.33333 9.548794 9.993329 10.79674 
23 26.66667 26.66667 26.66667 6.439866 6.722738 7.233970 
24 20.00000 20.00000 20.00000 4.115373 4.277372 4.570151 
25 13.33333 13.33333 13.33333 2.505355 2.583633 2.725105 
26 6.666667 6.666667 6.666667 1.527504 1.554934 1.604508 
27 0.00000 100.0000 0.00000 36.40521 71.80052 12.80184 
28 0.00000 0.00000 100.0000 18.87111 8.147314 95.12896 
29 100.0000 0.00000 100.0000 59.70128 29.19948 97.04219 
30 100.0000 100.0000 0.00000 77.23538 92.85269 14.71507 
31 100.0000 0.00000 0.00000 41.83017 22.05217 2.913230 
32 0.00000 100.0000 100.0000 54.27632 78.94783 106.9308 
33 0.00000 47.59981 100.0000 25.68640 21.77599 97.40074 
34 100.0000 0.00000 38.52645 44.02428 22.92967 14.46983 
35 100.0000 35.41207 0.00000 45.47523 29.34127 4.128261 
36 0.00000 100.0000 39.49046 38.71639 72.72484 24.97508 
37 0.00000 0.00000 0.00000 1.000000 1.000000 1.000000 
38 46.57063 0.00000 100.0000 26.37002 12.01378 95.48035 
39 0.00000 33.31111 0.00000 4.211855 7.422811 2.070627 
40 0.00000 0.00000 79.20856 11.55288 5.220486 56.58311 
41 100.0000 61.39444 100.0000 71.56435 52.92231 100.9966 
42 60.28016 0.00000 0.00000 14.14023 7.775147 1.615728 
43 100.0000 100.0000 76.33491 86.94938 96.73767 65.87971 
44 63.51526 100.0000 100.0000 69.02127 86.55038 107.6217 
45 0.00000 0.00000 39.97430 3.371286 1.948365 13.48981 
46 100.0000 100.0000 49.08930 80.91162 94.32295 34.07819 
47 100.0000 41.62150 100.0000 64.81794 39.43139 98.74776 
48 100.0000 52.91829 0.00000 50.40013 39.18968 5.769906 
49 60.24639 0.00000 81.98971 25.52766 12.32753 61.67895 
50 0.00000 49.50006 0.00000 8.415370 15.82867 3.471811 
51 0.00000 59.72018 24.17650 13.01433 23.66324 9.205441 
52 54.93840 42.25865 0.00000 17.00753 17.09603 3.263915 
53 49.68192 100.0000 46.90447 48.35777 77.57779 30.76076 
54 35.31257 19.67403 100.0000 24.18663 12.57463 95.70360 
55 100.0000 46.00005 60.82478 54.02937 37.06228 35.92284 
56 43.06279 100.0000 100.0000 60.61945 82.21837 107.2280 
57 100.0000 0.00000 60.41754 47.61044 24.36391 33.35849 
58 51.33304 60.55164 100.0000 39.63025 35.92931 99.39835 
59 42.02943 100.0000 0.00000 42.42922 74.90652 13.08411 
60 39.35406 0.00000 0.00000 6.242029 3.702807 1.245632 
61 0.00000 35.44234 63.58932 11.12194 10.88981 36.29750 
62 43.84365 0.00000 46.80888 10.90907 5.725321 18.78709 
63 0.00000 100.0000 58.34290 41.75844 73.94147 40.99784 
64 100.0000 67.12153 19.04956 56.81859 51.16082 10.57399 
65 35.36131 56.89604 0.00000 15.22886 23.23371 4.542345 
66 0.00000 23.08672 100.0000 20.41300 11.23068 95.64293 
67 73.13383 0.00000 100.0000 39.03795 18.54540 96.07394 
68 0.00000 82.85189 61.84500 30.21545 49.68764 40.76176 
69 0.00000 73.86432 100.0000 36.75088 43.90186 101.0889 
70 62.20383 58.89903 0.00000 25.91003 29.91458 5.269390 
71 100.0000 85.25349 0.00000 66.49813 71.38119 11.13595 
72 100.0000 100.0000 23.93572 78.07030 93.18660 19.11267 
73 0.00000 82.93722 0.00000 24.18385 47.36121 8.728013 
74 100.0000 37.99746 40.60629 48.50387 31.47639 17.23122 
75 0.00000 100.0000 19.97398 36.99538 72.03655 15.91033 
76 100.0000 66.00389 62.49675 61.97814 52.37975 40.35455 
77 19.33875 100.0000 55.93939 42.55651 74.40744 38.57650 
78 100.0000 0.00000 81.54494 53.09514 26.55744 62.24698 
79 20.33471 0.00000 100.0000 20.26575 8.866398 95.19431 
80 63.08529 30.82308 100.0000 36.13624 21.11528 96.72283 
81 77.34870 0.00000 21.69019 24.54933 13.06229 5.706161 
82 64.63013 100.0000 62.80033 58.02279 82.21855 46.67355 
83 14.07857 63.10092 100.0000 32.19039 33.71821 99.36339 
84 81.86686 100.0000 0.00000 62.37135 85.18875 14.01856 
85 37.78438 0.00000 83.63956 17.73904 8.251202 64.04385 
86 0.00000 40.08072 22.89356 6.490012 10.75349 6.607930 
87 80.45198 0.00000 0.00000 25.96833 13.87375 2.169972 
88 0.00000 51.98882 64.68777 15.96640 20.17798 39.14404 
89 40.99430 0.00000 65.15116 13.54096 6.676501 37.22642 
90 81.01893 0.00000 42.82028 29.10861 15.17560 16.63726 
91 37.14333 100.0000 16.01034 41.44169 74.35186 15.09084 
92 100.0000 0.00000 19.47636 42.39305 22.27728 5.877974 
93 0.00000 0.00000 59.75992 6.642834 3.256777 30.72138 
94 67.68216 100.0000 40.54079 55.82059 81.52860 26.46363 
95 0.00000 100.0000 78.40041 46.71807 75.92501 67.12075 
96 40.99357 100.0000 62.93252 48.44268 77.27563 46.37748 
97 52.72851 85.54801 0.00000 35.66673 55.77022 9.746414 
98 18.77957 0.00000 0.00000 2.201583 1.619540 1.056304 
99 31.85596 17.17215 0.00000 5.263378 4.510145 1.453016 
100 100.0000 100.0000 100.0000 95.10649 100.0000 108.8440 
101 38.84495 0.00000 28.14254 7.250845 4.089884 7.298686 
102 35.59870 72.88734 21.15233 23.26364 38.16156 10.44937 
103 46.35334 65.25087 77.61183 32.07696 35.99848 58.97330 
104 76.37020 59.44090 28.62776 35.45584 35.02515 11.99548 
105 63.20739 47.63417 100.0000 40.28458 29.31857 98.08782 
106 100.0000 17.65227 0.00000 42.75975 23.91107 3.223092 
107 84.04623 24.83377 56.22842 35.26326 20.73361 28.88994 
108 53.55993 81.15342 100.0000 51.09407 57.52696 102.9635 
109 100.0000 57.77553 39.57754 54.53282 43.73932 18.60337 
110 100.0000 19.84969 78.59763 53.35688 28.51078 57.92429 
111 100.0000 76.61555 44.96131 64.27777 62.07134 25.41426 
112 0.00000 18.15038 57.62735 7.188661 5.040144 28.76960 
113 22.67560 100.0000 100.0000 55.99371 79.83333 107.0113 
114 100.0000 100.0000 100.0000 95.10649 100.0000 108.8440 
115 100.0000 20.73784 100.0000 60.95641 31.70939 97.46057 
116 78.45971 43.94964 0.00000 30.34633 24.65659 4.020792 
117 0.00000 15.79827 0.00000 1.760830 2.521446 1.253612 
118 40.42718 100.0000 32.68525 43.51246 75.28470 21.27415 
119 0.00000 79.41608 19.62771 22.60100 43.28232 11.01807 
120 9.783561 74.37175 55.34597 24.32083 39.41727 32.19351 
121 0.00000 50.06053 44.28694 11.54531 17.37265 19.05636 
122 0.00000 68.76371 71.86310 24.73334 34.88041 50.79106 
123 75.45748 36.32369 87.78613 39.77151 25.15568 73.35574 
124 66.84249 68.63723 100.0000 50.56274 47.02051 100.9635 
125 82.38439 0.00000 85.24040 39.78390 19.55740 67.79411 
126 17.79590 22.18570 100.0000 21.38697 11.56356 95.65589 
127 100.0000 61.01586 81.76730 64.86691 49.98701 66.51229 
128 64.63046 36.41563 24.10927 21.03339 16.96500 7.465906 
129 22.57231 0.00000 45.23691 5.786389 3.111155 17.32384 
130 58.42215 30.25513 64.44549 22.56952 15.26554 37.55686 
131 19.40907 45.45881 0.00000 8.452010 14.00566 3.117988 
132 100.0000 43.71033 20.55428 48.13114 33.65575 8.087075 
133 18.92855 68.34326 0.00000 17.25795 31.70170 6.070045 
134 82.29511 100.0000 82.18537 74.14278 89.93203 74.41979 
135 72.76977 82.40426 0.00000 43.79343 56.97642 9.551228 
136 25.60492 0.00000 14.46899 3.506538 2.254324 2.834930 
137 69.10507 92.13391 49.84747 51.97236 70.47056 31.64683 
138 20.02080 100.0000 71.62797 46.18616 75.86893 57.24924 
139 33.42090 80.26811 100.0000 44.14018 53.14384 102.4837 
140 19.33760 41.73587 100.0000 25.28656 19.09319 96.90394 
141 58.25435 16.60036 48.18172 17.55254 10.36002 20.44782 
142 100.0000 70.11834 0.00000 57.75103 53.88943 8.220227 
143 13.13819 57.44616 60.64507 17.71678 24.15952 35.14513 
144 0.00000 19.55512 34.05925 3.820834 3.925677 10.31403 
145 19.75694 35.12694 72.04803 14.44255 12.26321 47.22301 
146 0.00000 65.80187 0.00000 14.82622 28.64857 5.608778 
147 83.43727 100.0000 100.0000 81.37676 92.92091 108.2007 
148 36.68879 71.93932 39.39207 24.68094 37.96115 18.94040 
149 0.00000 39.13311 82.46071 17.04349 14.60259 63.34029 
150 0.00000 0.00000 18.67144 1.520322 1.208096 3.740587 
151 42.83228 24.42711 35.45318 10.83658 8.412822 11.58178 
152 69.14464 72.88257 23.24593 36.94031 45.19439 11.77287 
153 59.58620 100.0000 81.42347 60.44247 82.89559 72.53732 
154 42.02865 57.33732 18.04942 17.72154 24.71652 7.259660 
155 85.14020 100.0000 39.96496 67.13788 87.37224 26.61451 
156 100.0000 80.95411 100.0000 81.65696 73.10470 104.3608 
157 73.04012 38.55514 44.46366 28.43531 21.26324 19.04976 
158 0.00000 81.37057 38.74026 25.43013 46.30229 20.09528 
159 9.975983 17.87391 90.65370 16.66301 8.832892 76.67789 
160 81.09500 65.44928 66.16010 47.14503 44.25258 43.94880 
161 65.96037 22.94331 0.00000 18.55334 12.31146 2.258939 
162 60.81680 0.00000 58.30924 19.74544 10.04680 29.78819 
163 78.51937 84.05256 100.0000 66.40498 68.11414 104.2008 
164 29.99557 91.04822 88.79619 46.25797 65.22958 82.57544 
165 11.14742 57.12383 48.08292 15.12738 22.90560 22.91554 
166 25.70529 100.0000 41.31624 41.14236 73.94890 26.29739 
167 43.72088 15.14217 46.43620 11.51911 7.093863 18.72315 
168 25.92647 58.67801 32.36821 15.49984 24.23822 12.73413 
169 50.99498 71.27530 17.30860 27.08450 38.90225 9.315574 
170 53.75317 23.20070 24.97058 13.68927 9.748024 6.775885 
171 16.26296 22.51595 0.00000 3.393098 4.414119 1.532984 
172 0.00000 0.00000 0.00000 1.000000 1.000000 1.000000 
173 52.93934 0.00000 16.87568 11.32396 6.273060 3.740596 
174 100.0000 82.54243 81.86493 76.13102 72.46335 70.41730 
175 100.0000 87.34949 62.88669 74.20124 76.68485 44.85353 
176 0.00000 84.07399 87.09711 37.97261 54.03034 77.79436 
177 76.40816 82.40881 15.72655 46.47503 58.31921 11.66629 
178 40.61779 39.80640 100.0000 29.13094 20.34786 96.94365 
179 80.67457 50.87984 100.0000 51.86461 36.83844 98.92947 
180 53.94698 16.43081 100.0000 29.99322 15.09324 95.88394 
181 24.90824 84.73380 21.05873 28.04491 50.97801 12.64250 
182 71.53726 53.57714 87.39672 42.17062 33.77032 74.19566 
183 12.84212 29.99925 41.06660 6.716193 7.505112 15.11501 
184 52.63607 10.75905 76.60406 20.95775 10.74849 53.15987 
185 84.71739 100.0000 60.96481 70.34739 88.61923 45.17146 
186 19.03650 0.00000 62.75112 8.515933 4.148437 34.15415 
187 87.59817 15.50416 21.70605 32.67060 18.34163 6.302562 
188 80.54859 15.72693 100.0000 44.66157 22.56506 96.55367 
189 79.25683 0.00000 65.22318 31.98693 16.18537 38.17802 
190 100.0000 83.70361 27.08708 66.56487 69.80969 16.41635 
191 0.00000 33.54560 44.74605 7.271562 8.721322 17.95567 
192 44.75936 78.46573 76.16952 38.02445 49.35085 59.06281 
193 44.38892 19.44796 61.05284 14.79380 9.078470 32.84203 
194 36.28701 24.94446 86.32114 20.02182 11.98815 69.25471 
195 77.35511 39.71425 59.72158 34.13196 24.30804 33.29540 
196 100.0000 100.0000 100.0000 95.10649 100.0000 108.8440 
197 67.94557 81.34731 56.07032 45.22289 56.17547 35.04786 
198 100.0000 39.94367 81.21100 57.68196 35.89529 63.26557 
199 40.58392 47.80222 28.51593 14.65280 18.11025 9.777085 
200 17.36563 52.09107 11.59525 10.54861 18.18793 5.002794 
201 27.79078 29.82073 10.63580 6.322011 7.523129 3.013012 
202 11.36308 70.94695 84.98978 30.20848 38.88439 71.59739 
203 29.01567 83.64096 0.00000 27.42429 49.69277 9.007404 
204 0.00000 59.57774 86.88514 25.09994 28.40326 73.14981 
205 38.02154 87.99486 25.98690 33.35171 56.88772 15.22925 
206 19.18906 48.90708 80.27763 20.35108 20.44223 60.74853 
207 19.51947 0.00000 81.11609 13.42358 6.118011 59.69511 
208 17.73007 33.39018 56.63713 10.32462 10.01769 28.54818 
209 100.0000 21.50386 22.07096 43.88861 25.02693 7.119916 
210 100.0000 16.89630 41.71092 45.28302 24.80633 16.86467 
211 58.36772 100.0000 21.01991 49.29717 78.37247 16.79913 
212 36.44789 36.30296 0.00000 9.302011 10.97728 2.488654 
213 13.72941 84.53680 100.0000 43.76070 56.90057 103.2289 
214 54.28711 91.54849 33.65224 42.07935 64.99252 19.86857 
215 52.01510 42.69177 14.22563 16.23982 16.83502 4.928772 
216 95.01905 61.52981 51.07673 53.28206 45.18530 27.77552 
217 59.51667 83.74116 80.47934 48.40687 59.34111 67.10180 
218 48.72970 69.40882 0.00000 24.83162 36.38748 6.575646 
219 74.72046 12.60197 58.13825 27.98440 15.06312 30.14263 
220 93.07076 93.43927 56.38096 71.00331 81.56109 38.90284 
221 93.33333 93.33333 93.33333 81.46035 85.64427 93.20584 
222 78.48704 44.87171 18.10865 31.11693 25.38356 6.698401 
223 52.56328 28.81800 45.09880 16.19414 12.02774 18.39142 
224 34.14851 62.37323 100.0000 35.05375 34.72194 99.40633 
225 11.78806 62.34886 29.82941 15.09900 26.33494 11.93074 
226 49.27037 42.67512 71.08223 23.14592 19.46794 46.82919 
227 89.72895 47.08959 75.12355 48.96327 34.52894 54.08178 
228 15.90632 100.0000 86.57953 50.18583 77.41462 80.74954 
229 0.00000 67.12871 48.09017 18.96860 31.30602 24.34074 
230 39.23710 100.0000 81.38702 52.83048 78.97213 72.12166 
231 61.52101 0.00000 36.40693 16.69209 8.865450 11.91003 
232 57.22891 53.70314 39.21933 23.85138 25.65155 16.49697 
233 82.98700 21.67585 0.00000 29.13785 17.53457 2.709684 
234 11.24134 77.12446 32.95657 22.77170 41.26953 15.94069 
235 22.29083 21.90400 82.42122 15.59391 9.257665 62.31968 
236 88.87652 53.62814 88.11803 54.48746 40.11947 76.06607 
237 60.50558 9.617346 23.89222 15.41472 8.832035 6.114233 
238 48.92488 19.91429 0.00000 10.50117 7.624341 1.778281 
239 27.41047 77.85104 83.50547 35.48850 47.25590 70.41256 
240 77.64721 21.08905 43.00012 28.12096 16.58668 17.09045 
241 46.36037 63.84856 46.95157 24.70114 32.03042 23.25246 
242 37.03239 43.72279 11.67453 11.52485 14.83210 4.316870 
243 5.728594 85.97777 73.87235 35.35904 54.98678 56.93698 
244 54.50358 87.79440 52.64980 42.17536 60.85387 32.81369 
245 46.36277 67.86456 60.66952 29.06639 36.76975 37.00862 
246 82.77014 76.66798 32.74829 48.61383 54.21014 16.96989 
247 22.69774 19.40473 38.35325 6.001573 4.971068 12.89758 
248 82.83423 33.82446 100.0000 48.84739 28.52267 97.48320 
249 60.54381 71.56631 86.14858 43.67750 46.25900 74.32168 
250 0.00000 19.78378 17.18077 2.594976 3.475033 3.735111 
251 100.0000 100.0000 100.0000 95.10649 100.0000 108.8440 
252 59.95918 27.71032 81.27633 27.37821 16.58667 61.24035 
253 73.44508 8.293859 74.16697 30.73498 15.67607 50.01512 
254 89.79958 74.02312 53.82162 55.44227 55.21478 32.12653 
255 24.53081 36.10803 45.60670 9.935349 10.87729 18.88868 
256 17.51824 11.14360 73.69207 11.45619 5.977564 48.47813 
257 95.66314 32.00679 15.95278 41.26683 26.10781 5.774326 
258 84.00393 67.45375 100.0000 60.99530 51.54591 101.2875 
259 59.33970 10.21626 10.15752 14.24424 8.352008 2.683713 
260 0.00000 19.00537 80.16252 12.90570 7.465840 58.45240 
261 10.86525 45.57484 69.21396 15.48177 16.77732 44.21393 
262 85.07359 53.22688 41.13808 40.51111 33.96129 18.49044 
263 25.97054 33.39118 91.50892 21.07871 14.45300 79.14092 
264 77.56904 37.69071 74.02999 37.22707 24.79089 51.23582 
265 57.60045 62.20422 26.69534 26.13787 31.96347 11.08030 
266 67.83551 68.50714 53.78503 37.65828 41.82088 30.44296 
267 81.24106 100.0000 19.48138 62.49036 85.18497 16.96393 
268 14.28443 75.77851 11.58868 20.89378 39.32883 8.537647 
269 100.0000 24.29567 60.38671 49.30701 27.76695 33.89202 
270 81.42213 32.06719 10.46710 29.81271 20.24197 4.205146 
271 22.12370 43.40548 35.02574 10.03018 13.75006 12.41406 
272 59.69923 57.52960 73.27810 33.01340 31.74361 51.72801 
273 22.70458 71.42960 27.04639 20.37570 35.49100 12.20782 
274 18.54152 79.55627 70.82067 31.50332 47.11187 51.36996 
275 72.35801 90.34475 70.54669 56.95914 70.64484 54.20161 
276 12.45226 93.63825 40.50212 34.51588 63.25828 24.03320 
277 44.05969 71.57739 91.72178 39.01677 43.64001 84.23412 
278 35.78694 34.06372 68.75484 16.35278 13.01778 42.84128 
279 78.52140 85.54559 42.66620 52.22465 63.99030 24.73262 
280 47.23345 89.13320 88.90096 49.69150 65.00182 82.54162 
281 34.91379 52.16305 90.75106 27.72720 25.44984 79.48509 
282 57.68780 39.84623 38.36848 19.77293 17.35292 14.57183 
283 34.42267 58.57976 55.42846 20.44926 26.35493 29.95744 
284 71.43420 11.88295 33.24695 22.21852 12.44703 10.55771 
285 86.11744 67.55196 17.95797 45.24095 45.50410 9.799055 
286 0.00000 0.00000 0.00000 1.000000 1.000000 1.000000 
287 49.58630 78.34126 29.41906 31.23856 46.71668 14.82742 
288 10.57640 28.29990 9.917031 3.928472 5.910267 2.720613 
289 18.71506 100.0000 22.23568 38.32298 72.70560 16.67029 
290 44.25342 54.82511 64.19694 23.58734 25.61985 39.20470 
291 31.02486 65.37836 77.36029 27.84038 33.90975 58.41016 
292 66.02985 87.15597 96.01717 59.28916 67.64852 96.22007 
293 72.93496 89.87953 85.36622 61.32735 71.91027 76.98245 
294 44.08788 34.71633 24.18064 12.01899 11.77444 6.964474 
295 8.236086 38.74846 92.61738 20.72123 15.96113 81.56837 
296 84.38400 20.82517 73.17535 38.90124 21.39740 49.27543 
297 27.24729 42.73935 20.72236 9.509223 13.34749 6.251928 
298 94.39913 78.51571 14.73713 57.65823 60.59636 11.30068 
299 20.76596 17.47401 53.97432 7.879482 5.379001 25.15744 
300 8.441393 40.86291 37.21319 8.278829 11.82063 13.40176 
301 52.23197 5.210328 64.96503 17.53680 8.958652 37.23060 
302 42.25998 9.509285 11.65648 7.651413 4.890576 2.598844 
303 91.35274 73.88438 90.19729 66.28641 59.57793 83.00813 
304 68.98480 91.16676 27.41396 48.50123 67.96405 17.14693 
305 7.625573 92.22799 9.782483 30.91274 60.13262 11.74660 
306 88.98087 45.77165 51.75312 42.72014 31.33328 26.26555 
307 45.25431 42.65336 88.14393 26.86613 20.78286 73.83502 
308 32.63352 9.987912 73.09968 13.72258 7.065562 47.72819 
309 78.83987 72.00301 45.25117 44.83510 48.31107 24.00303 
310 67.76589 28.35578 52.75205 24.62959 16.12094 25.19781 
311 90.23936 33.94228 88.21875 50.13276 29.73221 74.47211 
312 9.709864 12.55134 26.74378 2.941635 2.640129 6.661364 
313 38.93606 20.60081 20.97173 8.012182 6.380143 5.062078 
314 25.41371 67.60404 91.02305 32.26180 37.23543 82.03206 
315 64.71317 66.01225 40.72193 32.75694 37.75409 19.34985 
316 7.532012 19.00113 46.87898 5.663864 4.600075 18.90215 
317 83.49234 56.92535 8.508312 38.33035 35.14545 6.361519 
318 100.0000 100.0000 100.0000 95.10649 100.0000 108.8440 
319 91.46856 52.40243 27.70484 43.85385 35.41756 11.23141 
320 28.07443 60.33464 15.08926 15.38681 25.32110 6.793166 
321 92.30747 8.651378 69.50181 43.21123 22.27611 44.19438 
322 32.73147 8.488914 53.46405 9.273421 5.165894 24.55832 
323 9.323838 57.48924 76.45073 21.38307 25.62160 55.77866 
324 55.68697 87.96194 14.24046 38.83669 59.75907 12.02725 
325 89.14724 38.00229 31.71045 38.15450 26.25592 11.60047 
326 53.37411 91.19405 68.29122 47.36961 66.65920 50.96034 
327 91.06343 93.24231 11.96544 64.45897 78.51881 13.87173 
328 26.16998 66.99181 48.06177 21.17252 32.34598 24.40197 
329 100.0000 100.0000 100.0000 95.10649 100.0000 108.8440 
330 58.94487 48.73295 25.54512 21.62741 22.16630 8.972940 
331 70.96195 24.59878 72.38157 30.22629 17.66116 47.89707 
332 8.159248 5.226375 90.97985 15.86974 7.216549 77.01960 
333 31.57739 83.41652 72.44893 36.44928 53.13478 54.51068 
334 74.08006 9.939755 11.49338 22.32910 12.49327 3.266184 
335 20.32391 88.65256 8.274786 29.47196 55.65234 10.75738 
336 90.43520 55.19084 64.82961 49.64759 39.24058 41.22086 
337 26.63621 84.83512 36.52824 29.71342 51.78412 19.57990 
338 65.89663 11.53552 84.50323 29.64657 15.01913 66.18693 
339 85.15161 32.52585 42.98588 35.19503 22.84973 17.91660 
340 5.604994 47.13313 54.07454 12.39035 16.25111 27.11435 
341 89.45123 10.15941 8.879525 33.22186 18.13614 3.394997 
342 81.44901 82.80231 59.15655 55.28657 62.63373 38.96871 
343 32.10934 92.29722 54.64356 38.58854 63.64816 35.43210 
344 57.29687 76.12281 66.77879 39.09104 48.19007 45.90499 
345 46.45518 12.11368 88.79257 22.59006 11.26897 73.39942 
346 67.71902 22.07235 19.59107 19.97604 12.81658 5.265079 
347 14.56643 38.19751 17.54406 6.493781 10.11510 4.902512 
348 86.43674 82.66144 3.491545 53.40502 62.16521 10.29978 
349 89.10888 20.12649 86.23348 46.39748 24.68956 70.16357 
350 90.42376 10.37157 52.17073 38.06334 20.18233 24.73855 
351 94.40813 89.01901 40.96103 66.52036 74.85599 24.89442 
352 90.30724 33.66444 67.37865 44.03652 27.21062 42.35220 
353 8.855502 62.37230 10.44851 13.81577 25.81587 6.120787 
354 65.25117 57.72793 16.60801 27.43277 29.95863 7.399653 
355 10.01260 25.85801 64.27183 9.960208 7.711003 36.55490 
356 70.63825 54.68019 42.74262 31.60081 30.12078 19.33544 
357 11.48290 6.845164 42.92902 4.473121 2.776756 15.61922 
358 31.77700 51.84357 42.55737 15.26621 20.20699 18.15044 
359 27.23620 53.67867 69.92341 20.28843 23.14116 46.12817 
360 91.09453 66.36643 33.78138 49.80080 46.88066 16.03464 
361 58.53566 44.11281 87.68942 32.37807 24.23709 73.39445 
362 89.22737 67.59759 77.28203 57.19217 50.59977 59.96705 
363 26.67403 21.54725 66.88362 11.94730 7.811197 39.67201 
364 84.98109 89.45808 27.85299 57.87040 71.00593 17.42556 
365 61.14243 4.532443 94.92438 30.55902 14.58973 85.30099 
366 13.81717 90.47918 64.28769 36.53801 60.43177 45.35068 
367 14.78916 86.30947 85.38183 39.63706 57.11714 75.29633 
368 56.71808 41.77005 57.07443 22.75372 19.27753 30.12736 
369 31.07564 10.81101 31.74247 6.081889 4.045625 9.018316 
370 43.30729 34.97329 55.92812 15.85207 13.36481 28.18871 
371 75.14887 68.90663 87.33346 50.89218 47.93376 76.35749 
372 88.72987 92.38934 71.56063 70.12440 79.57115 56.61058 
373 69.66089 93.07962 10.25983 49.36633 70.56598 12.85816 
374 9.486283 28.34653 27.80260 4.812781 6.268141 7.702325 
375 40.85120 80.05496 57.19769 33.20909 48.79161 35.40038 
376 63.10069 79.03046 34.29988 38.05682 50.77918 17.68542 
377 61.15612 15.61991 64.87127 22.07204 12.18924 37.50187 
378 41.87180 87.99254 10.65325 33.66663 57.13839 11.15270 
379 55.19708 74.93063 45.56679 33.42788 44.75700 24.16032 
380 40.23449 53.00583 77.46926 25.13349 25.04659 57.00764 
381 74.64906 43.49607 32.21515 29.24447 23.72692 11.83403 
382 49.10874 28.53515 11.78787 11.98268 10.11399 3.401136 
383 0.00000 0.00000 0.00000 1.000000 1.000000 1.000000 
384 75.71818 54.28401 72.26386 40.44734 33.78926 50.30809 
385 11.89347 49.28528 28.53609 10.06874 16.44145 9.705204 
386 72.18705 20.25588 91.59818 36.43324 19.35740 79.44818 
387 92.28257 48.07853 10.77873 42.19053 32.54959 5.976840 
388 61.23752 73.51408 8.011013 32.42371 43.44276 8.213029 
389 15.68844 52.51634 92.53055 25.27919 24.29514 82.76992 
390 21.51744 47.58626 51.49141 13.44044 17.05131 24.81453 
391 64.59811 44.11221 71.37495 30.45669 23.81388 47.68253 
392 26.63672 12.71851 11.26408 4.094125 3.346510 2.423430 
393 10.25351 29.79815 81.93521 15.36984 10.88816 61.84676 
394 72.65697 66.79731 9.461252 35.33313 39.89724 7.562645 
395 9.232047 89.63376 26.15387 29.97880 56.82176 15.45988 
396 51.09340 31.28950 92.55513 27.97565 17.36704 81.33787 
397 66.38800 5.314366 47.79305 20.88091 11.07126 20.08974 
398 90.78211 4.530758 29.32586 35.16059 18.65405 9.161785 
399 49.63661 11.05838 33.48393 11.65704 6.922400 10.17235 
400 44.69839 61.13575 32.85468 21.19711 28.67466 13.53968 
401 97.36832 29.78716 49.44013 45.71739 27.41786 23.31578 
402 79.95806 58.91373 53.96360 40.97374 37.16818 29.54042 
403 91.87106 78.59715 70.65482 63.40285 62.72300 52.47896 
