Epson_XP-960/Navigator/Colour_Documents/Navigator_Colour_Documents_120.ti1
CTI1   

DESCRIPTOR "Argyll Calibration Target chart information 1"
ORIGINATOR "Argyll targen"
CREATED "Thu Jun 18 13:20:15 2020"
APPROX_WHITE_POINT "95.106486 100.000000 108.844025"
COLOR_REP "iRGB"
WHITE_COLOR_PATCHES "16"
BLACK_COLOR_PATCHES "4"
COMP_GREY_STEPS "32"
OFPS_PATCHES "790"

NUMBER_OF_FIELDS 7
BEGIN_DATA_FORMAT
SAMPLE_ID RGB_R RGB_G RGB_B XYZ_X XYZ_Y XYZ_Z 
END_DATA_FORMAT

NUMBER_OF_SETS 840
BEGIN_DATA
1 100.0000 100.0000 100.0000 95.10649 100.0000 108.8440 
2 61.69788 61.77608 45.08070 29.91769 33.40419 21.78111 
3 0.00000 14.52024 100.0000 19.52693 9.458780 95.34757 
4 0.00000 0.00000 0.00000 1.000000 1.000000 1.000000 
5 62.17687 32.38793 16.40939 18.51054 14.48012 4.834586 
6 34.05791 39.25775 49.15542 13.08644 13.51675 22.10854 
7 30.21302 48.54926 100.0000 29.01614 23.93231 97.64160 
8 62.37511 92.85492 81.74926 56.41633 72.66835 71.30606 
9 85.06311 83.82772 24.91347 53.95580 63.44465 14.99877 
10 81.85718 12.23593 100.0000 45.32070 22.51255 96.50882 
11 75.64291 14.46884 55.87277 28.26719 15.46314 27.88457 
12 32.25806 32.25806 32.25806 8.991660 9.407224 10.15827 
13 90.13877 48.58926 20.14072 40.98596 32.12049 8.044016 
14 0.00000 90.83640 88.43443 42.99271 63.33720 81.72501 
15 100.0000 0.00000 72.75725 50.55596 25.54193 48.87285 
16 0.00000 15.76842 68.90750 9.489096 5.608176 41.97180 
17 82.32626 35.94008 17.32974 31.50770 22.25617 5.874715 
18 38.37742 87.03334 18.26458 32.31684 55.44634 12.47925 
19 91.79657 63.40975 22.42336 48.09553 44.10367 10.69650 
20 6.263540 23.32475 40.65385 5.241204 5.236915 14.47664 
21 19.17182 88.66944 60.74135 35.05272 57.88612 40.84915 
22 93.54839 93.54839 93.54839 81.88117 86.08697 93.68810 
23 90.32258 90.32258 90.32258 75.70274 79.58726 86.60775 
24 87.09677 87.09677 87.09677 69.80876 73.38680 79.85337 
25 83.87097 83.87097 83.87097 64.19536 67.48150 73.42053 
26 80.64516 80.64516 80.64516 58.85858 61.86721 67.30470 
27 77.41935 77.41935 77.41935 53.79440 56.53969 61.50125 
28 74.19355 74.19355 74.19355 48.99867 51.49459 56.00546 
29 70.96774 70.96774 70.96774 44.46718 46.72747 50.81246 
30 67.74194 67.74194 67.74194 40.19559 42.23375 45.91731 
31 64.51613 64.51613 64.51613 36.17945 38.00878 41.31490 
32 61.29032 61.29032 61.29032 32.41421 34.04774 37.00002 
33 58.06452 58.06452 58.06452 28.89517 30.34571 32.96727 
34 54.83871 54.83871 54.83871 25.61751 26.89761 29.21114 
35 51.61290 51.61290 51.61290 22.57624 23.69820 25.72591 
36 48.38710 48.38710 48.38710 19.76623 20.74207 22.50570 
37 45.16129 45.16129 45.16129 17.18217 18.02363 19.54442 
38 41.93548 41.93548 41.93548 14.81852 15.53708 16.83573 
39 38.70968 38.70968 38.70968 12.66958 13.27640 14.37309 
40 35.48387 35.48387 35.48387 10.72937 11.23530 12.14965 
41 100.0000 100.0000 100.0000 95.10649 100.0000 108.8440 
42 29.03226 29.03226 29.03226 7.449909 7.785303 8.391458 
43 25.80645 25.80645 25.80645 6.097238 6.362293 6.841326 
44 22.58065 22.58065 22.58065 4.926365 5.130535 5.499530 
45 19.35484 19.35484 19.35484 3.929543 4.081879 4.357194 
46 16.12903 16.12903 16.12903 3.098470 3.207589 3.404801 
47 12.90323 12.90323 12.90323 2.424161 2.498217 2.632058 
48 9.677419 9.677419 9.677419 1.896786 1.943418 2.027697 
49 6.451613 6.451613 6.451613 1.505402 1.531683 1.579180 
50 3.225806 3.225806 3.225806 1.234961 1.247179 1.269260 
51 100.0000 100.0000 0.00000 77.23538 92.85269 14.71507 
52 100.0000 0.00000 100.0000 59.70128 29.19948 97.04219 
53 0.00000 100.0000 0.00000 36.40521 71.80052 12.80184 
54 0.00000 0.00000 100.0000 18.87111 8.147314 95.12896 
55 100.0000 0.00000 0.00000 41.83017 22.05217 2.913230 
56 0.00000 100.0000 100.0000 54.27632 78.94783 106.9308 
57 0.00000 70.13241 100.0000 34.79908 39.99880 100.4383 
58 100.0000 0.00000 58.33760 47.18233 24.19270 31.10362 
59 100.0000 40.76502 0.00000 46.72647 31.84340 4.545344 
60 0.00000 100.0000 40.21996 38.80736 72.76122 25.45419 
61 52.76444 100.0000 0.00000 46.22594 76.86412 13.26202 
62 66.54533 0.00000 100.0000 35.21778 16.57571 95.89494 
63 0.00000 40.76052 0.00000 5.895154 10.78894 2.631732 
64 0.00000 0.00000 56.17811 5.927879 2.970840 26.95565 
65 100.0000 31.28503 100.0000 62.52532 34.84679 97.98355 
66 34.65624 0.00000 0.00000 5.019597 3.072517 1.188351 
67 100.0000 100.0000 36.38167 79.18165 93.63107 24.96627 
68 52.59430 100.0000 100.0000 64.02836 83.97602 107.3878 
69 100.0000 49.00959 100.0000 66.95893 43.71276 99.46143 
70 100.0000 0.00000 14.29552 42.15236 22.18102 4.610216 
71 0.00000 28.49744 100.0000 21.20850 12.82145 95.90810 
72 100.0000 69.24771 0.00000 57.31463 53.01677 8.074762 
73 43.64410 43.53637 100.0000 31.02796 22.77094 97.31147 
74 33.47606 0.00000 100.0000 22.61299 10.07664 95.30430 
75 100.0000 56.58271 29.92060 53.04926 42.40453 13.07596 
76 50.86541 0.00000 55.50694 14.87013 7.596264 26.70794 
77 0.00000 71.83328 48.50004 21.38293 36.03019 25.46573 
78 49.78201 43.76879 0.00000 15.35140 16.85051 3.303748 
79 43.24889 100.0000 44.29235 45.75490 76.28026 28.62953 
80 0.00000 68.54617 0.00000 16.13797 31.27170 6.046031 
81 100.0000 100.0000 61.90741 83.33417 95.29182 46.83804 
82 68.79984 0.00000 0.00000 18.60136 10.07532 1.824769 
83 0.00000 100.0000 79.36675 47.00545 76.03994 68.63439 
84 0.00000 56.82360 50.49187 14.91687 22.57945 24.91532 
85 100.0000 26.69046 58.01858 49.16861 28.26704 31.45012 
86 0.00000 0.00000 27.13735 2.069698 1.427812 6.634210 
87 18.46823 100.0000 0.00000 37.57014 72.40116 12.85642 
88 100.0000 0.00000 44.32677 44.78312 23.23316 18.46673 
89 100.0000 67.61611 100.0000 74.38691 58.56664 101.9374 
90 74.83972 0.00000 25.92663 23.20976 12.33843 7.140487 
91 100.0000 58.64104 59.57135 58.15871 45.73985 36.00387 
92 17.90308 100.0000 100.0000 55.37641 79.51504 106.9823 
93 68.34772 100.0000 100.0000 71.62171 87.89117 107.7436 
94 59.02830 57.62629 0.00000 23.87009 28.11102 5.028691 
95 0.00000 15.43908 84.40356 13.90375 7.329162 65.36175 
96 85.58655 100.0000 0.00000 65.10413 86.59777 14.14662 
97 0.00000 43.57800 47.27024 10.03050 13.63671 20.73103 
98 56.97878 49.46507 100.0000 37.88786 28.94090 98.14115 
99 34.50377 0.00000 35.61565 6.844992 3.798335 10.99360 
100 27.46646 88.22543 0.00000 30.15485 55.58606 10.00117 
101 29.60651 62.18327 100.0000 33.98413 34.04823 99.33262 
102 0.00000 100.0000 21.77784 37.10070 72.07867 16.46504 
103 0.00000 0.00000 71.09819 9.288387 4.314831 44.65579 
104 63.22679 100.0000 13.05387 51.27848 79.43733 14.93849 
105 73.01149 100.0000 72.70999 65.20998 85.64453 59.63632 
106 26.23912 100.0000 83.49511 50.57104 77.73032 75.48325 
107 73.91078 100.0000 40.31273 59.46745 83.41228 26.48344 
108 100.0000 30.71068 16.10781 44.94712 27.64916 5.913728 
109 0.00000 43.56103 82.99407 18.35708 16.95932 64.61107 
110 0.00000 45.74993 25.06911 8.173456 13.88244 7.901445 
111 27.96703 68.21426 0.00000 18.57134 32.28542 6.113547 
112 100.0000 85.35397 0.00000 66.56373 71.51238 11.15782 
113 0.00000 26.38785 0.00000 3.004296 5.008031 1.668104 
114 72.19123 29.53901 0.00000 23.10448 16.12667 2.755685 
115 0.00000 79.02731 61.06528 27.71709 44.95994 39.10146 
116 82.97123 25.55512 100.0000 47.51294 25.70671 97.00992 
117 73.78516 0.00000 72.07858 30.11535 15.02357 46.97271 
118 16.13666 0.00000 0.00000 1.911238 1.469837 1.042699 
119 0.00000 83.78167 100.0000 42.58980 55.57807 103.0353 
120 57.27310 100.0000 71.90354 56.64871 81.25507 58.11764 
121 100.0000 74.11029 56.38038 64.80998 60.05963 35.07803 
122 58.52805 86.03968 100.0000 56.37089 64.85826 104.1008 
123 100.0000 100.0000 88.24906 90.69603 98.23610 85.61371 
124 32.67498 40.95841 0.00000 9.505517 12.72527 2.815348 
125 21.41219 100.0000 61.63225 43.98277 75.00900 44.68308 
126 35.32163 100.0000 30.71989 41.95998 74.50571 20.23196 
127 36.46036 0.00000 86.72977 18.40976 8.479457 69.38162 
128 65.79041 0.00000 55.35062 21.70929 11.12597 26.87459 
129 87.32888 75.69039 100.0000 67.78827 61.39384 102.8307 
130 65.61051 18.41065 100.0000 35.71768 18.32402 96.20608 
131 0.00000 83.13342 0.00000 24.30748 47.60843 8.769224 
132 100.0000 26.70894 0.00000 43.88325 26.15774 3.597595 
133 45.68982 0.00000 12.33528 8.448921 4.811673 2.658552 
134 30.08738 31.82704 100.0000 24.80411 15.54735 96.24490 
135 100.0000 30.26375 72.09077 53.01818 30.74932 48.81888 
136 0.00000 76.10799 17.94101 20.60038 39.42197 9.918399 
137 72.40030 67.05260 0.00000 35.13375 39.99369 6.729157 
138 100.0000 100.0000 12.02567 77.47591 92.94888 15.98195 
139 0.00000 100.0000 61.07573 42.32497 74.16805 43.98180 
140 100.0000 100.0000 100.0000 95.10649 100.0000 108.8440 
141 46.47542 69.25229 0.00000 23.95278 35.81867 6.512136 
142 85.61710 0.00000 100.0000 47.59313 22.95648 96.47482 
143 0.00000 22.41934 29.20490 3.696519 4.409183 8.014771 
144 0.00000 55.66850 100.0000 28.44146 27.28535 98.31910 
145 14.54213 0.00000 70.50684 9.893943 4.644725 43.88681 
146 45.82284 58.68281 62.89395 25.29978 28.74028 38.18282 
147 67.84374 21.71600 25.51306 20.37938 12.91641 7.240855 
148 33.58323 15.85323 64.21271 12.14359 7.117118 36.25467 
149 100.0000 86.94817 17.39399 68.07489 73.80357 13.91503 
150 33.57187 87.40539 44.74543 33.87198 56.32864 25.74381 
151 56.58908 23.88043 74.62475 23.32018 13.88412 50.72088 
152 84.09204 100.0000 100.0000 81.85807 93.16908 108.2232 
153 80.80049 61.22082 32.46194 39.53868 38.18957 14.20874 
154 100.0000 71.80594 86.61083 71.52015 60.78180 76.47045 
155 100.0000 13.71759 34.38941 44.15608 23.93343 12.23099 
156 100.0000 27.37538 33.21705 45.59848 27.00920 12.12159 
157 12.93354 14.44186 0.00000 2.270028 2.619030 1.245630 
158 100.0000 86.78522 33.26125 69.12541 74.04941 19.98577 
159 16.40134 0.00000 100.0000 19.80933 8.631064 95.17292 
160 62.91423 0.00000 28.86029 16.64892 8.928648 8.051182 
161 84.01751 0.00000 0.00000 28.52672 15.19287 2.289854 
162 49.74805 12.85189 0.00000 10.17665 6.521394 1.582472 
163 87.48964 62.17456 100.0000 61.22802 48.08968 100.6081 
164 37.48269 100.0000 72.54915 49.80779 77.70808 58.69043 
165 84.19672 42.44851 0.00000 33.99401 25.92935 4.074356 
166 49.93492 0.00000 100.0000 27.58587 12.64067 95.53732 
167 30.53352 0.00000 23.54327 4.907808 2.921368 5.403434 
168 0.00000 0.00000 85.75631 13.61759 6.046241 67.45817 
169 0.00000 77.34016 85.29306 33.28149 45.61358 73.25711 
170 35.49848 74.53387 100.0000 41.33995 46.80846 101.4083 
171 66.30955 88.31272 21.62799 44.61587 63.05128 14.27879 
172 0.00000 11.89367 35.21743 3.286891 2.663232 10.73653 
173 43.21152 0.00000 69.14487 15.18001 7.410199 42.33091 
174 100.0000 87.21161 68.53075 75.43207 77.02869 51.79417 
175 60.62198 68.07358 100.0000 47.08293 44.81734 100.7215 
176 36.07410 100.0000 0.00000 40.77389 74.05302 13.00654 
177 0.00000 0.00000 41.61817 3.582247 2.032736 14.60096 
178 9.068247 49.78766 77.83741 19.00899 20.25566 56.96770 
179 86.05086 100.0000 31.01838 66.85727 87.33968 21.54123 
180 61.36078 88.91546 0.00000 41.78897 62.28713 10.68192 
181 44.61510 75.09639 33.70725 28.05510 42.29266 16.25476 
182 64.17837 28.15925 67.01518 25.63657 16.24884 40.74541 
183 18.01131 86.24255 72.48294 36.08301 55.66314 55.06549 
184 100.0000 85.38398 100.0000 84.45445 78.69891 105.2933 
185 30.45851 100.0000 13.59358 39.78455 73.50874 14.50248 
186 70.36589 100.0000 57.24831 60.04571 83.39562 40.71863 
187 70.02747 53.31633 100.0000 45.88929 35.00578 98.89043 
188 100.0000 46.46646 73.72724 57.28916 38.58759 52.40906 
189 100.0000 100.0000 100.0000 95.10649 100.0000 108.8440 
190 46.08875 26.00128 100.0000 28.15101 15.82086 96.12142 
191 18.67327 65.72336 43.39247 18.80051 30.31716 20.51504 
192 0.00000 67.99132 34.50859 17.61102 31.42759 15.14089 
193 17.58367 44.63846 53.12250 12.36498 15.16859 26.00523 
194 80.20180 33.71236 48.86485 32.72645 21.82313 22.43180 
195 0.00000 60.27291 62.91497 18.71119 26.30701 38.08456 
196 38.74464 48.74404 68.07985 20.77186 20.96963 43.26921 
197 0.00000 41.82929 60.28856 11.92415 13.64142 33.02617 
198 73.37455 42.27578 20.02426 27.19713 22.28799 6.838138 
199 100.0000 42.01379 30.86070 48.43598 33.04414 11.95496 
200 13.97323 0.00000 27.29051 2.789449 1.797520 6.731037 
201 44.56826 78.89145 91.13900 43.02287 51.74254 84.48396 
202 20.24633 56.10929 21.57726 12.80321 21.45715 7.909304 
203 0.00000 29.17075 47.38206 6.856360 7.261705 19.75813 
204 57.76237 7.397614 43.64328 16.05027 8.768357 16.68312 
205 10.60826 100.0000 50.83723 40.81915 73.61773 33.70748 
206 63.70179 82.97008 45.39761 42.15287 56.29735 25.79815 
207 34.11815 0.00000 48.53819 8.479333 4.441381 20.07963 
208 73.70873 53.02541 0.00000 30.13023 28.79450 4.830912 
209 100.0000 17.73052 83.97791 54.80279 28.73961 66.61774 
210 16.68397 45.07344 0.00000 8.030368 13.62283 3.066297 
211 80.10787 34.40722 80.18717 40.01081 24.95564 60.44011 
212 0.00000 30.48298 15.36010 4.043864 6.502402 3.817164 
213 100.0000 74.61372 12.95465 60.39009 58.73124 10.44324 
214 23.22479 67.19404 91.96417 32.05840 36.79912 83.74170 
215 0.00000 84.77845 34.03625 27.05407 50.38943 18.04682 
216 88.63125 37.49015 100.0000 54.03177 32.36904 97.95261 
217 15.64099 28.18038 100.0000 22.01847 13.16193 95.93116 
218 51.82652 0.00000 0.00000 10.44558 5.870172 1.442603 
219 54.82315 100.0000 84.51251 59.28823 82.18693 77.60695 
220 49.09640 0.00000 25.51476 10.34821 5.710491 6.378880 
221 85.48188 0.00000 32.83795 31.19401 16.38605 10.63245 
222 34.09220 100.0000 100.0000 58.16174 80.95117 107.1129 
223 40.19152 9.117469 8.292637 6.923651 4.496130 2.072516 
224 38.13764 73.83994 54.19017 28.32914 41.08022 31.17850 
225 14.85103 42.49583 100.0000 25.00524 19.24639 96.94833 
226 37.82450 49.37787 9.409617 13.36228 18.30185 4.544141 
227 16.08511 72.93566 100.0000 37.15890 43.37313 100.9654 
228 0.00000 16.46701 53.61875 6.270723 4.418866 24.71856 
229 12.25995 100.0000 34.35049 38.69991 72.78387 21.92667 
230 100.0000 86.80954 50.23708 71.38992 74.98106 31.83303 
231 86.38761 26.93199 0.00000 32.39576 20.28565 3.069134 
232 11.54953 73.15611 17.10882 19.45684 36.43606 9.191682 
233 14.87174 26.82939 54.66128 8.502140 7.405625 26.17745 
234 100.0000 74.15724 70.88032 68.10065 61.41649 52.28450 
235 100.0000 15.66554 17.12883 43.02383 23.72859 5.502477 
236 0.00000 14.08542 0.00000 1.622158 2.244141 1.207388 
237 100.0000 15.55536 100.0000 60.44145 30.67962 97.28892 
238 27.56212 26.81197 0.00000 5.589848 6.436988 1.807758 
239 46.69911 100.0000 15.85123 44.33493 75.84442 15.19015 
240 47.61777 35.01401 27.69598 13.54064 12.62135 8.423876 
241 18.41860 26.99480 69.22743 12.06707 8.915075 42.89384 
242 0.00000 0.00000 12.95123 1.272149 1.108842 2.433436 
243 100.0000 62.94500 43.53931 57.20611 48.25288 22.06125 
244 68.09562 100.0000 27.02567 54.66977 81.09507 19.19602 
245 30.99698 52.08802 75.77297 22.03111 23.02783 54.23546 
246 46.95965 18.45679 86.17258 22.39924 12.05553 68.88211 
247 100.0000 54.72132 0.00000 51.04870 40.48666 5.986101 
248 44.84165 41.65326 72.84914 21.79049 18.31354 49.12159 
249 46.73501 20.10236 47.84260 13.21721 8.653262 20.06726 
250 0.00000 35.36311 33.75791 6.300968 8.934627 10.98847 
251 25.13246 11.71669 0.00000 3.555603 2.995332 1.250558 
252 19.90597 70.81325 70.43270 26.73061 37.48087 49.23861 
253 71.39256 73.26469 60.04674 43.37143 48.24430 37.78386 
254 73.54688 84.69677 0.00000 45.72836 60.13555 10.05912 
255 46.88427 87.27182 0.00000 34.61295 56.92568 10.02495 
256 0.00000 30.27010 67.76188 11.08887 9.259368 41.11081 
257 41.33963 100.0000 85.32806 54.69747 79.78902 78.78650 
258 0.00000 48.39217 11.79621 8.294959 15.21507 4.581432 
259 81.12993 59.37513 55.81541 42.32392 38.10228 31.45701 
260 100.0000 43.42861 59.60853 53.04195 35.49546 34.33619 
261 100.0000 100.0000 100.0000 95.10649 100.0000 108.8440 
262 83.71994 88.20804 100.0000 72.81820 75.49871 105.2884 
263 55.30789 58.96044 81.38911 33.95127 32.80009 64.20684 
264 70.35558 0.00000 86.55912 32.38451 15.69152 69.73680 
265 82.11549 13.87309 0.00000 27.74993 15.69186 2.427087 
266 65.30867 0.00000 14.28251 17.00300 9.213991 3.429110 
267 59.88935 100.0000 45.05606 52.41661 79.70237 29.51428 
268 100.0000 100.0000 75.22238 86.63545 96.61212 64.22620 
269 29.08040 23.99012 91.52447 20.08633 11.61604 78.67505 
270 57.70251 88.05026 72.90094 48.23441 63.71701 56.56587 
271 57.13619 55.57992 16.80173 22.64907 26.26693 6.985586 
272 100.0000 100.0000 48.56283 80.82710 94.28915 33.63303 
273 50.97425 62.09342 27.18698 23.34841 30.44968 11.13605 
274 90.15132 68.40190 72.73109 57.05864 51.25715 53.45745 
275 45.85178 60.25844 100.0000 37.50926 34.65434 99.26395 
276 17.08709 0.00000 86.23531 14.78740 6.630945 68.34578 
277 87.58764 0.00000 71.18301 39.54586 19.91314 46.18868 
278 45.25040 83.70778 26.05955 32.70914 52.36663 14.41893 
279 14.12528 0.00000 13.46038 2.011518 1.487938 2.563992 
280 53.20901 41.72528 37.13681 18.17684 17.25538 13.88367 
281 85.37310 74.95472 44.03897 50.92498 53.82373 23.83438 
282 100.0000 100.0000 100.0000 95.10649 100.0000 108.8440 
283 10.37984 100.0000 11.91689 37.07589 72.11891 14.07025 
284 0.00000 55.48969 0.00000 10.50335 20.00404 4.167810 
285 69.83135 100.0000 0.00000 54.59875 81.18116 13.65435 
286 92.31920 76.78682 22.14799 55.27518 57.84294 12.87979 
287 21.76954 9.568848 43.61361 5.771981 3.622684 16.20951 
288 100.0000 100.0000 100.0000 95.10649 100.0000 108.8440 
289 0.00000 60.42124 85.40872 24.95563 28.90318 70.66998 
290 79.77222 52.45316 39.58290 36.22673 31.37149 17.18364 
291 100.0000 100.0000 100.0000 95.10649 100.0000 108.8440 
292 31.81799 0.00000 61.51896 10.38594 5.143714 32.83845 
293 56.18797 23.90649 23.25379 14.70246 10.42277 6.234876 
294 25.54129 79.76304 46.60206 27.69055 45.89931 25.49337 
295 41.86286 56.49456 0.00000 16.85694 23.84413 4.574427 
296 64.86673 14.86312 0.00000 17.13056 10.33078 1.951544 
297 100.0000 100.0000 100.0000 95.10649 100.0000 108.8440 
298 91.07247 80.35738 56.02397 60.51561 63.16748 35.54564 
299 79.04661 21.01001 78.73808 36.69908 20.11163 57.39853 
300 84.09165 0.00000 14.88719 28.92725 15.35938 4.113692 
301 38.81478 54.70174 26.37974 16.31446 22.44995 9.634487 
302 30.42634 79.12102 69.30174 32.76171 47.42201 49.33464 
303 76.28778 56.96223 65.31309 40.09095 35.29662 41.54979 
304 55.80534 0.00000 89.64242 26.04193 12.29864 74.97394 
305 82.53845 0.00000 58.71775 32.87674 16.80780 30.83426 
306 65.51222 31.41438 48.72815 23.25581 16.28334 21.74630 
307 81.68301 11.60157 29.30374 28.53260 15.71837 8.934210 
308 12.89160 87.14699 100.0000 45.40935 60.30073 103.7984 
309 59.53790 74.94812 0.00000 32.25857 44.53071 7.756364 
310 100.0000 0.00000 86.51849 54.70216 27.20015 70.71134 
311 86.39170 100.0000 66.97946 72.97547 89.81667 52.40786 
312 100.0000 100.0000 100.0000 95.10649 100.0000 108.8440 
313 0.00000 41.99865 100.0000 24.08661 18.57687 96.86748 
314 100.0000 13.14241 0.00000 42.38284 23.15735 3.097455 
315 75.14922 31.51025 58.84330 30.74989 19.96131 31.68872 
316 57.27593 27.70245 0.00000 14.95406 11.47222 2.286508 
317 65.04055 41.31511 0.00000 21.57638 19.08502 3.407214 
318 19.20311 80.60361 23.46174 24.79818 45.44618 12.53587 
319 100.0000 45.70637 15.67027 48.45522 34.69487 6.989129 
320 100.0000 60.73685 73.93234 62.45884 48.83602 54.40831 
321 42.88332 29.62970 0.00000 9.815621 9.298100 2.137472 
322 100.0000 34.77602 86.05843 58.05878 34.15868 71.07086 
323 61.57863 0.00000 69.21348 22.57871 11.22301 42.76736 
324 100.0000 0.00000 29.13639 43.06391 22.54559 9.411469 
325 0.00000 53.81793 36.32377 11.82994 19.55356 14.18062 
326 49.45335 68.85089 77.40980 34.84512 39.98037 59.28832 
327 100.0000 100.0000 100.0000 95.10649 100.0000 108.8440 
328 71.25146 83.73004 100.0000 61.58446 65.32294 103.9159 
329 72.35348 36.54990 100.0000 42.45408 26.08461 97.34931 
330 81.90288 100.0000 15.45463 62.76638 85.34970 15.96508 
331 27.25256 85.36746 100.0000 46.07818 58.89596 103.4920 
332 27.85354 78.90533 15.71135 24.68252 43.92897 10.03290 
333 35.80019 100.0000 58.50114 46.09026 76.17128 41.36735 
334 77.99727 8.653975 47.22643 27.95869 14.93225 20.00148 
335 41.88143 25.98135 29.94698 10.22678 8.490924 8.797237 
336 100.0000 100.0000 100.0000 95.10649 100.0000 108.8440 
337 19.04375 40.68903 15.07142 7.463550 11.52983 4.544494 
338 50.27273 13.23911 100.0000 28.27344 13.82566 95.72984 
339 68.04527 58.02030 21.59985 29.33738 31.08127 8.903387 
340 82.85277 47.21462 79.48613 45.00826 32.40005 60.50360 
341 10.55862 90.21459 0.00000 29.47461 57.28003 10.36398 
342 9.610183 35.06103 43.62944 7.810150 9.480102 17.24439 
343 71.07767 92.21748 65.06307 56.18836 72.38626 47.55715 
344 82.95663 49.66374 100.0000 53.08982 36.87464 98.87193 
345 100.0000 71.78719 27.41006 59.69864 56.03830 14.25353 
346 57.57347 33.73130 100.0000 34.04680 20.86352 96.78428 
347 28.70335 0.00000 11.11551 3.946521 2.494757 2.242832 
348 100.0000 14.04081 67.50607 49.83489 26.24344 42.02211 
349 100.0000 86.38934 85.54246 79.79235 77.89384 77.47011 
350 33.14234 27.41105 53.21725 11.20666 8.964928 24.95756 
351 66.11877 24.84227 36.60294 20.86539 13.65493 12.72981 
352 36.71020 49.69482 36.92895 15.01724 19.09413 14.28082 
353 100.0000 53.55843 86.98214 63.65543 44.85429 74.46648 
354 81.60886 56.86685 75.68792 46.33972 38.15546 55.74951 
355 72.27285 51.18127 75.26095 38.02286 30.83058 54.14531 
356 32.06564 15.47292 100.0000 23.02944 11.37957 95.53387 
357 26.30688 32.78417 81.39674 17.62453 12.88692 61.23532 
358 18.84242 0.00000 39.57668 4.530890 2.551981 13.28597 
359 62.04607 37.59633 60.44640 24.91886 18.79231 33.50999 
360 48.62295 78.91533 55.91492 34.83899 48.65425 33.98739 
361 24.85448 78.58539 80.40606 34.50757 47.49725 65.43043 
362 48.55520 13.52259 73.51600 18.71355 9.961187 48.61409 
363 69.88853 100.0000 86.87937 67.62539 86.39483 82.09392 
364 51.24404 76.08338 21.29478 29.98634 44.21972 11.30910 
365 13.80271 35.27293 64.25342 11.92894 11.23486 37.10942 
366 16.82671 31.12018 20.32055 5.385944 7.337174 5.188262 
367 51.09879 0.00000 40.97971 12.65942 6.722578 14.59208 
368 74.89689 68.73263 100.0000 55.36984 49.56871 101.2022 
369 0.00000 14.29581 15.84545 2.024399 2.430865 3.246303 
370 63.65195 46.25878 16.94182 22.66002 21.63004 6.124003 
371 60.73196 38.50331 71.87898 27.19185 19.96538 47.80447 
372 16.42092 20.11068 78.94917 13.60006 8.042649 56.61434 
373 28.51789 32.67447 19.11654 7.329907 8.782100 5.018722 
374 10.66123 49.89731 19.97881 9.587394 16.55641 6.645981 
375 0.00000 0.00000 0.00000 1.000000 1.000000 1.000000 
376 80.84991 13.77083 15.64758 27.22264 15.36497 4.371075 
377 0.00000 88.82921 50.81034 32.02582 56.70692 30.88253 
378 21.97957 62.66653 33.32148 16.65131 27.30267 13.75763 
379 13.77834 24.46418 88.19027 16.85745 10.18353 72.39978 
380 85.40566 88.20986 0.00000 56.20304 69.00081 11.21869 
381 63.22364 75.79017 93.25805 49.78642 52.49773 88.32943 
382 85.96358 73.73758 0.00000 47.79617 51.56235 8.295337 
383 16.49461 13.47086 100.0000 20.39527 9.788518 95.36548 
384 14.15633 59.28249 0.00000 12.70771 23.33804 4.695269 
385 15.98503 76.19394 0.00000 21.06134 39.78733 7.430490 
386 81.09852 9.530595 72.11449 35.30584 18.18789 47.35992 
387 79.01002 23.72925 35.42145 28.44207 17.35004 12.36171 
388 51.36273 100.0000 59.11063 51.17746 78.77993 42.25252 
389 26.04380 58.06534 49.99860 17.57211 24.67830 24.75020 
390 58.06915 15.21383 84.42222 25.99615 13.53557 65.95467 
391 0.00000 29.97651 83.64088 15.51590 10.94716 64.68356 
392 25.21817 58.31397 84.18408 25.80924 28.11462 68.37362 
393 15.43640 0.00000 54.07782 6.376756 3.247760 24.92419 
394 35.84333 78.49492 0.00000 25.79724 44.18995 8.030894 
395 100.0000 15.46146 48.87722 46.20450 24.97310 22.34040 
396 57.20079 52.18810 42.14026 23.67855 24.72706 18.28599 
397 10.76864 76.39708 66.80496 27.95644 42.67776 45.46024 
398 53.60331 100.0000 30.08628 47.88522 77.56737 20.21227 
399 0.00000 69.01791 73.88986 25.40241 35.34883 53.69576 
400 90.70286 79.35566 33.00530 56.30572 60.48937 17.90981 
401 37.39973 15.57165 0.00000 6.452039 4.911629 1.467909 
402 92.25721 66.64744 61.73190 55.28795 49.39863 39.25702 
403 14.30778 57.86959 100.0000 30.02609 29.36007 98.63613 
404 49.86259 65.96093 39.91601 25.95185 34.22158 18.49199 
