Epson_XP-960/Navigator/Colour_Documents/Navigator_Colour_Documents_120.ti3
CTI3   

DESCRIPTOR "Argyll Calibration Target chart information 3"
ORIGINATOR "Argyll chartread"
CREATED "Thu Jun 18 15:55:30 2020"
DEVICE_CLASS "OUTPUT"
COMP_GREY_STEPS "32"
COLOR_REP "iRGB_XYZ"
TARGET_INSTRUMENT "X-Rite ColorMunki"
DEVCALSTD "XRGA"
SPECTRAL_BANDS "106"
SPECTRAL_START_NM "380.000000"
SPECTRAL_END_NM "730.000000"

NUMBER_OF_FIELDS 114
BEGIN_DATA_FORMAT
SAMPLE_ID SAMPLE_LOC RGB_R RGB_G RGB_B XYZ_X XYZ_Y XYZ_Z SPEC_380 SPEC_383 SPEC_387 SPEC_390 SPEC_393 SPEC_397 SPEC_400 SPEC_403 SPEC_407 SPEC_410 SPEC_413 SPEC_417 SPEC_420 SPEC_423 SPEC_427 SPEC_430 SPEC_433 SPEC_437 SPEC_440 SPEC_443 SPEC_447 SPEC_450 SPEC_453 SPEC_457 SPEC_460 SPEC_463 SPEC_467 SPEC_470 SPEC_473 SPEC_477 SPEC_480 SPEC_483 SPEC_487 SPEC_490 SPEC_493 SPEC_497 SPEC_500 SPEC_503 SPEC_507 SPEC_510 SPEC_513 SPEC_517 SPEC_520 SPEC_523 SPEC_527 SPEC_530 SPEC_533 SPEC_537 SPEC_540 SPEC_543 SPEC_547 SPEC_550 SPEC_553 SPEC_557 SPEC_560 SPEC_563 SPEC_567 SPEC_570 SPEC_573 SPEC_577 SPEC_580 SPEC_583 SPEC_587 SPEC_590 SPEC_593 SPEC_597 SPEC_600 SPEC_603 SPEC_607 SPEC_610 SPEC_613 SPEC_617 SPEC_620 SPEC_623 SPEC_627 SPEC_630 SPEC_633 SPEC_637 SPEC_640 SPEC_643 SPEC_647 SPEC_650 SPEC_653 SPEC_657 SPEC_660 SPEC_663 SPEC_667 SPEC_670 SPEC_673 SPEC_677 SPEC_680 SPEC_683 SPEC_687 SPEC_690 SPEC_693 SPEC_697 SPEC_700 SPEC_703 SPEC_707 SPEC_710 SPEC_713 SPEC_717 SPEC_720 SPEC_723 SPEC_727 SPEC_730 
END_DATA_FORMAT

NUMBER_OF_SETS 840
BEGIN_DATA
1 "AC12" 100.0000 100.0000 100.0000 75.15858 77.46094 69.59987 73.72028 73.72028 73.72028 73.72028 73.72028 73.72028 73.72028 73.74515 73.75070 73.70173 73.56303 73.51799 73.75024 76.95805 79.46603 81.20701 82.15942 82.61622 82.81943 83.04267 83.41048 83.98210 84.73616 85.51482 86.22695 86.99897 87.87233 88.66609 89.40861 89.81901 89.44993 88.53298 87.27094 86.08419 84.89869 83.88842 82.94391 82.11902 81.40623 80.72193 80.08010 79.42120 78.70679 78.02888 77.44267 77.01960 76.73270 76.56380 76.46657 76.39371 76.27338 76.07759 75.77627 75.40035 75.05409 74.84273 74.75920 74.80838 74.92375 75.11900 75.39820 75.75246 76.16870 76.56192 76.87404 77.11077 77.26235 77.30779 77.29119 77.21141 77.11591 77.05109 77.01837 77.08777 77.27363 77.56477 77.98380 78.46259 79.00103 79.63518 80.27098 80.91320 81.57757 82.14848 82.58183 82.91583 83.01378 82.95321 82.92211 82.89759 82.85351 82.84485 82.68561 82.61980 82.70796 82.73289 82.99006 83.39947 83.51425 83.71141 83.82289 83.92755 84.27109 84.47266 84.62221 84.79920 
2 "U11" 61.69833 61.77615 45.08125 25.40910 24.97171 15.45396 18.44396 18.44396 18.44396 18.44396 18.44396 18.44396 18.44396 18.44978 18.45075 18.43808 18.40295 18.39125 18.44885 18.38216 18.33296 18.24380 18.10000 17.93096 17.76794 17.65665 17.58926 17.57445 17.63961 17.74756 17.90791 18.10865 18.25649 18.41923 18.67637 18.99670 19.40963 19.98345 20.77406 21.70993 22.68149 23.60434 24.34308 24.83209 25.03631 25.05514 24.94602 24.80101 24.68028 24.62417 24.58336 24.53909 24.46071 24.31935 24.08985 23.78477 23.42858 23.08037 22.78055 22.57425 22.48121 22.49828 22.59928 22.76713 22.96846 23.20941 23.50047 23.85650 24.26985 24.71582 25.18095 25.67212 26.18083 26.71128 27.27947 27.90406 28.60172 29.36554 30.18547 31.09658 32.06592 33.08581 34.15410 35.22311 36.27830 37.35626 38.43413 39.48818 40.51573 41.47356 42.35179 43.19204 43.94815 44.73264 45.57361 46.48698 47.46137 48.53170 49.64307 50.78469 52.09981 53.47082 54.94590 56.51597 57.90245 59.27538 60.57373 61.85080 63.25835 64.52297 65.76936 67.06907 
3 "AQ7" 0.00000 14.52049 100.0000 13.66342 11.43742 25.18168 36.58583 36.58583 36.58583 36.58583 36.58583 36.58583 36.58583 36.60007 36.60475 36.58239 36.51551 36.49514 36.61240 37.50369 38.26453 38.68216 38.68606 38.37028 37.79129 37.06785 36.20869 35.16390 33.89431 32.41001 30.85236 29.31591 27.70191 26.00102 24.42822 22.97239 21.50272 20.19162 19.13304 18.15246 17.20928 16.32117 15.51882 14.71402 13.92886 13.22060 12.63034 12.15453 11.78388 11.50772 11.31070 11.16211 11.02027 10.85381 10.64334 10.38698 10.09429 9.794895 9.510415 9.270596 9.088830 8.966933 8.916235 8.932157 8.967822 9.033342 9.136239 9.255298 9.413061 9.589446 9.769033 9.965360 10.17225 10.39812 10.65484 10.93565 11.25391 11.61534 12.00544 12.42999 12.89956 13.39984 13.91241 14.45604 15.01393 15.57451 16.13958 16.68267 17.21170 17.72218 18.18657 18.61640 18.99955 19.37431 19.78899 20.30424 20.89506 21.52303 22.29810 23.11376 24.01778 24.96344 26.01246 27.11461 28.14056 29.14121 30.20635 31.25190 32.44683 33.62966 34.62650 35.61490 
4 "B11" 0.00000 0.00000 0.00000 4.920951 5.114826 5.269055 7.193053 7.193053 7.193053 7.193053 7.193053 7.193053 7.193053 7.195663 7.196390 7.191799 7.178454 7.174249 7.197076 7.054791 6.958667 6.872497 6.782450 6.685430 6.585874 6.498130 6.411551 6.334248 6.291589 6.259780 6.245770 6.235146 6.171216 6.142558 6.151853 6.125260 6.071837 6.083782 6.126207 6.172339 6.206541 6.202282 6.193382 6.185140 6.156985 6.114045 6.044235 5.977963 5.909944 5.831035 5.740871 5.651792 5.548605 5.438379 5.324827 5.203655 5.080624 4.964750 4.849039 4.747069 4.659739 4.590649 4.531585 4.488043 4.447585 4.409764 4.382388 4.367268 4.363831 4.370732 4.382379 4.405350 4.439427 4.478210 4.524960 4.583778 4.655606 4.737351 4.824509 4.918567 5.019467 5.122560 5.236880 5.355800 5.484147 5.620231 5.773556 5.944593 6.136171 6.353174 6.584251 6.848945 7.159806 7.518913 7.958709 8.490489 9.072739 9.740405 10.53135 11.40543 12.40026 13.55970 14.90818 16.42553 18.05851 19.87581 21.83836 23.92574 26.29016 28.71042 31.24183 34.06542 
5 "M1" 62.17746 32.38727 16.40955 23.17572 19.73814 10.92722 13.69445 13.69445 13.69445 13.69445 13.69445 13.69445 13.69445 13.69861 13.69919 13.68963 13.66340 13.65456 13.69716 13.56993 13.48970 13.39017 13.24608 13.08408 12.93201 12.80494 12.69919 12.64405 12.64035 12.66290 12.74036 12.82470 12.85379 12.85133 12.86299 13.01125 13.28138 13.59972 14.04918 14.63162 15.21389 15.74576 16.09274 16.24296 16.20842 16.06915 15.88459 15.71350 15.60165 15.56614 15.58948 15.63246 15.67337 15.67381 15.61568 15.50399 15.36053 15.22985 15.16966 15.20780 15.38256 15.72877 16.24777 16.92001 17.73537 18.66529 19.67655 20.75113 21.85630 22.96844 24.06432 25.12930 26.15237 27.13101 28.07556 29.01357 29.95313 30.90138 31.87082 32.88430 33.93676 35.00645 36.09008 37.19615 38.26480 39.29643 40.33066 41.34302 42.32431 43.23943 44.08076 44.83956 45.53561 46.28453 47.06828 47.95942 48.86225 49.84075 50.92184 52.10091 53.35781 54.67791 56.05939 57.63459 59.06935 60.38839 61.77422 63.13782 64.55104 65.83480 67.01288 68.25318 
6 "AS11" 34.05814 39.25841 49.15541 20.29807 19.65312 18.24814 23.42842 23.42842 23.42842 23.42842 23.42842 23.42842 23.42842 23.43668 23.43880 23.42360 23.37989 23.36594 23.44006 23.37730 23.35023 23.28556 23.10481 22.85910 22.60210 22.38614 22.20635 22.06330 21.97467 21.87239 21.75764 21.68729 21.59323 21.43945 21.33526 21.40223 21.40091 21.55798 21.89038 22.24218 22.51933 22.62723 22.52533 22.22068 21.76753 21.25587 20.74625 20.31840 19.98538 19.75468 19.59099 19.46874 19.34401 19.16118 18.91692 18.60978 18.25555 17.90304 17.57519 17.31399 17.13589 17.04095 17.02680 17.09558 17.20140 17.34549 17.53454 17.77483 18.05991 18.38293 18.72106 19.08118 19.47367 19.88983 20.33612 20.82909 21.38503 21.99170 22.64189 23.36829 24.13460 24.93032 25.77022 26.62240 27.45862 28.30533 29.14093 29.94799 30.73041 31.48307 32.16151 32.80553 33.38130 33.97874 34.62571 35.37128 36.21364 37.11387 38.09074 39.15609 40.34078 41.51458 42.85711 44.28620 45.57752 46.89372 48.09508 49.22369 50.56656 51.91094 53.11133 54.46546 
7 "AP11" 30.21286 48.54963 100.0000 22.51325 20.69028 37.84839 50.99732 50.99732 50.99732 50.99732 50.99732 50.99732 50.99732 51.01682 51.02299 50.99147 50.89789 50.86914 51.03224 52.56153 53.73980 54.44534 54.58321 54.32937 53.79302 53.09901 52.29105 51.33614 50.12718 48.57686 46.92569 45.31919 43.52347 41.63153 39.84983 38.07470 36.21450 34.50743 33.01257 31.67972 30.42460 29.16837 27.93489 26.73835 25.60625 24.60711 23.76812 23.07891 22.54871 22.17401 21.88476 21.62594 21.34476 21.01029 20.60727 20.13858 19.62324 19.10267 18.60548 18.16059 17.77580 17.45262 17.18122 16.96056 16.76501 16.61461 16.52268 16.49927 16.54267 16.64119 16.78210 16.96616 17.19975 17.47083 17.79035 18.17402 18.63169 19.15898 19.73738 20.38106 21.07739 21.81977 22.58949 23.36622 24.16362 24.98204 25.80108 26.59606 27.37182 28.13272 28.80172 29.44942 30.00394 30.56696 31.18402 31.88654 32.66402 33.55583 34.48575 35.48107 36.61944 37.80662 39.10229 40.46693 41.71462 42.95828 44.20628 45.34682 46.70850 48.05277 49.28881 50.55815 
8 "AE6" 62.37583 92.85420 81.74868 30.10579 38.06732 33.56020 35.97935 35.97935 35.97935 35.97935 35.97935 35.97935 35.97935 35.99155 35.99432 35.97048 35.90285 35.88093 35.99428 36.61260 37.13967 37.45530 37.54617 37.55080 37.54695 37.61899 37.77266 38.03992 38.45887 38.95174 39.51070 40.17652 40.85419 41.56114 42.49495 43.46805 44.34649 45.50904 46.99462 48.78529 50.66237 52.49242 54.11296 55.34506 56.12255 56.39489 56.22684 55.72895 54.95829 54.00910 52.92834 51.72085 50.40056 48.94911 47.34541 45.58484 43.68168 41.67326 39.59464 37.50948 35.47271 33.57092 31.80971 30.20867 28.76914 27.51710 26.47361 25.64537 25.02391 24.56408 24.22907 24.02156 23.93596 23.95907 24.09639 24.35433 24.72590 25.21976 25.82483 26.54086 27.35114 28.23206 29.20393 30.22575 31.29005 32.38759 33.48735 34.57398 35.63941 36.66509 37.63047 38.54529 39.32809 40.14090 40.98670 41.90622 42.92563 44.01165 45.13092 46.32363 47.67231 49.04914 50.55977 52.13162 53.49513 54.92747 56.34764 57.66355 59.18703 60.57521 61.80616 63.10802 
9 "B7" 85.06294 83.82696 24.91341 40.76878 41.63104 11.07849 11.54211 11.54211 11.54211 11.54211 11.54211 11.54211 11.54211 11.54392 11.54268 11.53288 11.50902 11.49979 11.53386 11.44109 11.39086 11.32769 11.22823 11.12741 11.04205 10.99375 10.97958 11.01925 11.15808 11.38193 11.66970 11.97603 12.27367 12.66155 13.11438 13.64554 14.29288 15.17511 16.40182 17.94012 19.88228 22.22231 24.94657 27.88746 30.85838 33.63088 36.04337 37.97946 39.49480 40.64922 41.53164 42.19516 42.64636 42.88484 42.92388 42.78200 42.51553 42.20051 41.89025 41.65152 41.53902 41.57700 41.73344 41.97548 42.25667 42.57524 42.95469 43.41412 43.92419 44.45470 44.97673 45.48582 45.98298 46.48131 46.99806 47.56416 48.20513 48.91411 49.70971 50.61631 51.63590 52.72542 53.90469 55.13684 56.38232 57.62646 58.85264 60.02891 61.15558 62.18701 63.04258 63.80899 64.50805 65.17044 65.86662 66.58184 67.26342 67.98608 68.76062 69.57029 70.49474 71.53774 72.64175 73.80370 74.89086 75.88559 76.76145 77.52348 78.34411 79.23469 80.06226 80.85617 
10 "AN11" 81.85702 12.23621 100.0000 28.10167 17.71267 23.74123 41.93922 41.93922 41.93922 41.93922 41.93922 41.93922 41.93922 41.95514 41.96009 41.93405 41.85696 41.83318 41.96712 42.53275 42.62810 42.11594 41.00693 39.54558 37.91914 36.27366 34.62268 32.89612 31.02009 29.01120 27.05974 25.26247 23.48065 21.73260 20.11092 18.63968 17.23945 16.02967 14.97460 14.07590 13.28081 12.52230 11.80281 11.12802 10.52183 9.987745 9.553248 9.231441 9.025609 8.927686 8.906734 8.923934 8.963516 8.979849 8.976235 8.951053 8.908381 8.881084 8.902687 9.004016 9.232992 9.633035 10.22542 11.04184 12.08729 13.37737 14.92304 16.71907 18.78301 21.07842 23.53860 26.13635 28.80863 31.48278 34.10780 36.62781 39.01797 41.26506 43.35309 45.33914 47.21878 48.99949 50.72806 52.36980 53.93667 55.46552 56.91298 58.27244 59.56633 60.70567 61.68016 62.60745 63.37973 64.11406 64.83096 65.58129 66.35540 67.23328 68.01417 68.87260 69.88857 70.91461 72.15105 73.57063 74.67395 75.84942 76.93237 77.93164 79.10136 80.27249 81.32000 82.37315 
11 "AY11" 75.64355 14.46860 55.87243 24.88098 17.30904 14.12099 20.98696 20.98696 20.98696 20.98696 20.98696 20.98696 20.98696 20.99424 20.99602 20.98229 20.94301 20.93039 20.99665 20.89888 20.78819 20.57728 20.25168 19.84413 19.39910 18.98144 18.59310 18.21887 17.84395 17.42683 16.96902 16.55334 16.06014 15.45513 14.95100 14.47377 14.00295 13.59263 13.28674 13.03365 12.78149 12.45301 12.09760 11.66436 11.20364 10.76678 10.38941 10.11401 9.932213 9.835723 9.810925 9.837251 9.879429 9.898408 9.891574 9.852062 9.792516 9.751107 9.764333 9.866189 10.10320 10.50876 11.10632 11.92003 12.94885 14.19527 15.65259 17.31901 19.19061 21.21970 23.33237 25.49687 27.66800 29.78903 31.82891 33.77724 35.62557 37.38071 39.03726 40.64014 42.19734 43.69943 45.18817 46.62838 48.01805 49.38140 50.69263 51.92189 53.05814 54.12598 55.09378 55.99383 56.76700 57.50155 58.27100 59.11311 60.00617 60.93198 61.87232 62.90379 64.08865 65.25304 66.54062 68.03977 69.33351 70.66330 71.85512 72.93694 74.16006 75.34510 76.39996 77.60549 
12 "AF11" 32.25757 32.25757 32.25757 17.68808 16.74439 14.19884 18.16592 18.16592 18.16592 18.16592 18.16592 18.16592 18.16592 18.17221 18.17373 18.16182 18.12781 18.11687 18.17420 18.07510 18.01662 17.92926 17.78118 17.58945 17.38987 17.23378 17.10774 17.00759 16.95103 16.89482 16.85111 16.83163 16.76182 16.66736 16.64913 16.72892 16.82156 17.03940 17.37176 17.76879 18.08903 18.31150 18.33903 18.18458 17.86467 17.46344 17.05772 16.69160 16.41332 16.24291 16.13027 16.04001 15.95137 15.82266 15.63573 15.39013 15.10124 14.80967 14.54192 14.33375 14.22196 14.21410 14.29698 14.46480 14.68359 14.94487 15.24150 15.57164 15.93098 16.30322 16.68424 17.08039 17.49552 17.92176 18.37120 18.85907 19.40496 19.99382 20.62637 21.31695 22.05994 22.82874 23.62337 24.43216 25.24657 26.06831 26.87301 27.65311 28.39359 29.09704 29.74589 30.38027 30.96167 31.54583 32.20927 32.94285 33.73777 34.59859 35.55507 36.62011 37.80896 39.02540 40.34243 41.80787 43.06421 44.35684 45.70537 46.94793 48.26053 49.64307 50.94869 52.24151 
13 "P15" 90.13809 48.58930 20.14038 35.61227 27.72665 9.615010 11.39199 11.39199 11.39199 11.39199 11.39199 11.39199 11.39199 11.39455 11.39410 11.38522 11.36246 11.35416 11.38861 11.27720 11.20241 11.12604 11.01695 10.90096 10.79826 10.73302 10.70339 10.70826 10.75141 10.82097 10.93476 11.06089 11.17601 11.33376 11.50190 11.73569 12.06157 12.55392 13.18735 13.96505 14.82512 15.65772 16.42433 17.04111 17.46691 17.69373 17.79863 17.86428 17.93593 18.03834 18.17917 18.34913 18.50513 18.60628 18.64611 18.63228 18.60770 18.63712 18.76744 19.06854 19.58430 20.34366 21.34819 22.60530 24.10466 25.85270 27.86120 30.13439 32.65180 35.35068 38.13594 40.93154 43.66062 46.23749 48.62643 50.80543 52.77455 54.55302 56.17802 57.71292 59.18704 60.61011 62.02386 63.40577 64.73668 66.03725 67.28951 68.45805 69.54274 70.51351 71.34208 72.03703 72.58111 73.15756 73.69569 74.24198 74.76988 75.34966 75.88809 76.54532 77.37076 78.24739 79.28689 80.45436 81.34608 82.26320 83.01649 83.75328 84.65890 85.46016 86.14502 86.91552 
14 "BC5" 0.00000 90.83696 88.43519 13.30440 17.75424 31.29625 30.07331 30.07331 30.07331 30.07331 30.07331 30.07331 30.07331 30.08439 30.08760 30.06858 30.01296 29.99556 30.09131 31.21910 32.41175 33.52069 34.46572 35.29539 36.01627 36.67968 37.31955 37.98115 38.64929 39.20631 39.68497 40.16331 40.56537 40.88621 41.31302 41.70150 41.77299 41.84280 42.09791 42.33320 42.29816 42.00656 41.38311 40.46053 39.23033 37.76070 36.15034 34.38677 32.52231 30.61609 28.71249 26.81589 24.93899 23.09791 21.30549 19.57412 17.91883 16.34650 14.87397 13.54201 12.35615 11.30705 10.39026 9.613012 8.963801 8.435429 8.016431 7.693169 7.455489 7.293535 7.189212 7.129577 7.114251 7.130757 7.190665 7.289929 7.425656 7.591534 7.792774 8.032825 8.302264 8.591658 8.904609 9.243311 9.603289 9.958719 10.32649 10.71701 11.08563 11.45378 11.83297 12.20529 12.50937 12.79954 13.09417 13.46977 13.89847 14.40107 14.94095 15.53597 16.22287 16.88864 17.68372 18.62123 19.51792 20.36070 21.22166 22.08809 23.11762 24.12650 25.18278 26.26711 
15 "N15" 100.0000 0.00000 72.75654 30.32460 17.46887 12.74583 21.55718 21.55718 21.55718 21.55718 21.55718 21.55718 21.55718 21.56455 21.56627 21.55205 21.51158 21.49851 21.56645 21.53613 21.39863 21.08220 20.57223 19.93473 19.25247 18.58821 17.91535 17.21153 16.45882 15.65805 14.85931 14.08822 13.32346 12.47176 11.66221 11.02184 10.42941 9.878469 9.406640 9.030117 8.742278 8.374397 8.005584 7.637600 7.281819 6.937299 6.671908 6.473544 6.350733 6.287706 6.294628 6.319962 6.360321 6.389155 6.393265 6.379133 6.355195 6.343271 6.360836 6.442330 6.623491 6.937644 7.420360 8.106148 9.021096 10.21534 11.72462 13.58927 15.85735 18.58509 21.79206 25.47753 29.62487 34.16030 38.97386 43.92186 48.82404 53.54462 57.93424 61.91654 65.48879 68.64334 71.43566 73.89426 76.04834 77.96619 79.68585 81.19671 82.50519 83.62930 84.54522 85.27944 85.80223 86.17909 86.43779 86.70672 86.89990 87.08741 87.19881 87.33351 87.60849 87.88353 88.30459 88.92366 89.37552 89.84701 90.20541 90.49539 90.92628 91.32612 91.82439 92.34501 
16 "AN1" 0.00000 15.76867 68.90822 12.90848 11.88314 17.98815 24.73127 24.73127 24.73127 24.73127 24.73127 24.73127 24.73127 24.74061 24.74349 24.72809 24.68259 24.66852 24.74745 24.93053 25.11060 25.18138 25.06738 24.83666 24.54462 24.23530 23.91367 23.54837 23.11498 22.59392 22.03241 21.49360 20.88271 20.19852 19.52870 18.91975 18.29269 17.78502 17.39569 17.05906 16.66766 16.19018 15.63466 15.03171 14.43152 13.85006 13.32510 12.88002 12.54048 12.28945 12.11546 11.96897 11.82673 11.65441 11.43994 11.17380 10.86933 10.55283 10.25639 9.996099 9.792136 9.665962 9.606776 9.608791 9.644921 9.709392 9.809520 9.936503 10.08311 10.24186 10.42033 10.61864 10.82840 11.05912 11.31648 11.60483 11.93455 12.29911 12.70465 13.15369 13.64181 14.15582 14.69379 15.24956 15.79582 16.36018 16.92621 17.47585 18.03312 18.56119 19.00314 19.44690 19.85758 20.28266 20.73357 21.27984 21.87375 22.55366 23.25742 24.04291 24.98986 25.92133 26.97331 28.10202 29.10606 30.20083 31.28377 32.26730 33.35971 34.48937 35.55561 36.72867 
17 "AT11" 82.32700 35.93957 17.32967 30.27457 23.52254 10.15084 12.53102 12.53102 12.53102 12.53102 12.53102 12.53102 12.53102 12.53437 12.53442 12.52520 12.50071 12.49213 12.53061 12.38576 12.32283 12.24313 12.10807 11.96061 11.82423 11.72616 11.66283 11.63362 11.66787 11.72242 11.76080 11.83087 11.90440 11.96294 12.07290 12.25231 12.41815 12.79739 13.28592 13.90083 14.52472 15.08877 15.52039 15.77301 15.84567 15.80757 15.68778 15.57303 15.50319 15.50943 15.57594 15.67168 15.75921 15.81712 15.82051 15.78677 15.73437 15.70669 15.76783 15.96244 16.34143 16.93571 17.76334 18.83540 20.11577 21.61122 23.32010 25.23277 27.32465 29.52429 31.77063 34.01484 36.19956 38.27926 40.22875 42.05000 43.74987 45.34237 46.84117 48.30567 49.73413 51.12402 52.50749 53.85341 55.17182 56.46562 57.71719 58.88680 59.97880 60.93752 61.77954 62.57217 63.21397 63.87371 64.55148 65.27290 66.04122 66.90474 67.71495 68.62594 69.71298 70.74639 72.01238 73.44461 74.58762 75.67782 76.74210 77.59783 78.64505 79.68612 80.60146 81.60121 
18 "F12" 38.37797 87.03288 18.26505 21.29455 27.77474 12.04959 12.53411 12.53411 12.53411 12.53411 12.53411 12.53411 12.53411 12.53739 12.53736 12.52806 12.50349 12.49483 12.53323 12.37517 12.30460 12.24319 12.15774 12.07289 12.00485 11.97543 11.98624 12.05673 12.20498 12.42384 12.72430 13.03166 13.34255 13.78916 14.32280 15.03722 15.92767 17.04537 18.62710 20.58640 22.92234 25.57254 28.41028 31.23739 33.89946 36.16556 37.95309 39.17975 39.88213 40.11716 39.97510 39.51264 38.77004 37.78600 36.59072 35.21712 33.71481 32.13730 30.53506 28.94133 27.41749 25.99670 24.68368 23.48319 22.39234 21.44392 20.66153 20.04339 19.58315 19.24927 19.03638 18.93260 18.92270 19.00263 19.19314 19.47423 19.83188 20.28537 20.81660 21.42156 22.09577 22.81242 23.57667 24.36616 25.15785 25.96632 26.77618 27.57174 28.31002 29.00314 29.66743 30.33710 31.00275 31.64593 32.29971 33.05633 33.91743 34.83725 35.79133 36.84410 38.02471 39.22690 40.50852 41.83347 43.08397 44.43216 45.79704 47.00589 48.25583 49.57487 50.84203 52.13730 
19 "AU3" 91.79675 63.41039 22.42313 39.96460 33.05119 9.760046 10.95188 10.95188 10.95188 10.95188 10.95188 10.95188 10.95188 10.95391 10.95305 10.94407 10.92175 10.91332 10.94599 10.87743 10.84680 10.79412 10.69648 10.59640 10.51062 10.46408 10.45999 10.50146 10.59522 10.72643 10.86651 11.02670 11.22711 11.44877 11.70642 12.05443 12.45732 12.99102 13.77687 14.77636 15.96530 17.25482 18.55762 19.76709 20.81016 21.63221 22.23377 22.67765 23.03915 23.39970 23.75357 24.06265 24.32071 24.50611 24.59768 24.62030 24.62001 24.66303 24.83555 25.20459 25.82673 26.71716 27.88265 29.33043 31.00422 32.90040 35.02378 37.36049 39.87640 42.47881 45.05677 47.55229 49.89444 52.00956 53.89562 55.58581 57.10360 58.46440 59.70331 60.94045 62.15536 63.35893 64.59938 65.84116 67.05186 68.27567 69.45025 70.56525 71.61302 72.55279 73.34079 73.98335 74.43223 74.88534 75.38916 75.86620 76.32898 76.86983 77.29701 77.80744 78.56024 79.29034 80.17690 81.26637 82.08829 82.91710 83.55124 84.08593 84.92817 85.59348 86.05686 86.68594 
20 "C1" 6.263828 23.32494 40.65461 13.14444 12.89269 13.96514 18.26923 18.26923 18.26923 18.26923 18.26923 18.26923 18.26923 18.27585 18.27769 18.26602 18.23211 18.22142 18.27941 18.28404 18.28869 18.24127 18.11301 17.92531 17.71467 17.52379 17.32672 17.13392 16.98735 16.85926 16.73201 16.61618 16.49092 16.28984 16.07186 15.94780 15.84063 15.88315 16.08046 16.30103 16.41821 16.35393 16.18981 15.90252 15.49985 15.04746 14.59457 14.21255 13.92116 13.69856 13.52974 13.39235 13.24505 13.05868 12.81280 12.51266 12.17632 11.82652 11.49452 11.21063 10.99299 10.85206 10.77447 10.75824 10.78344 10.83832 10.92157 11.03914 11.17591 11.33023 11.50956 11.70242 11.91072 12.14795 12.41488 12.71116 13.05161 13.44077 13.86612 14.33229 14.83908 15.36746 15.92535 16.51677 17.11818 17.70026 18.29664 18.85951 19.40566 19.94964 20.45600 20.93154 21.38892 21.84074 22.33050 22.89864 23.50937 24.18491 24.94831 25.80525 26.74410 27.73833 28.76181 29.87165 30.98327 32.09381 33.17658 34.32530 35.51915 36.57369 37.65858 38.89104 
21 "J6" 19.17144 88.67018 60.74159 15.35796 21.76439 20.06412 21.42488 21.42488 21.42488 21.42488 21.42488 21.42488 21.42488 21.43223 21.43398 21.41987 21.37969 21.36673 21.43431 21.56360 21.73739 21.86310 21.89531 21.88752 21.87611 21.89723 21.96441 22.08869 22.30291 22.61997 23.00459 23.43864 23.85890 24.37775 25.08787 25.88629 26.72720 27.86089 29.42421 31.36896 33.43761 35.43189 37.21675 38.62251 39.47730 39.77285 39.54528 38.88719 37.89944 36.65779 35.23872 33.68121 32.01235 30.27676 28.47534 26.64388 24.81812 23.02744 21.30949 19.69114 18.19315 16.83696 15.61480 14.55418 13.64559 12.88739 12.26901 11.79403 11.44073 11.19568 11.03640 10.94022 10.90770 10.93845 11.02903 11.18568 11.40791 11.68487 12.01143 12.39532 12.82838 13.29652 13.80836 14.33761 14.87497 15.43400 15.99829 16.56461 17.13087 17.66655 18.17186 18.66713 19.14641 19.63345 20.16160 20.73369 21.36025 22.06666 22.84447 23.68339 24.62078 25.61053 26.71210 27.88778 28.95134 30.08207 31.32197 32.51662 33.72749 34.97305 36.14466 37.29344 
22 "BC14" 93.54849 93.54849 93.54849 62.21860 63.49285 56.33912 61.36669 61.36669 61.36669 61.36669 61.36669 61.36669 61.36669 61.38745 61.39213 61.35142 61.23603 61.19860 61.39197 63.75992 65.54903 66.71043 67.30973 67.52014 67.50371 67.51803 67.66755 68.00430 68.53122 69.03020 69.46832 70.01508 70.48207 70.86446 71.23855 71.33919 70.90206 70.21228 69.54829 69.02716 68.53553 68.12652 67.79274 67.54116 67.19137 66.73668 66.20674 65.63235 65.03976 64.49471 64.02950 63.65608 63.36876 63.13175 62.90431 62.60127 62.21480 61.76132 61.23560 60.70536 60.25152 59.95894 59.82218 59.83592 59.94107 60.13968 60.43582 60.85335 61.36348 61.88124 62.36182 62.80598 63.20970 63.54952 63.86104 64.17672 64.49861 64.86150 65.26078 65.79047 66.42544 67.13196 67.96192 68.84088 69.77056 70.75674 71.73645 72.70043 73.62217 74.46816 75.19646 75.79337 76.07698 76.34493 76.58736 76.87380 77.13806 77.42925 77.61944 77.89747 78.35779 78.71620 79.31016 80.08657 80.43883 80.85905 81.24490 81.51383 82.02919 82.52450 82.92761 83.51107 
