Epson_XP-960/Navigator/Colour_Documents/Navigator_Colour_Documents_XP_960.ti2
CTI2   

DESCRIPTOR "Argyll Calibration Target chart information 2"
ORIGINATOR "Argyll printtarg"
CREATED "Wed Jun 17 12:22:19 2020"
TARGET_INSTRUMENT "X-Rite ColorMunki"
COMP_GREY_STEPS "16"
APPROX_WHITE_POINT "95.106486 100.000000 108.844025"
COLOR_REP "iRGB"
PAPER_SIZE "210.0x297.0"
RANDOM_START "79"
STEPS_IN_PASS "15"
PASSES_IN_STRIPS2 "14,14"
STRIP_INDEX_PATTERN "A-Z, A-Z"
PATCH_INDEX_PATTERN "0-9,@-9,@-9;1-999"
INDEX_ORDER "STRIP_THEN_PATCH"

NUMBER_OF_FIELDS 8
BEGIN_DATA_FORMAT
SAMPLE_ID SAMPLE_LOC RGB_R RGB_G RGB_B XYZ_X XYZ_Y XYZ_Z 
END_DATA_FORMAT

NUMBER_OF_SETS 420
BEGIN_DATA
1 "V9" 100.0000 100.0000 100.0000 95.10649 100.0000 108.8440 
2 "W10" 19.82452 100.0000 0.00000 37.73464 72.48598 12.86413 
3 "M2" 6.633097 86.82689 50.43717 30.83226 54.08315 30.10987 
4 "AA12" 8.972305 9.893950 63.28069 8.097399 4.437152 34.84815 
5 "L4" 68.29328 48.81819 6.939803 25.61666 24.36083 4.766690 
6 "J12" 30.29068 40.49287 81.40078 20.09708 16.71328 61.85027 
7 "A4" 23.11284 80.82704 51.46563 28.73237 47.29790 29.82402 
8 "O15" 15.23919 0.00000 25.87472 2.796255 1.813600 6.163964 
9 "P10" 62.68406 100.0000 0.00000 50.72730 79.18504 13.47294 
10 "S1" 82.46128 67.78058 0.00000 42.15702 44.13346 7.158348 
11 "Y5" 53.86893 57.56924 86.30350 34.37248 32.01216 72.33194 
12 "M6" 88.41688 18.38712 35.41009 34.72784 19.66451 12.47078 
13 "E14" 32.29877 43.89258 59.70397 15.83599 16.49997 32.73189 
14 "P4" 86.66667 86.66667 86.66667 69.04418 72.58246 78.97718 
15 "C8" 80.00000 80.00000 80.00000 57.82407 60.77891 66.11917 
16 "A10" 73.33333 73.33333 73.33333 47.76462 50.19637 54.59125 
17 "U12" 66.66667 66.66667 66.66667 38.82872 40.79580 44.35090 
18 "G6" 60.00000 60.00000 60.00000 30.97732 32.53613 35.35337 
19 "V3" 53.33333 53.33333 53.33333 24.16914 25.37393 27.55134 
20 "S10" 46.66667 46.66667 46.66667 18.36029 19.26302 20.89453 
21 "X11" 40.00000 40.00000 40.00000 13.50377 14.15396 15.32905 
22 "M11" 33.33333 33.33333 33.33333 9.548794 9.993329 10.79674 
23 "Z2" 26.66667 26.66667 26.66667 6.439866 6.722738 7.233970 
24 "S15" 20.00000 20.00000 20.00000 4.115373 4.277372 4.570151 
25 "L15" 13.33333 13.33333 13.33333 2.505355 2.583633 2.725105 
26 "E1" 6.666667 6.666667 6.666667 1.527504 1.554934 1.604508 
27 "U4" 0.00000 100.0000 0.00000 36.40521 71.80052 12.80184 
28 "R15" 0.00000 0.00000 100.0000 18.87111 8.147314 95.12896 
29 "G12" 100.0000 0.00000 100.0000 59.70128 29.19948 97.04219 
30 "F6" 100.0000 100.0000 0.00000 77.23538 92.85269 14.71507 
31 "I9" 100.0000 0.00000 0.00000 41.83017 22.05217 2.913230 
32 "R6" 0.00000 100.0000 100.0000 54.27632 78.94783 106.9308 
33 "B5" 0.00000 47.60052 100.0000 25.68640 21.77599 97.40074 
34 "V15" 100.0000 0.00000 38.52598 44.02428 22.92967 14.46983 
35 "W15" 100.0000 35.41161 0.00000 45.47523 29.34127 4.128261 
36 "P12" 0.00000 100.0000 39.49035 38.71639 72.72484 24.97508 
37 "M1" 0.00000 0.00000 0.00000 1.000000 1.000000 1.000000 
38 "Z9" 46.57053 0.00000 100.0000 26.37002 12.01378 95.48035 
39 "T7" 0.00000 33.31044 0.00000 4.211855 7.422811 2.070627 
40 "V8" 0.00000 0.00000 79.20806 11.55288 5.220486 56.58311 
41 "R2" 100.0000 61.39467 100.0000 71.56435 52.92231 100.9966 
42 "A1" 60.28077 0.00000 0.00000 14.14023 7.775147 1.615728 
43 "W11" 100.0000 100.0000 76.33478 86.94938 96.73767 65.87971 
44 "B7" 63.51568 100.0000 100.0000 69.02127 86.55038 107.6217 
45 "A8" 0.00000 0.00000 39.97406 3.371286 1.948365 13.48981 
46 "L9" 100.0000 100.0000 49.08980 80.91162 94.32295 34.07819 
47 "H6" 100.0000 41.62203 100.0000 64.81794 39.43139 98.74776 
48 "Z3" 100.0000 52.91829 0.00000 50.40013 39.18968 5.769906 
49 "S11" 60.24567 0.00000 81.98978 25.52766 12.32753 61.67895 
50 "E15" 0.00000 49.50027 0.00000 8.415370 15.82867 3.471811 
51 "V5" 0.00000 59.72076 24.17639 13.01433 23.66324 9.205441 
52 "N13" 54.93858 42.25834 0.00000 17.00753 17.09603 3.263915 
53 "Z12" 49.68185 100.0000 46.90471 48.35777 77.57779 30.76076 
54 "S6" 35.31243 19.67346 100.0000 24.18663 12.57463 95.70360 
55 "G13" 100.0000 45.99985 60.82551 54.02937 37.06228 35.92284 
56 "Z14" 43.06249 100.0000 100.0000 60.61945 82.21837 107.2280 
57 "E7" 100.0000 0.00000 60.41810 47.61044 24.36391 33.35849 
58 "E12" 51.33288 60.55238 100.0000 39.63025 35.92931 99.39835 
59 "L14" 42.02945 100.0000 0.00000 42.42922 74.90652 13.08411 
60 "S7" 39.35454 0.00000 0.00000 6.242029 3.702807 1.245632 
61 "F12" 0.00000 35.44213 63.58892 11.12194 10.88981 36.29750 
62 "AA5" 43.84375 0.00000 46.80858 10.90907 5.725321 18.78709 
63 "V2" 0.00000 100.0000 58.34287 41.75844 73.94147 40.99784 
64 "M8" 100.0000 67.12139 19.04936 56.81859 51.16082 10.57399 
65 "Q7" 35.36126 56.89631 0.00000 15.22886 23.23371 4.542345 
66 "Y3" 0.00000 23.08690 100.0000 20.41300 11.23068 95.64293 
67 "C5" 73.13344 0.00000 100.0000 39.03795 18.54540 96.07394 
68 "K15" 0.00000 82.85191 61.84482 30.21545 49.68764 40.76176 
69 "G3" 0.00000 73.86435 100.0000 36.75088 43.90186 101.0889 
70 "H5" 62.20340 58.89830 0.00000 25.91003 29.91458 5.269390 
71 "F8" 100.0000 85.25368 0.00000 66.49813 71.38119 11.13595 
72 "S9" 100.0000 100.0000 23.93530 78.07030 93.18660 19.11267 
73 "X5" 0.00000 82.93736 0.00000 24.18385 47.36121 8.728013 
74 "B9" 100.0000 37.99802 40.60578 48.50387 31.47639 17.23122 
75 "AB12" 0.00000 100.0000 19.97406 36.99538 72.03655 15.91033 
76 "Q6" 100.0000 66.00443 62.49638 61.97814 52.37975 40.35455 
77 "Y9" 19.33928 100.0000 55.93957 42.55651 74.40744 38.57650 
78 "G10" 100.0000 0.00000 81.54421 53.09514 26.55744 62.24698 
79 "O3" 20.33417 0.00000 100.0000 20.26575 8.866398 95.19431 
80 "C7" 63.08537 30.82322 100.0000 36.13624 21.11528 96.72283 
81 "C10" 77.34798 0.00000 21.69070 24.54933 13.06229 5.706161 
82 "Z1" 64.62959 100.0000 62.80003 58.02279 82.21855 46.67355 
83 "AA8" 14.07797 63.10063 100.0000 32.19039 33.71821 99.36339 
84 "D2" 81.86618 100.0000 0.00000 62.37135 85.18875 14.01856 
85 "H13" 37.78439 0.00000 83.63928 17.73904 8.251202 64.04385 
86 "Q8" 0.00000 40.08087 22.89311 6.490012 10.75349 6.607930 
87 "D15" 80.45167 0.00000 0.00000 25.96833 13.87375 2.169972 
88 "N14" 0.00000 51.98901 64.68757 15.96640 20.17798 39.14404 
89 "U9" 40.99489 0.00000 65.15145 13.54096 6.676501 37.22642 
90 "T2" 81.01930 0.00000 42.81987 29.10861 15.17560 16.63726 
91 "N9" 37.14351 100.0000 16.00977 41.44169 74.35186 15.09084 
92 "AB9" 100.0000 0.00000 19.47662 42.39305 22.27728 5.877974 
93 "R12" 0.00000 0.00000 59.76043 6.642834 3.256777 30.72138 
94 "D4" 67.68292 100.0000 40.54017 55.82059 81.52860 26.46363 
95 "Q1" 0.00000 100.0000 78.40085 46.71807 75.92501 67.12075 
96 "Z5" 40.99336 100.0000 62.93278 48.44268 77.27563 46.37748 
97 "N1" 52.72908 85.54818 0.00000 35.66673 55.77022 9.746414 
98 "I13" 18.77928 0.00000 0.00000 2.201583 1.619540 1.056304 
99 "Z15" 31.85626 17.17250 0.00000 5.263378 4.510145 1.453016 
100 "U7" 100.0000 100.0000 100.0000 95.10649 100.0000 108.8440 
101 "B6" 38.84489 0.00000 28.14221 7.250845 4.089884 7.298686 
102 "O12" 35.59930 72.88777 21.15206 23.26364 38.16156 10.44937 
103 "AA2" 46.35386 65.25063 77.61196 32.07696 35.99848 58.97330 
104 "Q15" 76.36988 59.44152 28.62745 35.45584 35.02515 11.99548 
105 "M7" 63.20745 47.63409 100.0000 40.28458 29.31857 98.08782 
106 "W3" 100.0000 17.65164 0.00000 42.75975 23.91107 3.223092 
107 "R13" 84.04669 24.83406 56.22797 35.26326 20.73361 28.88994 
108 "T3" 53.56069 81.15358 100.0000 51.09407 57.52696 102.9635 
109 "A3" 100.0000 57.77523 39.57733 54.53282 43.73932 18.60337 
110 "I14" 100.0000 19.84894 78.59770 53.35688 28.51078 57.92429 
111 "D10" 100.0000 76.61555 44.96071 64.27777 62.07134 25.41426 
112 "R1" 0.00000 18.15061 57.62722 7.188661 5.040144 28.76960 
113 "AB10" 22.67491 100.0000 100.0000 55.99371 79.83333 107.0113 
114 "B12" 100.0000 100.0000 100.0000 95.10649 100.0000 108.8440 
115 "U15" 100.0000 20.73854 100.0000 60.95641 31.70939 97.46057 
116 "B11" 78.46036 43.94903 0.00000 30.34633 24.65659 4.020792 
117 "H2" 0.00000 15.79767 0.00000 1.760830 2.521446 1.253612 
118 "Z7" 40.42725 100.0000 32.68482 43.51246 75.28470 21.27415 
119 "V13" 0.00000 79.41558 19.62768 22.60100 43.28232 11.01807 
120 "L12" 9.784085 74.37247 55.34600 24.32083 39.41727 32.19351 
121 "X2" 0.00000 50.06027 44.28626 11.54531 17.37265 19.05636 
122 "H3" 0.00000 68.76326 71.86236 24.73334 34.88041 50.79106 
123 "W14" 75.45739 36.32410 87.78668 39.77151 25.15568 73.35574 
124 "S2" 66.84215 68.63661 100.0000 50.56274 47.02051 100.9635 
125 "V4" 82.38499 0.00000 85.23995 39.78390 19.55740 67.79411 
126 "K7" 17.79660 22.18509 100.0000 21.38697 11.56356 95.65589 
127 "M14" 100.0000 61.01625 81.76699 64.86691 49.98701 66.51229 
128 "E3" 64.63111 36.41566 24.10925 21.03339 16.96500 7.465906 
129 "V11" 22.57267 0.00000 45.23690 5.786389 3.111155 17.32384 
130 "T4" 58.42222 30.25559 64.44495 22.56952 15.26554 37.55686 
131 "W2" 19.40948 45.45815 0.00000 8.452010 14.00566 3.117988 
132 "Y6" 100.0000 43.71099 20.55390 48.13114 33.65575 8.087075 
133 "AA6" 18.92882 68.34363 0.00000 17.25795 31.70170 6.070045 
134 "S8" 82.29496 100.0000 82.18509 74.14278 89.93203 74.41979 
135 "B15" 72.77028 82.40482 0.00000 43.79343 56.97642 9.551228 
136 "C4" 25.60464 0.00000 14.46860 3.506538 2.254324 2.834930 
137 "F13" 69.10506 92.13397 49.84817 51.97236 70.47056 31.64683 
138 "R8" 20.02136 100.0000 71.62737 46.18616 75.86893 57.24924 
139 "AB14" 33.42031 80.26856 100.0000 44.14018 53.14384 102.4837 
140 "O14" 19.33776 41.73648 100.0000 25.28656 19.09319 96.90394 
141 "P14" 58.25437 16.60029 48.18189 17.55254 10.36002 20.44782 
142 "X8" 100.0000 70.11826 0.00000 57.75103 53.88943 8.220227 
143 "P13" 13.13802 57.44564 60.64546 17.71678 24.15952 35.14513 
144 "S3" 0.00000 19.55444 34.05966 3.820834 3.925677 10.31403 
145 "Q9" 19.75738 35.12627 72.04852 14.44255 12.26321 47.22301 
146 "Q11" 0.00000 65.80148 0.00000 14.82622 28.64857 5.608778 
147 "E8" 83.43786 100.0000 100.0000 81.37676 92.92091 108.2007 
148 "C1" 36.68879 71.93866 39.39269 24.68094 37.96115 18.94040 
149 "H1" 0.00000 39.13329 82.46128 17.04349 14.60259 63.34029 
150 "D11" 0.00000 0.00000 18.67094 1.520322 1.208096 3.740587 
151 "Y2" 42.83207 24.42664 35.45281 10.83658 8.412822 11.58178 
152 "I5" 69.14473 72.88319 23.24559 36.94031 45.19439 11.77287 
153 "Y4" 59.58648 100.0000 81.42367 60.44247 82.89559 72.53732 
154 "W4" 42.02792 57.33730 18.04990 17.72154 24.71652 7.259660 
155 "P3" 85.14076 100.0000 39.96490 67.13788 87.37224 26.61451 
156 "T9" 100.0000 80.95369 100.0000 81.65696 73.10470 104.3608 
157 "O2" 73.04036 38.55497 44.46326 28.43531 21.26324 19.04976 
158 "M15" 0.00000 81.37026 38.73960 25.43013 46.30229 20.09528 
159 "F9" 9.976349 17.87442 90.65385 16.66301 8.832892 76.67789 
160 "P11" 81.09560 65.44900 66.16007 47.14503 44.25258 43.94880 
161 "AA9" 65.96017 22.94347 0.00000 18.55334 12.31146 2.258939 
162 "J13" 60.81636 0.00000 58.30930 19.74544 10.04680 29.78819 
163 "X7" 78.51987 84.05280 100.0000 66.40498 68.11414 104.2008 
164 "E4" 29.99619 91.04753 88.79683 46.25797 65.22958 82.57544 
165 "I2" 11.14672 57.12367 48.08270 15.12738 22.90560 22.91554 
166 "O1" 25.70535 100.0000 41.31685 41.14236 73.94890 26.29739 
167 "I6" 43.72015 15.14153 46.43626 11.51911 7.093863 18.72315 
168 "E5" 25.92660 58.67857 32.36896 15.49984 24.23822 12.73413 
169 "P15" 50.99565 71.27489 17.30831 27.08450 38.90225 9.315574 
170 "I11" 53.75296 23.20134 24.96986 13.68927 9.748024 6.775885 
171 "K8" 16.26307 22.51621 0.00000 3.393098 4.414119 1.532984 
172 "F5" 0.00000 0.00000 0.00000 1.000000 1.000000 1.000000 
173 "O11" 52.93965 0.00000 16.87495 11.32396 6.273060 3.740596 
174 "H14" 100.0000 82.54215 81.86465 76.13102 72.46335 70.41730 
175 "F4" 100.0000 87.34874 62.88701 74.20124 76.68485 44.85353 
176 "R4" 0.00000 84.07416 87.09697 37.97261 54.03034 77.79436 
177 "C9" 76.40803 82.40940 15.72595 46.47503 58.31921 11.66629 
178 "C3" 40.61799 39.80621 100.0000 29.13094 20.34786 96.94365 
179 "H11" 80.67445 50.87968 100.0000 51.86461 36.83844 98.92947 
180 "AB7" 53.94675 16.43091 100.0000 29.99322 15.09324 95.88394 
181 "A13" 24.90883 84.73335 21.05898 28.04491 50.97801 12.64250 
182 "H4" 71.53735 53.57748 87.39605 42.17062 33.77032 74.19566 
183 "W13" 12.84199 29.99924 41.06661 6.716193 7.505112 15.11501 
184 "E13" 52.63600 10.75914 76.60334 20.95775 10.74849 53.15987 
185 "K5" 84.71809 100.0000 60.96437 70.34739 88.61923 45.17146 
186 "N2" 19.03716 0.00000 62.75120 8.515933 4.148437 34.15415 
187 "X6" 87.59747 15.50469 21.70596 32.67060 18.34163 6.302562 
188 "G7" 80.54932 15.72747 100.0000 44.66157 22.56506 96.55367 
189 "L1" 79.25689 0.00000 65.22316 31.98693 16.18537 38.17802 
190 "Q2" 100.0000 83.70336 27.08782 66.56487 69.80969 16.41635 
191 "I4" 0.00000 33.54543 44.74556 7.271562 8.721322 17.95567 
192 "Q14" 44.75929 78.46647 76.16999 38.02445 49.35085 59.06281 
193 "N11" 44.38849 19.44762 61.05287 14.79380 9.078470 32.84203 
194 "G14" 36.28748 24.94392 86.32181 20.02182 11.98815 69.25471 
195 "L13" 77.35561 39.71466 59.72229 34.13196 24.30804 33.29540 
196 "A2" 100.0000 100.0000 100.0000 95.10649 100.0000 108.8440 
197 "N12" 67.94537 81.34737 56.07080 45.22289 56.17547 35.04786 
198 "D12" 100.0000 39.94354 81.21157 57.68196 35.89529 63.26557 
199 "Y8" 40.58442 47.80194 28.51606 14.65280 18.11025 9.777085 
200 "S4" 17.36629 52.09125 11.59533 10.54861 18.18793 5.002794 
201 "U8" 27.79126 29.82071 10.63554 6.322011 7.523129 3.013012 
202 "K2" 11.36339 70.94682 84.98970 30.20848 38.88439 71.59739 
203 "C14" 29.01503 83.64080 0.00000 27.42429 49.69277 9.007404 
204 "K13" 0.00000 59.57733 86.88487 25.09994 28.40326 73.14981 
205 "X10" 38.02090 87.99420 25.98764 33.35171 56.88772 15.22925 
206 "T6" 19.18975 48.90669 80.27771 20.35108 20.44223 60.74853 
207 "Q10" 19.51934 0.00000 81.11543 13.42358 6.118011 59.69511 
208 "E9" 17.72946 33.38979 56.63691 10.32462 10.01769 28.54818 
209 "V10" 100.0000 21.50454 22.07065 43.88861 25.02693 7.119916 
210 "V7" 100.0000 16.89631 41.71054 45.28302 24.80633 16.86467 
211 "U2" 58.36728 100.0000 21.01930 49.29717 78.37247 16.79913 
212 "I8" 36.44770 36.30274 0.00000 9.302011 10.97728 2.488654 
213 "Q5" 13.73007 84.53651 100.0000 43.76070 56.90057 103.2289 
214 "Y14" 54.28702 91.54803 33.65225 42.07935 64.99252 19.86857 
215 "C11" 52.01495 42.69169 14.22599 16.23982 16.83502 4.928772 
216 "R10" 95.01946 61.53048 51.07652 53.28206 45.18530 27.77552 
217 "C6" 59.51629 83.74151 80.47913 48.40687 59.34111 67.10180 
218 "S14" 48.72969 69.40871 0.00000 24.83162 36.38748 6.575646 
219 "B4" 74.72038 12.60243 58.13840 27.98440 15.06312 30.14263 
220 "Z10" 93.07088 93.43862 56.38056 71.00331 81.56109 38.90284 
221 "S13" 93.33333 93.33333 93.33333 81.46035 85.64427 93.20584 
222 "H9" 78.48631 44.87221 18.10941 31.11693 25.38356 6.698401 
223 "AB6" 52.56275 28.81819 45.09804 16.19414 12.02774 18.39142 
224 "K4" 34.14817 62.37278 100.0000 35.05375 34.72194 99.40633 
225 "G1" 11.78759 62.34836 29.82986 15.09900 26.33494 11.93074 
226 "Z4" 49.26986 42.67491 71.08263 23.14592 19.46794 46.82919 
227 "AB4" 89.72915 47.08934 75.12322 48.96327 34.52894 54.08178 
228 "I10" 15.90600 100.0000 86.57969 50.18583 77.41462 80.74954 
229 "R9" 0.00000 67.12902 48.09033 18.96860 31.30602 24.34074 
230 "T14" 39.23705 100.0000 81.38705 52.83048 78.97213 72.12166 
231 "X9" 61.52132 0.00000 36.40650 16.69209 8.865450 11.91003 
232 "G4" 57.22896 53.70260 39.21874 23.85138 25.65155 16.49697 
233 "T10" 82.98772 21.67544 0.00000 29.13785 17.53457 2.709684 
234 "W8" 11.24132 77.12520 32.95644 22.77170 41.26953 15.94069 
235 "U11" 22.29038 21.90433 82.42161 15.59391 9.257665 62.31968 
236 "T11" 88.87617 53.62783 88.11780 54.48746 40.11947 76.06607 
237 "Z11" 60.50507 9.617762 23.89258 15.41472 8.832035 6.114233 
238 "C15" 48.92500 19.91455 0.00000 10.50117 7.624341 1.778281 
239 "E6" 27.40978 77.85153 83.50500 35.48850 47.25590 70.41256 
240 "D6" 77.64706 21.08949 42.99992 28.12096 16.58668 17.09045 
241 "H10" 46.35996 63.84833 46.95201 24.70114 32.03042 23.25246 
242 "T15" 37.03212 43.72320 11.67468 11.52485 14.83210 4.316870 
243 "W6" 5.728237 85.97848 73.87198 35.35904 54.98678 56.93698 
244 "X13" 54.50370 87.79431 52.64973 42.17536 60.85387 32.81369 
245 "G9" 46.36301 67.86450 60.66987 29.06639 36.76975 37.00862 
246 "V6" 82.76951 76.66743 32.74891 48.61383 54.21014 16.96989 
247 "C2" 22.69780 19.40490 38.35355 6.001573 4.971068 12.89758 
248 "K14" 82.83360 33.82467 100.0000 48.84739 28.52267 97.48320 
249 "A5" 60.54322 71.56634 86.14786 43.67750 46.25900 74.32168 
250 "AB15" 0.00000 19.78332 17.18013 2.594976 3.475033 3.735111 
251 "AA4" 100.0000 100.0000 100.0000 95.10649 100.0000 108.8440 
252 "AA3" 59.95880 27.71038 81.27565 27.37821 16.58667 61.24035 
253 "A9" 73.44472 8.293278 74.16648 30.73498 15.67607 50.01512 
254 "G2" 89.79934 74.02304 53.82162 55.44227 55.21478 32.12653 
255 "U10" 24.53040 36.10742 45.60616 9.935349 10.87729 18.88868 
256 "N7" 17.51888 11.14366 73.69192 11.45619 5.977564 48.47813 
257 "J4" 95.66339 32.00732 15.95331 41.26683 26.10781 5.774326 
258 "G11" 84.00397 67.45403 100.0000 60.99530 51.54591 101.2875 
259 "X14" 59.33928 10.21592 10.15793 14.24424 8.352008 2.683713 
260 "T8" 0.00000 19.00511 80.16327 12.90570 7.465840 58.45240 
261 "AA10" 10.86595 45.57412 69.21340 15.48177 16.77732 44.21393 
262 "O4" 85.07362 53.22652 41.13832 40.51111 33.96129 18.49044 
263 "N4" 25.97086 33.39132 91.50835 21.07871 14.45300 79.14092 
264 "Y12" 77.56924 37.69131 74.03067 37.22707 24.79089 51.23582 
265 "K3" 57.59976 62.20493 26.69566 26.13787 31.96347 11.08030 
266 "V14" 67.83551 68.50690 53.78500 37.65828 41.82088 30.44296 
267 "I12" 81.24056 100.0000 19.48119 62.49036 85.18497 16.96393 
268 "P8" 14.28397 75.77783 11.58923 20.89378 39.32883 8.537647 
269 "J8" 100.0000 24.29541 60.38605 49.30701 27.76695 33.89202 
270 "A6" 81.42214 32.06683 10.46769 29.81271 20.24197 4.205146 
271 "U5" 22.12406 43.40581 35.02556 10.03018 13.75006 12.41406 
272 "K11" 59.69940 57.52956 73.27840 33.01340 31.74361 51.72801 
273 "AB1" 22.70390 71.42901 27.04662 20.37570 35.49100 12.20782 
274 "O10" 18.54124 79.55596 70.82017 31.50332 47.11187 51.36996 
275 "Z13" 72.35828 90.34409 70.54704 56.95914 70.64484 54.20161 
276 "G5" 12.45289 93.63851 40.50202 34.51588 63.25828 24.03320 
277 "B14" 44.06043 71.57702 91.72198 39.01677 43.64001 84.23412 
278 "B1" 35.78698 34.06424 68.75410 16.35278 13.01778 42.84128 
279 "I7" 78.52140 85.54513 42.66575 52.22465 63.99030 24.73262 
280 "B3" 47.23278 89.13252 88.90059 49.69150 65.00182 82.54162 
281 "B8" 34.91417 52.16297 90.75151 27.72720 25.44984 79.48509 
282 "U3" 57.68826 39.84588 38.36881 19.77293 17.35292 14.57183 
283 "J14" 34.42283 58.57939 55.42840 20.44926 26.35493 29.95744 
284 "N6" 71.43359 11.88220 33.24636 22.21852 12.44703 10.55771 
285 "L2" 86.11734 67.55169 17.95834 45.24095 45.50410 9.799055 
286 "O7" 0.00000 0.00000 0.00000 1.000000 1.000000 1.000000 
287 "D13" 49.58572 78.34134 29.41939 31.23856 46.71668 14.82742 
288 "L3" 10.57603 28.29938 9.916838 3.928472 5.910267 2.720613 
289 "J7" 18.71519 100.0000 22.23545 38.32298 72.70560 16.67029 
290 "J3" 44.25269 54.82567 64.19623 23.58734 25.61985 39.20470 
291 "Y13" 31.02464 65.37881 77.36019 27.84038 33.90975 58.41016 
292 "A7" 66.03037 87.15648 96.01740 59.28916 67.64852 96.22007 
293 "M3" 72.93507 89.88022 85.36660 61.32735 71.91027 76.98245 
294 "X4" 44.08789 34.71580 24.18097 12.01899 11.77444 6.964474 
295 "P5" 8.236820 38.74876 92.61769 20.72123 15.96113 81.56837 
296 "F2" 84.38392 20.82551 73.17464 38.90124 21.39740 49.27543 
297 "A15" 27.24804 42.73899 20.72175 9.509223 13.34749 6.251928 
298 "X12" 94.39841 78.51530 14.73716 57.65823 60.59636 11.30068 
299 "P6" 20.76600 17.47463 53.97421 7.879482 5.379001 25.15744 
300 "V12" 8.441291 40.86366 37.21370 8.278829 11.82063 13.40176 
301 "E11" 52.23163 5.210956 64.96529 17.53680 8.958652 37.23060 
302 "K6" 42.25986 9.509422 11.65637 7.651413 4.890576 2.598844 
303 "J6" 91.35271 73.88418 90.19760 66.28641 59.57793 83.00813 
304 "K10" 68.98451 91.16655 27.41436 48.50123 67.96405 17.14693 
305 "D5" 7.624933 92.22858 9.782559 30.91274 60.13262 11.74660 
306 "AB11" 88.98146 45.77096 51.75250 42.72014 31.33328 26.26555 
307 "N15" 45.25368 42.65354 88.14374 26.86613 20.78286 73.83502 
308 "Y7" 32.63294 9.988556 73.09987 13.72258 7.065562 47.72819 
309 "M9" 78.84031 72.00275 45.25063 44.83510 48.31107 24.00303 
310 "AB2" 67.76532 28.35584 52.75196 24.62959 16.12094 25.19781 
311 "K1" 90.23880 33.94217 88.21851 50.13276 29.73221 74.47211 
312 "G15" 9.709316 12.55207 26.74449 2.941635 2.640129 6.661364 
313 "W9" 38.93645 20.60121 20.97200 8.012182 6.380143 5.062078 
314 "N10" 25.41390 67.60357 91.02312 32.26180 37.23543 82.03206 
315 "P2" 64.71351 66.01205 40.72175 32.75694 37.75409 19.34985 
316 "D8" 7.531853 19.00053 46.87877 5.663864 4.600075 18.90215 
317 "O8" 83.49279 56.92531 8.508431 38.33035 35.14545 6.361519 
318 "AA13" 100.0000 100.0000 100.0000 95.10649 100.0000 108.8440 
319 "B13" 91.46868 52.40253 27.70428 43.85385 35.41756 11.23141 
320 "T12" 28.07507 60.33417 15.08965 15.38681 25.32110 6.793166 
321 "AA15" 92.30793 8.651865 69.50179 43.21123 22.27611 44.19438 
322 "F1" 32.73213 8.488594 53.46456 9.273421 5.165894 24.55832 
323 "F14" 9.323262 57.48989 76.45075 21.38307 25.62160 55.77866 
324 "M13" 55.68627 87.96216 14.23972 38.83669 59.75907 12.02725 
325 "W5" 89.14778 38.00259 31.70977 38.15450 26.25592 11.60047 
326 "W7" 53.37453 91.19402 68.29175 47.36961 66.65920 50.96034 
327 "J5" 91.06279 93.24178 11.96612 64.45897 78.51881 13.87173 
328 "O5" 26.16922 66.99168 48.06134 21.17252 32.34598 24.40197 
329 "J11" 100.0000 100.0000 100.0000 95.10649 100.0000 108.8440 
330 "V1" 58.94560 48.73274 25.54513 21.62741 22.16630 8.972940 
331 "I3" 70.96208 24.59907 72.38117 30.22629 17.66116 47.89707 
332 "AB3" 8.158999 5.226215 90.98039 15.86974 7.216549 77.01960 
333 "R11" 31.57702 83.41650 72.44831 36.44928 53.13478 54.51068 
334 "H15" 74.07950 9.939727 11.49310 22.32910 12.49327 3.266184 
335 "U13" 20.32349 88.65187 8.274968 29.47196 55.65234 10.75738 
336 "Z6" 90.43565 55.19036 64.82948 49.64759 39.24058 41.22086 
337 "AA11" 26.63615 84.83558 36.52857 29.71342 51.78412 19.57990 
338 "M10" 65.89609 11.53582 84.50294 29.64657 15.01913 66.18693 
339 "L10" 85.15145 32.52613 42.98619 35.19503 22.84973 17.91660 
340 "R14" 5.604639 47.13359 54.07492 12.39035 16.25111 27.11435 
341 "J15" 89.45144 10.15946 8.879225 33.22186 18.13614 3.394997 
342 "O9" 81.44961 82.80156 59.15618 55.28657 62.63373 38.96871 
343 "H8" 32.10956 92.29725 54.64408 38.58854 63.64816 35.43210 
344 "K9" 57.29763 76.12268 66.77806 39.09104 48.19007 45.90499 
345 "L11" 46.45457 12.11414 88.79225 22.59006 11.26897 73.39942 
346 "AB13" 67.71954 22.07218 19.59106 19.97604 12.81658 5.265079 
347 "D1" 14.56626 38.19791 17.54330 6.493781 10.11510 4.902512 
348 "AA1" 86.43626 82.66117 3.491264 53.40502 62.16521 10.29978 
349 "O6" 89.10964 20.12665 86.23331 46.39748 24.68956 70.16357 
350 "W12" 90.42344 10.37156 52.17060 38.06334 20.18233 24.73855 
351 "L8" 94.40757 89.01961 40.96132 66.52036 74.85599 24.89442 
352 "N3" 90.30747 33.66445 67.37926 44.03652 27.21062 42.35220 
353 "E2" 8.854810 62.37278 10.44785 13.81577 25.81587 6.120787 
354 "F15" 65.25063 57.72793 16.60792 27.43277 29.95863 7.399653 
355 "U1" 10.01297 25.85794 64.27253 9.960208 7.711003 36.55490 
356 "C13" 70.63859 54.68070 42.74205 31.60081 30.12078 19.33544 
357 "AA7" 11.48241 6.845197 42.92973 4.473121 2.776756 15.61922 
358 "H12" 31.77691 51.84405 42.55741 15.26621 20.20699 18.15044 
359 "J9" 27.23583 53.67819 69.92294 20.28843 23.14116 46.12817 
360 "I15" 91.09483 66.36606 33.78195 49.80080 46.88066 16.03464 
361 "T1" 58.53513 44.11231 87.68902 32.37807 24.23709 73.39445 
362 "Z8" 89.22713 67.59747 77.28237 57.19217 50.59977 59.96705 
363 "S12" 26.67430 21.54726 66.88334 11.94730 7.811197 39.67201 
364 "Q4" 84.98054 89.45754 27.85229 57.87040 71.00593 17.42556 
365 "X3" 61.14290 4.531930 94.92485 30.55902 14.58973 85.30099 
366 "C12" 13.81704 90.47990 64.28779 36.53801 60.43177 45.35068 
