Epson_XP-960/Navigator/Colour_Documents/Navigator_Colour_Documents_120.ti2
CTI2   

DESCRIPTOR "Argyll Calibration Target chart information 2"
ORIGINATOR "Argyll printtarg"
CREATED "Thu Jun 18 13:21:51 2020"
TARGET_INSTRUMENT "X-Rite ColorMunki"
COMP_GREY_STEPS "32"
APPROX_WHITE_POINT "95.106486 100.000000 108.844025"
COLOR_REP "iRGB"
PAPER_SIZE "210.0x297.0"
RANDOM_START "591"
STEPS_IN_PASS "15"
PASSES_IN_STRIPS2 "14,14,14,14"
STRIP_INDEX_PATTERN "A-Z, A-Z"
PATCH_INDEX_PATTERN "0-9,@-9,@-9;1-999"
INDEX_ORDER "STRIP_THEN_PATCH"

NUMBER_OF_FIELDS 8
BEGIN_DATA_FORMAT
SAMPLE_ID SAMPLE_LOC RGB_R RGB_G RGB_B XYZ_X XYZ_Y XYZ_Z 
END_DATA_FORMAT

NUMBER_OF_SETS 840
BEGIN_DATA
1 "AC12" 100.0000 100.0000 100.0000 95.10649 100.0000 108.8440 
2 "U11" 61.69833 61.77615 45.08125 29.91769 33.40419 21.78111 
3 "AQ7" 0.00000 14.52049 100.0000 19.52693 9.458780 95.34757 
4 "B11" 0.00000 0.00000 0.00000 1.000000 1.000000 1.000000 
5 "M1" 62.17746 32.38727 16.40955 18.51054 14.48012 4.834586 
6 "AS11" 34.05814 39.25841 49.15541 13.08644 13.51675 22.10854 
7 "AP11" 30.21286 48.54963 100.0000 29.01614 23.93231 97.64160 
8 "AE6" 62.37583 92.85420 81.74868 56.41633 72.66835 71.30606 
9 "B7" 85.06294 83.82696 24.91341 53.95580 63.44465 14.99877 
10 "AN11" 81.85702 12.23621 100.0000 45.32070 22.51255 96.50882 
11 "AY11" 75.64355 14.46860 55.87243 28.26719 15.46314 27.88457 
12 "AF11" 32.25757 32.25757 32.25757 8.991660 9.407224 10.15827 
13 "P15" 90.13809 48.58930 20.14038 40.98596 32.12049 8.044016 
14 "BC5" 0.00000 90.83696 88.43519 42.99271 63.33720 81.72501 
15 "N15" 100.0000 0.00000 72.75654 50.55596 25.54193 48.87285 
16 "AN1" 0.00000 15.76867 68.90822 9.489096 5.608176 41.97180 
17 "AT11" 82.32700 35.93957 17.32967 31.50770 22.25617 5.874715 
18 "F12" 38.37797 87.03288 18.26505 32.31684 55.44634 12.47925 
19 "AU3" 91.79675 63.41039 22.42313 48.09553 44.10367 10.69650 
20 "C1" 6.263828 23.32494 40.65461 5.241204 5.236915 14.47664 
21 "J6" 19.17144 88.67018 60.74159 35.05272 57.88612 40.84915 
22 "BC14" 93.54849 93.54849 93.54849 81.88117 86.08697 93.68810 
23 "R9" 90.32273 90.32273 90.32273 75.70274 79.58726 86.60775 
24 "M10" 87.09697 87.09697 87.09697 69.80876 73.38680 79.85337 
25 "P11" 83.87121 83.87121 83.87121 64.19536 67.48150 73.42053 
26 "AJ10" 80.64546 80.64546 80.64546 58.85858 61.86721 67.30470 
27 "G12" 77.41970 77.41970 77.41970 53.79440 56.53969 61.50125 
28 "AS13" 74.19394 74.19394 74.19394 48.99867 51.49459 56.00546 
29 "S11" 70.96818 70.96818 70.96818 44.46718 46.72747 50.81246 
30 "A14" 67.74243 67.74243 67.74243 40.19559 42.23375 45.91731 
31 "BB8" 64.51667 64.51667 64.51667 36.17945 38.00878 41.31490 
32 "X12" 61.29091 61.29091 61.29091 32.41421 34.04774 37.00002 
33 "P4" 58.06516 58.06516 58.06516 28.89517 30.34571 32.96727 
34 "AJ3" 54.83940 54.83940 54.83940 25.61751 26.89761 29.21114 
35 "T13" 51.61364 51.61364 51.61364 22.57624 23.69820 25.72591 
36 "F2" 48.38636 48.38636 48.38636 19.76623 20.74207 22.50570 
37 "X7" 45.16060 45.16060 45.16060 17.18217 18.02363 19.54442 
38 "M14" 41.93484 41.93484 41.93484 14.81852 15.53708 16.83573 
39 "X5" 38.70909 38.70909 38.70909 12.66958 13.27640 14.37309 
40 "AW8" 35.48333 35.48333 35.48333 10.72937 11.23530 12.14965 
41 "G3" 100.0000 100.0000 100.0000 95.10649 100.0000 108.8440 
42 "AA3" 29.03182 29.03182 29.03182 7.449909 7.785303 8.391458 
43 "Q9" 25.80606 25.80606 25.80606 6.097238 6.362293 6.841326 
44 "I1" 22.58030 22.58030 22.58030 4.926365 5.130535 5.499530 
45 "AR1" 19.35454 19.35454 19.35454 3.929543 4.081879 4.357194 
46 "AY4" 16.12879 16.12879 16.12879 3.098470 3.207589 3.404801 
47 "BA1" 12.90303 12.90303 12.90303 2.424161 2.498217 2.632058 
48 "AH1" 9.677272 9.677272 9.677272 1.896786 1.943418 2.027697 
49 "AQ4" 6.451514 6.451514 6.451514 1.505402 1.531683 1.579180 
50 "AO12" 3.225757 3.225757 3.225757 1.234961 1.247179 1.269260 
51 "AW11" 100.0000 100.0000 0.00000 77.23538 92.85269 14.71507 
52 "M6" 100.0000 0.00000 100.0000 59.70128 29.19948 97.04219 
53 "AD12" 0.00000 100.0000 0.00000 36.40521 71.80052 12.80184 
54 "AR13" 0.00000 0.00000 100.0000 18.87111 8.147314 95.12896 
55 "P14" 100.0000 0.00000 0.00000 41.83017 22.05217 2.913230 
56 "AD5" 0.00000 100.0000 100.0000 54.27632 78.94783 106.9308 
57 "AV7" 0.00000 70.13199 100.0000 34.79908 39.99880 100.4383 
58 "AP15" 100.0000 0.00000 58.33829 47.18233 24.19270 31.10362 
59 "AY12" 100.0000 40.76448 0.00000 46.72647 31.84340 4.545344 
60 "E15" 0.00000 100.0000 40.21973 38.80736 72.76122 25.45419 
61 "AZ5" 52.76417 100.0000 0.00000 46.22594 76.86412 13.26202 
62 "BA3" 66.54459 0.00000 100.0000 35.21778 16.57571 95.89494 
63 "AT6" 0.00000 40.75990 0.00000 5.895154 10.78894 2.631732 
64 "AM13" 0.00000 0.00000 56.17762 5.927879 2.970840 26.95565 
65 "AA15" 100.0000 31.28557 100.0000 62.52532 34.84679 97.98355 
66 "AL3" 34.65629 0.00000 0.00000 5.019597 3.072517 1.188351 
67 "H10" 100.0000 100.0000 36.38209 79.18165 93.63107 24.96627 
68 "AX2" 52.59480 100.0000 100.0000 64.02836 83.97602 107.3878 
69 "AO13" 100.0000 49.00893 100.0000 66.95893 43.71276 99.46143 
70 "AC7" 100.0000 0.00000 14.29618 42.15236 22.18102 4.610216 
71 "AG6" 0.00000 28.49775 100.0000 21.20850 12.82145 95.90810 
72 "AG2" 100.0000 69.24697 0.00000 57.31463 53.01677 8.074762 
73 "AP1" 43.64385 43.53704 100.0000 31.02796 22.77094 97.31147 
74 "BD13" 33.47677 0.00000 100.0000 22.61299 10.07664 95.30430 
75 "AD10" 100.0000 56.58198 29.91989 53.04926 42.40453 13.07596 
76 "AP13" 50.86595 0.00000 55.50622 14.87013 7.596264 26.70794 
77 "O2" 0.00000 71.83337 48.50080 21.38293 36.03019 25.46573 
78 "E10" 49.78256 43.76898 0.00000 15.35140 16.85051 3.303748 
79 "H8" 43.24865 100.0000 44.29236 45.75490 76.28026 28.62953 
80 "AZ12" 0.00000 68.54658 0.00000 16.13797 31.27170 6.046031 
81 "C2" 100.0000 100.0000 61.90738 83.33417 95.29182 46.83804 
82 "G9" 68.79988 0.00000 0.00000 18.60136 10.07532 1.824769 
83 "AD1" 0.00000 100.0000 79.36675 47.00545 76.03994 68.63439 
84 "Z2" 0.00000 56.82307 50.49210 14.91687 22.57945 24.91532 
85 "V7" 100.0000 26.69108 58.01785 49.16861 28.26704 31.45012 
86 "AI10" 0.00000 0.00000 27.13664 2.069698 1.427812 6.634210 
87 "A8" 18.46799 100.0000 0.00000 37.57014 72.40116 12.85642 
88 "AD8" 100.0000 0.00000 44.32746 44.78312 23.23316 18.46673 
89 "P9" 100.0000 67.61578 100.0000 74.38691 58.56664 101.9374 
90 "AV13" 74.83940 0.00000 25.92660 23.20976 12.33843 7.140487 
91 "Y12" 100.0000 58.64042 59.57122 58.15871 45.73985 36.00387 
92 "N8" 17.90341 100.0000 100.0000 55.37641 79.51504 106.9823 
93 "AL10" 68.34821 100.0000 100.0000 71.62171 87.89117 107.7436 
94 "Q13" 59.02800 57.62570 0.00000 23.87009 28.11102 5.028691 
95 "AU8" 0.00000 15.43908 84.40375 13.90375 7.329162 65.36175 
96 "BA9" 85.58633 100.0000 0.00000 65.10413 86.59777 14.14662 
97 "Z4" 0.00000 43.57824 47.27092 10.03050 13.63671 20.73103 
98 "AJ13" 56.97871 49.46517 100.0000 37.88786 28.94090 98.14115 
99 "N14" 34.50370 0.00000 35.61608 6.844992 3.798335 10.99360 
100 "AG4" 27.46624 88.22614 0.00000 30.15485 55.58606 10.00117 
101 "AB3" 29.60708 62.18357 100.0000 33.98413 34.04823 99.33262 
102 "S15" 0.00000 100.0000 21.77768 37.10070 72.07867 16.46504 
103 "C6" 0.00000 0.00000 71.09789 9.288387 4.314831 44.65579 
104 "Y6" 63.22728 100.0000 13.05409 51.27848 79.43733 14.93849 
105 "AW6" 73.01137 100.0000 72.70924 65.20998 85.64453 59.63632 
106 "T9" 26.23941 100.0000 83.49584 50.57104 77.73032 75.48325 
107 "H3" 73.91012 100.0000 40.31281 59.46745 83.41228 26.48344 
108 "L14" 100.0000 30.71031 16.10742 44.94712 27.64916 5.913728 
109 "AX4" 0.00000 43.56146 82.99382 18.35708 16.95932 64.61107 
110 "E8" 0.00000 45.74960 25.06905 8.173456 13.88244 7.901445 
111 "T12" 27.96674 68.21393 0.00000 18.57134 32.28542 6.113547 
112 "H11" 100.0000 85.35439 0.00000 66.56373 71.51238 11.15782 
113 "P10" 0.00000 26.38743 0.00000 3.004296 5.008031 1.668104 
114 "F7" 72.19196 29.53841 0.00000 23.10448 16.12667 2.755685 
115 "E2" 0.00000 79.02800 61.06508 27.71709 44.95994 39.10146 
116 "X13" 82.97093 25.55581 100.0000 47.51294 25.70671 97.00992 
117 "V11" 73.78500 0.00000 72.07904 30.11535 15.02357 46.97271 
118 "F15" 16.13642 0.00000 0.00000 1.911238 1.469837 1.042699 
119 "AX10" 0.00000 83.78119 100.0000 42.58980 55.57807 103.0353 
120 "AQ12" 57.27321 100.0000 71.90356 56.64871 81.25507 58.11764 
121 "N12" 100.0000 74.11002 56.38056 64.80998 60.05963 35.07803 
122 "A3" 58.52750 86.03952 100.0000 56.37089 64.85826 104.1008 
123 "AS2" 100.0000 100.0000 88.24903 90.69603 98.23610 85.61371 
124 "W10" 32.67567 40.95827 0.00000 9.505517 12.72527 2.815348 
125 "AZ10" 21.41146 100.0000 61.63272 43.98277 75.00900 44.68308 
126 "AC8" 35.32158 100.0000 30.71946 41.95998 74.50571 20.23196 
127 "O13" 36.45991 0.00000 86.72923 18.40976 8.479457 69.38162 
128 "J2" 65.79080 0.00000 55.35058 21.70929 11.12597 26.87459 
129 "AF4" 87.32891 75.69085 100.0000 67.78827 61.39384 102.8307 
130 "AN9" 65.61074 18.41001 100.0000 35.71768 18.32402 96.20608 
131 "AR4" 0.00000 83.13268 0.00000 24.30748 47.60843 8.769224 
132 "AT14" 100.0000 26.70939 0.00000 43.88325 26.15774 3.597595 
133 "AA5" 45.69009 0.00000 12.33539 8.448921 4.811673 2.658552 
134 "F14" 30.08774 31.82727 100.0000 24.80411 15.54735 96.24490 
135 "R13" 100.0000 30.26322 72.09125 53.01818 30.74932 48.81888 
136 "BB5" 0.00000 76.10742 17.94156 20.60038 39.42197 9.918399 
137 "AZ15" 72.40101 67.05272 0.00000 35.13375 39.99369 6.729157 
138 "BD6" 100.0000 100.0000 12.02564 77.47591 92.94888 15.98195 
139 "AC10" 0.00000 100.0000 61.07576 42.32497 74.16805 43.98180 
140 "AR12" 100.0000 100.0000 100.0000 95.10649 100.0000 108.8440 
141 "BD4" 46.47593 69.25154 0.00000 23.95278 35.81867 6.512136 
142 "AZ9" 85.61685 0.00000 100.0000 47.59313 22.95648 96.47482 
143 "AT15" 0.00000 22.42008 29.20424 3.696519 4.409183 8.014771 
144 "K13" 0.00000 55.66796 100.0000 28.44146 27.28535 98.31910 
145 "AF5" 14.54185 0.00000 70.50736 9.893943 4.644725 43.88681 
146 "BB11" 45.82284 58.68315 62.89464 25.29978 28.74028 38.18282 
147 "W8" 67.84314 21.71664 25.51308 20.37938 12.91641 7.240855 
148 "AE8" 33.58358 15.85260 64.21302 12.14359 7.117118 36.25467 
149 "C11" 100.0000 86.94743 17.39376 68.07489 73.80357 13.91503 
150 "AL12" 33.57137 87.40520 44.74556 33.87198 56.32864 25.74381 
151 "AI9" 56.58961 23.88037 74.62425 23.32018 13.88412 50.72088 
152 "AJ7" 84.09247 100.0000 100.0000 81.85807 93.16908 108.2232 
153 "O7" 80.80110 61.22072 32.46204 39.53868 38.18957 14.20874 
154 "F13" 100.0000 71.80591 86.61021 71.52015 60.78180 76.47045 
155 "A10" 100.0000 13.71786 34.38926 44.15608 23.93343 12.23099 
156 "AR9" 100.0000 27.37469 33.21736 45.59848 27.00920 12.12159 
157 "W1" 12.93355 14.44114 0.00000 2.270028 2.619030 1.245630 
158 "D9" 100.0000 86.78569 33.26162 69.12541 74.04941 19.98577 
159 "BD11" 16.40192 0.00000 100.0000 19.80933 8.631064 95.17292 
160 "B4" 62.91447 0.00000 28.86091 16.64892 8.928648 8.051182 
161 "AH8" 84.01770 0.00000 0.00000 28.52672 15.19287 2.289854 
162 "R1" 49.74746 12.85115 0.00000 10.17665 6.521394 1.582472 
163 "M7" 87.48913 62.17441 100.0000 61.22802 48.08968 100.6081 
164 "S3" 37.48226 100.0000 72.54902 49.80779 77.70808 58.69043 
165 "AU9" 84.19623 42.44907 0.00000 33.99401 25.92935 4.074356 
166 "AE1" 49.93515 0.00000 100.0000 27.58587 12.64067 95.53732 
167 "AF13" 30.53330 0.00000 23.54314 4.907808 2.921368 5.403434 
168 "W7" 0.00000 0.00000 85.75570 13.61759 6.046241 67.45817 
169 "AE9" 0.00000 77.34035 85.29335 33.28149 45.61358 73.25711 
170 "BA5" 35.49859 74.53422 100.0000 41.33995 46.80846 101.4083 
171 "AJ2" 66.30961 88.31312 21.62814 44.61587 63.05128 14.27879 
172 "L1" 0.00000 11.89441 35.21782 3.286891 2.663232 10.73653 
173 "AL8" 43.21202 0.00000 69.14473 15.18001 7.410199 42.33091 
174 "M5" 100.0000 87.21141 68.53132 75.43207 77.02869 51.79417 
175 "E12" 60.62257 68.07355 100.0000 47.08293 44.81734 100.7215 
176 "A15" 36.07385 100.0000 0.00000 40.77389 74.05302 13.00654 
177 "U5" 0.00000 0.00000 41.61746 3.582247 2.032736 14.60096 
178 "BB13" 9.068437 49.78714 77.83780 19.00899 20.25566 56.96770 
179 "AR2" 86.05020 100.0000 31.01854 66.85727 87.33968 21.54123 
180 "N4" 61.36110 88.91585 0.00000 41.78897 62.28713 10.68192 
181 "BC10" 44.61585 75.09575 33.70718 28.05510 42.29266 16.25476 
182 "AO9" 64.17792 28.15900 67.01457 25.63657 16.24884 40.74541 
183 "O10" 18.01175 86.24247 72.48341 36.08301 55.66314 55.06549 
184 "I12" 100.0000 85.38338 100.0000 84.45445 78.69891 105.2933 
185 "AT1" 30.45853 100.0000 13.59426 39.78455 73.50874 14.50248 
186 "AM2" 70.36545 100.0000 57.24880 60.04571 83.39562 40.71863 
187 "K15" 70.02823 53.31655 100.0000 45.88929 35.00578 98.89043 
188 "AF2" 100.0000 46.46677 73.72702 57.28916 38.58759 52.40906 
189 "K14" 100.0000 100.0000 100.0000 95.10649 100.0000 108.8440 
190 "AB4" 46.08835 26.00137 100.0000 28.15101 15.82086 96.12142 
191 "AK15" 18.67399 65.72366 43.39208 18.80051 30.31716 20.51504 
192 "AP12" 0.00000 67.99115 34.50828 17.61102 31.42759 15.14089 
193 "A5" 17.58297 44.63874 53.12276 12.36498 15.16859 26.00523 
194 "AP4" 80.20142 33.71176 48.86549 32.72645 21.82313 22.43180 
195 "AO10" 0.00000 60.27314 62.91447 18.71119 26.30701 38.08456 
196 "AT5" 38.74418 48.74342 68.07965 20.77186 20.96963 43.26921 
197 "AT12" 0.00000 41.82956 60.28840 11.92415 13.64142 33.02617 
198 "Q1" 73.37453 42.27512 20.02441 27.19713 22.28799 6.838138 
199 "AA12" 100.0000 42.01419 30.86137 48.43598 33.04414 11.95496 
200 "S9" 13.97269 0.00000 27.29076 2.789449 1.797520 6.731037 
201 "BC3" 44.56855 78.89220 91.13909 43.02287 51.74254 84.48396 
202 "AX12" 20.24567 56.10895 21.57778 12.80321 21.45715 7.909304 
203 "AB15" 0.00000 29.17067 47.38231 6.856360 7.261705 19.75813 
204 "AB2" 57.76303 7.397574 43.64385 16.05027 8.768357 16.68312 
205 "T5" 10.60807 100.0000 50.83696 40.81915 73.61773 33.70748 
206 "D3" 63.70184 82.96941 45.39712 42.15287 56.29735 25.79815 
207 "Z11" 34.11765 0.00000 48.53895 8.479333 4.441381 20.07963 
208 "AL9" 73.70871 53.02510 0.00000 30.13023 28.79450 4.830912 
209 "G4" 100.0000 17.73098 83.97803 54.80279 28.73961 66.61774 
210 "AZ13" 16.68421 45.07362 0.00000 8.030368 13.62283 3.066297 
211 "X9" 80.10834 34.40757 80.18769 40.01081 24.95564 60.44011 
212 "K7" 0.00000 30.48295 15.35973 4.043864 6.502402 3.817164 
213 "P5" 100.0000 74.61357 12.95491 60.39009 58.73124 10.44324 
214 "AD6" 23.22423 67.19463 91.96460 32.05840 36.79912 83.74170 
215 "AH4" 0.00000 84.77913 34.03677 27.05407 50.38943 18.04682 
216 "AS12" 88.63050 37.48989 100.0000 54.03177 32.36904 97.95261 
217 "R2" 15.64050 28.18036 100.0000 22.01847 13.16193 95.93116 
218 "W12" 51.82727 0.00000 0.00000 10.44558 5.870172 1.442603 
219 "AP5" 54.82261 100.0000 84.51209 59.28823 82.18693 77.60695 
220 "V2" 49.09590 0.00000 25.51461 10.34821 5.710491 6.378880 
221 "AC13" 85.48257 0.00000 32.83742 31.19401 16.38605 10.63245 
222 "M4" 34.09171 100.0000 100.0000 58.16174 80.95117 107.1129 
223 "AD13" 40.19226 9.117266 8.293278 6.923651 4.496130 2.072516 
224 "AD14" 38.13840 73.83993 54.19089 28.32914 41.08022 31.17850 
225 "AL6" 14.85161 42.49638 100.0000 25.00524 19.24639 96.94833 
226 "Q2" 37.82406 49.37819 9.410239 13.36228 18.30185 4.544141 
227 "E3" 16.08453 72.93507 100.0000 37.15890 43.37313 100.9654 
228 "AR11" 0.00000 16.46754 53.61868 6.270723 4.418866 24.71856 
229 "C9" 12.26062 100.0000 34.35111 38.69991 72.78387 21.92667 
230 "AK2" 100.0000 86.81010 50.23728 71.38992 74.98106 31.83303 
231 "F3" 86.38743 26.93217 0.00000 32.39576 20.28565 3.069134 
232 "L10" 11.54955 73.15633 17.10842 19.45684 36.43606 9.191682 
233 "BB1" 14.87144 26.82994 54.66087 8.502140 7.405625 26.17745 
234 "C7" 100.0000 74.15732 70.87968 68.10065 61.41649 52.28450 
235 "AB8" 100.0000 15.66491 17.12825 43.02383 23.72859 5.502477 
236 "AV14" 0.00000 14.08560 0.00000 1.622158 2.244141 1.207388 
237 "V3" 100.0000 15.55505 100.0000 60.44145 30.67962 97.28892 
238 "A9" 27.56237 26.81163 0.00000 5.589848 6.436988 1.807758 
239 "X11" 46.69871 100.0000 15.85107 44.33493 75.84442 15.19015 
240 "H9" 47.61730 35.01335 27.69665 13.54064 12.62135 8.423876 
241 "L8" 18.41917 26.99474 69.22713 12.06707 8.915075 42.89384 
242 "N6" 0.00000 0.00000 12.95186 1.272149 1.108842 2.433436 
243 "AS15" 100.0000 62.94499 43.53857 57.20611 48.25288 22.06125 
244 "AZ7" 68.09491 100.0000 27.02525 54.66977 81.09507 19.19602 
245 "AK14" 30.99718 52.08820 75.77325 22.03111 23.02783 54.23546 
246 "P3" 46.95964 18.45731 86.17227 22.39924 12.05553 68.88211 
247 "H14" 100.0000 54.72190 0.00000 51.04870 40.48666 5.986101 
248 "Y14" 44.84169 41.65255 72.84962 21.79049 18.31354 49.12159 
249 "AL11" 46.73533 20.10224 47.84314 13.21721 8.653262 20.06726 
250 "AH9" 0.00000 35.36278 33.75753 6.300968 8.934627 10.98847 
251 "H15" 25.13313 11.71740 0.00000 3.555603 2.995332 1.250558 
252 "AG14" 19.90539 70.81254 70.43259 26.73061 37.48087 49.23861 
253 "AE11" 71.39239 73.26467 60.04730 43.37143 48.24430 37.78386 
254 "AW3" 73.54696 84.69673 0.00000 45.72836 60.13555 10.05912 
255 "AY7" 46.88487 87.27245 0.00000 34.61295 56.92568 10.02495 
256 "V8" 0.00000 30.27085 67.76226 11.08887 9.259368 41.11081 
257 "AM6" 41.33974 100.0000 85.32845 54.69747 79.78902 78.78650 
258 "K1" 0.00000 48.39246 11.79675 8.294959 15.21507 4.581432 
259 "Y5" 81.12917 59.37438 55.81598 42.32392 38.10228 31.45701 
260 "AP10" 100.0000 43.42870 59.60784 53.04195 35.49546 34.33619 
261 "L12" 100.0000 100.0000 100.0000 95.10649 100.0000 108.8440 
262 "B12" 83.72015 88.20783 100.0000 72.81820 75.49871 105.2884 
263 "V10" 55.30785 58.96086 81.38857 33.95127 32.80009 64.20684 
264 "I15" 70.35630 0.00000 86.55985 32.38451 15.69152 69.73680 
265 "P12" 82.11490 13.87350 0.00000 27.74993 15.69186 2.427087 
266 "AX1" 65.30861 0.00000 14.28244 17.00300 9.213991 3.429110 
267 "AO1" 59.88861 100.0000 45.05531 52.41661 79.70237 29.51428 
268 "BA11" 100.0000 100.0000 75.22240 86.63545 96.61212 64.22620 
269 "BD14" 29.08064 23.99023 91.52514 20.08633 11.61604 78.67505 
270 "E9" 57.70199 88.05066 72.90150 48.23441 63.71701 56.56587 
271 "AE7" 57.13588 55.57946 16.80171 22.64907 26.26693 6.985586 
272 "BD8" 100.0000 100.0000 48.56336 80.82710 94.28915 33.63303 
273 "AH2" 50.97429 62.09354 27.18700 23.34841 30.44968 11.13605 
274 "O14" 90.15183 68.40162 72.73060 57.05864 51.25715 53.45745 
275 "AP9" 45.85183 60.25788 100.0000 37.50926 34.65434 99.26395 
276 "I9" 17.08705 0.00000 86.23484 14.78740 6.630945 68.34578 
277 "AU2" 87.58831 0.00000 71.18334 39.54586 19.91314 46.18868 
278 "U10" 45.25063 83.70794 26.05936 32.70914 52.36663 14.41893 
279 "L13" 14.12528 0.00000 13.45998 2.011518 1.487938 2.563992 
280 "BD12" 53.20974 41.72580 37.13741 18.17684 17.25538 13.88367 
281 "K4" 85.37270 74.95537 44.03906 50.92498 53.82373 23.83438 
282 "AU14" 100.0000 100.0000 100.0000 95.10649 100.0000 108.8440 
283 "F6" 10.37919 100.0000 11.91730 37.07589 72.11891 14.07025 
284 "AX15" 0.00000 55.48943 0.00000 10.50335 20.00404 4.167810 
285 "AW12" 69.83139 100.0000 0.00000 54.59875 81.18116 13.65435 
286 "B1" 92.31861 76.78645 22.14847 55.27518 57.84294 12.87979 
287 "AA1" 21.77005 9.568933 43.61334 5.771981 3.622684 16.20951 
288 "R11" 100.0000 100.0000 100.0000 95.10649 100.0000 108.8440 
289 "AK7" 0.00000 60.42115 85.40932 24.95563 28.90318 70.66998 
290 "AX8" 79.77264 52.45289 39.58343 36.22673 31.37149 17.18364 
291 "B14" 100.0000 100.0000 100.0000 95.10649 100.0000 108.8440 
292 "BB14" 31.81811 0.00000 61.51827 10.38594 5.143714 32.83845 
293 "BB4" 56.18830 23.90631 23.25322 14.70246 10.42277 6.234876 
294 "AN6" 25.54055 79.76349 46.60258 27.69055 45.89931 25.49337 
295 "AN15" 41.86313 56.49500 0.00000 16.85694 23.84413 4.574427 
296 "T10" 64.86610 14.86381 0.00000 17.13056 10.33078 1.951544 
297 "T8" 100.0000 100.0000 100.0000 95.10649 100.0000 108.8440 
298 "AD9" 91.07195 80.35706 56.02350 60.51561 63.16748 35.54564 
299 "B2" 79.04631 21.01015 78.73808 36.69908 20.11163 57.39853 
300 "Z12" 84.09094 0.00000 14.88670 28.92725 15.35938 4.113692 
301 "AI1" 38.81437 54.70207 26.37980 16.31446 22.44995 9.634487 
302 "G8" 30.42649 79.12108 69.30190 32.76171 47.42201 49.33464 
303 "M12" 76.28748 56.96193 65.31319 40.09095 35.29662 41.54979 
304 "BB7" 55.80529 0.00000 89.64218 26.04193 12.29864 74.97394 
305 "X14" 82.53910 0.00000 58.71824 32.87674 16.80780 30.83426 
306 "AX14" 65.51156 31.41375 48.72816 23.25581 16.28334 21.74630 
307 "K2" 81.68307 11.60143 29.30343 28.53260 15.71837 8.934210 
308 "BC8" 12.89235 87.14733 100.0000 45.40935 60.30073 103.7984 
309 "W2" 59.53765 74.94774 0.00000 32.25857 44.53071 7.756364 
310 "R7" 100.0000 0.00000 86.51865 54.70216 27.20015 70.71134 
311 "AY3" 86.39200 100.0000 66.97948 72.97547 89.81667 52.40786 
312 "K6" 100.0000 100.0000 100.0000 95.10649 100.0000 108.8440 
313 "AQ1" 0.00000 41.99893 100.0000 24.08661 18.57687 96.86748 
314 "AS14" 100.0000 13.14260 0.00000 42.38284 23.15735 3.097455 
315 "AG3" 75.14916 31.50988 58.84337 30.74989 19.96131 31.68872 
316 "AM3" 57.27626 27.70275 0.00000 14.95406 11.47222 2.286508 
317 "R5" 65.04005 41.31533 0.00000 21.57638 19.08502 3.407214 
318 "AS3" 19.20348 80.60426 23.46227 24.79818 45.44618 12.53587 
319 "L3" 100.0000 45.70687 15.67102 48.45522 34.69487 6.989129 
320 "AC5" 100.0000 60.73701 73.93301 62.45884 48.83602 54.40831 
321 "AJ1" 42.88396 29.62997 0.00000 9.815621 9.298100 2.137472 
322 "AE13" 100.0000 34.77531 86.05783 58.05878 34.15868 71.07086 
323 "AI3" 61.57931 0.00000 69.21340 22.57871 11.22301 42.76736 
324 "AB6" 100.0000 0.00000 29.13710 43.06391 22.54559 9.411469 
325 "N13" 0.00000 53.81857 36.32410 11.82994 19.55356 14.18062 
326 "L9" 49.45296 68.85023 77.41054 34.84512 39.98037 59.28832 
327 "AB14" 100.0000 100.0000 100.0000 95.10649 100.0000 108.8440 
328 "C14" 71.25200 83.72930 100.0000 61.58446 65.32294 103.9159 
329 "L6" 72.35370 36.54994 100.0000 42.45408 26.08461 97.34931 
330 "T14" 81.90280 100.0000 15.45434 62.76638 85.34970 15.96508 
331 "AQ9" 27.25261 85.36812 100.0000 46.07818 58.89596 103.4920 
332 "P1" 27.85382 78.90593 15.71069 24.68252 43.92897 10.03290 
333 "AM9" 35.80072 100.0000 58.50156 46.09026 76.17128 41.36735 
334 "AQ3" 77.99802 8.653391 47.22667 27.95869 14.93225 20.00148 
335 "AN10" 41.88144 25.98154 29.94736 10.22678 8.490924 8.797237 
336 "H6" 100.0000 100.0000 100.0000 95.10649 100.0000 108.8440 
337 "BB15" 19.04326 40.68971 15.07134 7.463550 11.52983 4.544494 
338 "A13" 50.27237 13.23873 100.0000 28.27344 13.82566 95.72984 
339 "A4" 68.04456 58.02090 21.59915 29.33738 31.08127 8.903387 
340 "AO11" 82.85344 47.21447 79.48577 45.00826 32.40005 60.50360 
341 "M2" 10.55924 90.21439 0.00000 29.47461 57.28003 10.36398 
342 "AW15" 9.610132 35.06065 43.63012 7.810150 9.480102 17.24439 
343 "AO4" 71.07805 92.21790 65.06294 56.18836 72.38626 47.55715 
344 "AZ2" 82.95720 49.66354 100.0000 53.08982 36.87464 98.87193 
345 "AS6" 100.0000 71.78759 27.40978 59.69864 56.03830 14.25353 
346 "AV2" 57.57382 33.73159 100.0000 34.04680 20.86352 96.78428 
347 "BC11" 28.70375 0.00000 11.11620 3.946521 2.494757 2.242832 
348 "AI4" 100.0000 14.04135 67.50591 49.83489 26.24344 42.02211 
349 "AB7" 100.0000 86.38895 85.54208 79.79235 77.89384 77.47011 
350 "AN5" 33.14260 27.41131 53.21736 11.20666 8.964928 24.95756 
351 "M3" 66.11887 24.84169 36.60334 20.86539 13.65493 12.72981 
352 "AL5" 36.71015 49.69558 36.92836 15.01724 19.09413 14.28082 
353 "N5" 100.0000 53.55917 86.98253 63.65543 44.85429 74.46648 
354 "W6" 81.60830 56.86732 75.68780 46.33972 38.15546 55.74951 
355 "AU5" 72.27283 51.18181 75.26055 38.02286 30.83058 54.14531 
356 "AS5" 32.06531 15.47265 100.0000 23.02944 11.37957 95.53387 
357 "AM4" 26.30655 32.78401 81.39620 17.62453 12.88692 61.23532 
358 "D1" 18.84184 0.00000 39.57733 4.530890 2.551981 13.28597 
359 "BD7" 62.04623 37.59670 60.44709 24.91886 18.79231 33.50999 
360 "AA8" 48.62287 78.91508 55.91516 34.83899 48.65425 33.98739 
361 "W11" 24.85389 78.58549 80.40589 34.50757 47.49725 65.43043 
362 "N7" 48.55573 13.52255 73.51644 18.71355 9.961187 48.61409 
363 "AF7" 69.88785 100.0000 86.87877 67.62539 86.39483 82.09392 
364 "AJ9" 51.24437 76.08301 21.29549 29.98634 44.21972 11.30910 
