Epson_XP-960/PermaJet/Ultra_Pearl_295/PermaJet_Ultra_Pearl_295_XP-960.ti3
CTI3   

DESCRIPTOR "Argyll Calibration Target chart information 3"
ORIGINATOR "Argyll chartread"
CREATED "Fri Sep 14 23:56:36 2018"
DEVICE_CLASS "OUTPUT"
COMP_GREY_STEPS "8"
COLOR_REP "iRGB_XYZ"
TARGET_INSTRUMENT "X-Rite ColorMunki"
DEVCALSTD "XRGA"
SPECTRAL_BANDS "106"
SPECTRAL_START_NM "380.000000"
SPECTRAL_END_NM "730.000000"

NUMBER_OF_FIELDS 114
BEGIN_DATA_FORMAT
SAMPLE_ID SAMPLE_LOC RGB_R RGB_G RGB_B XYZ_X XYZ_Y XYZ_Z SPEC_380 SPEC_383 SPEC_387 SPEC_390 SPEC_393 SPEC_397 SPEC_400 SPEC_403 SPEC_407 SPEC_410 SPEC_413 SPEC_417 SPEC_420 SPEC_423 SPEC_427 SPEC_430 SPEC_433 SPEC_437 SPEC_440 SPEC_443 SPEC_447 SPEC_450 SPEC_453 SPEC_457 SPEC_460 SPEC_463 SPEC_467 SPEC_470 SPEC_473 SPEC_477 SPEC_480 SPEC_483 SPEC_487 SPEC_490 SPEC_493 SPEC_497 SPEC_500 SPEC_503 SPEC_507 SPEC_510 SPEC_513 SPEC_517 SPEC_520 SPEC_523 SPEC_527 SPEC_530 SPEC_533 SPEC_537 SPEC_540 SPEC_543 SPEC_547 SPEC_550 SPEC_553 SPEC_557 SPEC_560 SPEC_563 SPEC_567 SPEC_570 SPEC_573 SPEC_577 SPEC_580 SPEC_583 SPEC_587 SPEC_590 SPEC_593 SPEC_597 SPEC_600 SPEC_603 SPEC_607 SPEC_610 SPEC_613 SPEC_617 SPEC_620 SPEC_623 SPEC_627 SPEC_630 SPEC_633 SPEC_637 SPEC_640 SPEC_643 SPEC_647 SPEC_650 SPEC_653 SPEC_657 SPEC_660 SPEC_663 SPEC_667 SPEC_670 SPEC_673 SPEC_677 SPEC_680 SPEC_683 SPEC_687 SPEC_690 SPEC_693 SPEC_697 SPEC_700 SPEC_703 SPEC_707 SPEC_710 SPEC_713 SPEC_717 SPEC_720 SPEC_723 SPEC_727 SPEC_730 
END_DATA_FORMAT

NUMBER_OF_SETS 210
BEGIN_DATA
1 "K12" 100.0000 100.0000 100.0000 73.50715 75.43052 70.20447 68.65198 68.65198 68.65198 68.65198 68.65198 68.65198 68.65198 68.67474 68.67951 68.63351 68.50394 68.46160 68.67763 74.24509 78.32159 81.05691 82.60574 83.37987 83.70024 83.87626 84.07866 84.49315 85.19733 86.06866 87.10759 88.47892 90.05855 91.55248 92.52183 92.57833 91.79240 90.47074 88.61759 86.83629 85.35812 84.11977 83.35953 82.67284 82.18620 81.62531 80.99422 80.27308 79.35687 78.31824 77.30892 76.47177 75.88222 75.63344 75.70170 75.86208 75.86977 75.60361 74.93522 73.91379 72.64870 71.25725 69.72070 68.05761 66.34628 64.90192 64.06642 64.20632 65.61468 68.23022 71.39894 74.33818 76.50250 77.84305 78.61368 79.03721 79.33296 79.57999 79.80595 80.09238 80.27884 80.46505 80.71046 81.01091 81.31048 81.59406 81.87434 82.26225 82.73697 83.12766 83.49393 83.71422 83.92339 84.16331 84.50162 84.95476 85.32482 85.51596 85.70812 85.98250 86.29197 86.67994 86.85953 87.09223 87.51784 87.65656 87.55663 87.56184 87.76381 87.78154 87.67401 87.33511 
2 "K13" 0.00000 31.54498 19.63836 2.302586 3.753609 3.357622 3.164065 3.164065 3.164065 3.164065 3.164065 3.164065 3.164065 3.165095 3.165295 3.163154 3.157162 3.155189 3.165111 3.231747 3.307641 3.353102 3.357013 3.352297 3.341023 3.332852 3.341169 3.362447 3.417701 3.500406 3.558098 3.618773 3.714512 3.838599 4.030106 4.350114 4.750277 5.241460 6.021484 6.952455 7.820368 8.532309 9.020356 9.214663 9.156154 8.876503 8.484743 8.051053 7.652960 7.297875 6.950892 6.588532 6.187088 5.731391 5.230434 4.692111 4.141552 3.613057 3.133448 2.714609 2.365543 2.073489 1.835904 1.641669 1.487006 1.369285 1.282505 1.221622 1.176588 1.150793 1.144580 1.143369 1.151669 1.170075 1.188213 1.225036 1.282431 1.363559 1.475401 1.620121 1.799146 2.018947 2.257317 2.530185 2.844011 3.189414 3.537814 3.871419 4.196718 4.484990 4.734187 4.954320 5.156022 5.415544 5.786981 6.325650 7.046700 7.899652 8.989724 10.38119 11.97338 13.74812 15.47038 17.26080 19.17809 20.97500 22.67157 24.44916 26.25743 27.98846 29.62643 31.10644 
3 "J3" 0.00000 19.55749 34.53422 2.283549 2.756257 4.593903 5.058272 5.058272 5.058272 5.058272 5.058272 5.058272 5.058272 5.060133 5.060670 5.057468 5.048110 5.045180 5.061283 5.287522 5.478673 5.586421 5.615727 5.602436 5.566675 5.527015 5.494035 5.475632 5.470749 5.479272 5.487032 5.477686 5.475497 5.478939 5.497663 5.542019 5.665304 5.887216 6.177155 6.512614 6.816975 6.940058 6.887348 6.641793 6.275673 5.830991 5.389225 5.002418 4.701509 4.455831 4.239759 4.035203 3.812785 3.560299 3.274144 2.965236 2.653653 2.358013 2.091573 1.863165 1.676425 1.529186 1.409303 1.306317 1.221108 1.151635 1.102552 1.068726 1.051735 1.045515 1.045225 1.052291 1.068303 1.089189 1.117907 1.162750 1.225968 1.311058 1.433406 1.584565 1.765833 1.989466 2.244991 2.535702 2.857092 3.209610 3.575675 3.937516 4.266318 4.554097 4.813497 5.034220 5.263415 5.511497 5.849661 6.350194 7.065452 7.985375 9.136223 10.50732 12.11011 13.88605 15.68164 17.47303 19.38057 21.23976 23.02900 24.81144 26.59915 28.34110 30.09711 31.70314 
4 "D3" 58.59770 86.10971 69.36141 31.75383 39.81980 33.00620 30.82270 30.82270 30.82270 30.82270 30.82270 30.82270 30.82270 30.83256 30.83434 30.81331 30.75476 30.73537 30.83193 32.77050 34.21954 35.15480 35.63988 35.90661 36.08494 36.26120 36.47794 36.82536 37.34751 38.01544 38.83771 39.82259 40.96943 42.15934 43.34249 44.50475 45.76381 47.25820 48.83352 50.62980 52.54957 54.34560 55.97053 57.13751 57.89846 58.16609 58.02745 57.55137 56.76382 55.72885 54.56474 53.33446 52.09897 50.89010 49.65416 48.28677 46.69531 44.84029 42.71234 40.38301 37.94365 35.50489 33.09203 30.75467 28.57311 26.67189 25.17511 24.19215 23.77513 23.86255 24.25683 24.73019 25.17186 25.60104 26.08215 26.67008 27.42352 28.34275 29.40472 30.59441 31.85552 33.17689 34.54659 35.93530 37.27933 38.58903 39.85644 41.07374 42.21060 43.19804 44.06175 44.80802 45.52708 46.32523 47.27072 48.43322 49.77378 51.27579 53.01298 54.92226 56.89300 58.85954 60.68665 62.40164 64.11458 65.65549 66.89256 68.06959 69.28754 70.34680 71.29543 72.07695 
5 "J14" 36.31952 9.677272 36.17609 7.840343 5.329782 4.349720 5.639781 5.639781 5.639781 5.639781 5.639781 5.639781 5.639781 5.641627 5.641995 5.638191 5.627522 5.624017 5.641720 5.837544 5.977784 6.029873 5.984042 5.888944 5.773842 5.656980 5.549423 5.455156 5.372265 5.293740 5.213238 5.109507 4.975863 4.850322 4.732267 4.635654 4.636608 4.742464 4.863740 5.004119 5.121434 5.099576 4.965865 4.706478 4.379240 4.037978 3.736405 3.504787 3.361641 3.280639 3.234246 3.199978 3.157198 3.092292 2.997760 2.879199 2.752090 2.636890 2.553809 2.524283 2.564973 2.681725 2.872241 3.125530 3.432286 3.786427 4.185032 4.629671 5.139330 5.714320 6.321398 6.934021 7.532841 8.119917 8.716470 9.367709 10.09997 10.91833 11.83765 12.83537 13.87716 14.96879 16.09478 17.23572 18.35183 19.39774 20.34625 21.17254 21.83841 22.29149 22.60838 22.79653 22.97806 23.27948 23.85158 24.82472 26.22099 27.94862 30.08214 32.60176 35.41260 38.32337 41.00578 43.48287 45.87657 47.98970 49.87809 51.67557 53.44500 55.08739 56.60388 57.79175 
6 "C3" 100.0000 100.0000 100.0000 74.37742 76.35466 71.08189 69.27189 69.27189 69.27189 69.27189 69.27189 69.27189 69.27189 69.29484 69.29963 69.25319 69.12244 69.07969 69.29766 74.98498 79.10871 81.85261 83.38029 84.14815 84.52960 84.81146 85.12110 85.58658 86.28237 87.17360 88.27443 89.68586 91.34633 92.92214 93.91214 94.04716 93.27857 91.82994 89.84855 87.91246 86.31425 85.08402 84.31041 83.63956 83.09881 82.54684 81.93825 81.22750 80.30874 79.25055 78.23523 77.38644 76.80667 76.57389 76.63309 76.79508 76.82682 76.55697 75.88183 74.85668 73.58818 72.18405 70.64939 68.98832 67.27476 65.79459 64.91972 65.04702 66.46701 69.08830 72.28520 75.22057 77.36257 78.70648 79.48444 79.93356 80.21048 80.44701 80.66648 80.90320 81.10889 81.32108 81.56036 81.84733 82.13568 82.42826 82.73009 83.10199 83.54979 83.94306 84.33561 84.63770 84.88451 85.09615 85.41115 85.79272 86.09265 86.34099 86.62399 86.87439 87.16591 87.46467 87.76620 88.01639 88.28705 88.45065 88.52627 88.57263 88.66348 88.80666 88.99703 89.03769 
7 "C8" 70.64317 82.40940 93.62173 44.09826 46.84211 57.14370 58.03664 58.03664 58.03664 58.03664 58.03664 58.03664 58.03664 58.05703 58.06221 58.02449 57.91613 57.88153 58.06538 62.63363 65.95877 68.13999 69.34389 69.92959 70.16427 70.29347 70.38776 70.52703 70.79243 71.08352 71.45661 72.06200 72.75804 73.35284 73.47136 72.94870 71.82794 70.34371 68.53682 66.81383 65.33132 64.02328 62.92203 61.84581 60.75604 59.64759 58.54577 57.48748 56.39920 55.29432 54.24835 53.24449 52.34123 51.53295 50.77361 49.96375 48.99057 47.81235 46.41556 44.85732 43.20989 41.53545 39.84788 38.16398 36.53064 35.09835 34.05140 33.56018 33.72961 34.50379 35.60220 36.68521 37.57932 38.29690 38.93651 39.61240 40.40010 41.31171 42.32248 43.43824 44.59883 45.79482 47.02702 48.28630 49.51991 50.69761 51.81848 52.88947 53.86555 54.70804 55.48285 56.09711 56.64762 57.25373 58.02124 59.03117 60.15665 61.40599 62.90193 64.55448 66.29843 67.98648 69.55930 70.98822 72.30990 73.45550 74.45174 75.39124 76.21988 76.97579 77.79313 78.47659 
8 "J6" 81.60983 36.98939 30.78050 31.51218 24.03524 6.695323 6.653723 6.653723 6.653723 6.653723 6.653723 6.653723 6.653723 6.654600 6.653717 6.647899 6.633973 6.628478 6.647958 6.893846 7.047651 7.092932 7.047150 6.966737 6.883935 6.823498 6.797333 6.812739 6.886445 7.012868 7.161406 7.332154 7.539400 7.817243 8.153822 8.582238 9.203842 10.08109 11.21330 12.48570 13.74286 14.78379 15.53326 15.89515 15.94224 15.75306 15.46296 15.20604 15.03298 14.94852 14.93392 14.95368 14.96809 14.95497 14.90700 14.82513 14.74459 14.73215 14.84151 15.13704 15.66836 16.45860 17.48870 18.71978 20.10834 21.67320 23.48659 25.64980 28.28127 31.37764 34.68672 37.88868 40.72155 43.11500 45.14204 46.92040 48.55658 50.09736 51.56786 53.00140 54.31223 55.56052 56.78278 57.95969 59.04403 60.00370 60.82055 61.55261 62.17434 62.54539 62.79469 62.92635 63.08874 63.35880 63.87349 64.74381 65.85917 67.11117 68.64690 70.46093 72.44465 74.37355 75.99645 77.43756 78.78949 79.78687 80.57259 81.32982 82.17758 82.82169 83.32532 83.53416 
9 "F1" 10.43259 50.62333 61.71969 6.528783 9.384169 17.33679 16.99043 16.99043 16.99043 16.99043 16.99043 16.99043 16.99043 16.99670 16.99852 16.98778 16.95636 16.94654 17.00067 18.14862 19.09721 19.76905 20.18164 20.41973 20.55467 20.65437 20.72711 20.82105 20.97158 21.14113 21.33526 21.56489 21.77284 21.92677 22.13187 22.34306 22.52351 22.83812 23.28330 23.72276 24.07241 24.15144 23.94796 23.42333 22.62393 21.66354 20.67381 19.70406 18.76251 17.85991 16.95719 16.02382 15.03790 13.98288 12.86030 11.67282 10.45309 9.227055 8.042823 6.924776 5.905662 5.009395 4.236024 3.586791 3.055065 2.645630 2.343165 2.130864 2.001028 1.936292 1.908927 1.911144 1.928701 1.972893 2.056779 2.174894 2.339815 2.561649 2.837402 3.170053 3.569165 4.015623 4.525026 5.074932 5.683169 6.314337 6.933154 7.515784 8.051599 8.539474 8.964180 9.271691 9.554749 9.887733 10.33491 11.05295 12.03263 13.26490 14.79076 16.62485 18.74581 20.96788 23.16708 25.33178 27.42138 29.46019 31.45631 33.41707 35.44325 37.23675 38.92450 40.55244 
10 "A1" 93.49660 21.73190 61.04677 37.26085 23.18512 15.18724 20.61453 20.61453 20.61453 20.61453 20.61453 20.61453 20.61453 20.62109 20.62224 20.60814 20.56895 20.55594 20.62045 21.61872 22.19190 22.36012 22.16335 21.75479 21.27340 20.79683 20.31003 19.81239 19.33108 18.84402 18.37896 17.96730 17.50530 16.91972 16.27063 15.69014 15.15429 14.72676 14.41460 14.00340 13.54309 13.00266 12.35789 11.60290 10.81491 10.07088 9.451625 8.999449 8.717001 8.570564 8.517721 8.525749 8.543368 8.543969 8.506327 8.440179 8.380494 8.377595 8.509835 8.850604 9.472098 10.43842 11.77196 13.46277 15.49101 17.88233 20.70051 24.04929 28.06832 32.78604 37.98515 43.24553 48.16510 52.52525 56.29263 59.52961 62.31244 64.70109 66.74344 68.49527 69.99202 71.28375 72.40507 73.42569 74.33086 75.11767 75.80987 76.43552 77.00269 77.47505 77.89214 78.20909 78.44620 78.78545 79.31202 79.96974 80.66115 81.42982 82.28497 83.17628 84.14746 85.16546 86.08208 86.90081 87.56722 88.10797 88.53595 88.93501 89.30223 89.54418 89.99840 90.38428 
11 "B1" 14.28550 14.28550 14.28550 3.133833 3.160191 2.503767 2.809129 2.809129 2.809129 2.809129 2.809129 2.809129 2.809129 2.810024 2.810183 2.808264 2.802925 2.801154 2.809943 2.874793 2.913624 2.926949 2.900092 2.858784 2.820344 2.790678 2.770368 2.761438 2.762445 2.773988 2.775739 2.767834 2.816807 2.855465 2.863650 2.979530 3.159741 3.368967 3.811723 4.256162 4.648841 4.991260 5.162498 5.149181 4.991252 4.754516 4.513400 4.288843 4.114779 3.988185 3.888942 3.791658 3.677868 3.528472 3.340077 3.117986 2.884892 2.661835 2.459410 2.297475 2.169980 2.081591 2.022883 1.977910 1.936145 1.908137 1.892185 1.887173 1.903632 1.941336 1.994710 2.058392 2.134185 2.226175 2.343495 2.499005 2.705732 2.965257 3.281945 3.660085 4.098798 4.591245 5.139710 5.748320 6.380474 7.029431 7.669317 8.265668 8.794848 9.269876 9.667996 9.977498 10.29487 10.70991 11.25432 12.02119 13.03213 14.30374 15.88716 17.71623 19.70606 21.85873 24.01984 26.18397 28.24901 30.32812 32.31215 34.15206 36.02348 37.86527 39.64234 41.31917 
12 "F5" 71.42901 71.42901 71.42901 38.04410 39.11454 32.15535 32.71907 32.71907 32.71907 32.71907 32.71907 32.71907 32.71907 32.72968 32.73172 32.70955 32.64755 32.62712 32.72978 34.76187 36.23818 37.12096 37.48778 37.58902 37.58109 37.56071 37.56136 37.66320 37.88694 38.18925 38.62450 39.20326 39.82055 40.42666 41.03032 41.48833 41.90421 42.42926 43.06437 43.78087 44.49085 45.03748 45.43655 45.49236 45.27885 44.85972 44.30562 43.71435 43.10217 42.49526 41.92765 41.39238 40.89448 40.43794 39.99019 39.47738 38.87411 38.16294 37.35788 36.51777 35.68367 34.88915 34.10326 33.31280 32.52804 31.87521 31.50389 31.57100 32.20785 33.38184 34.82588 36.23895 37.41671 38.37708 39.23658 40.08741 41.01258 42.03500 43.13883 44.32761 45.53188 46.74913 48.00794 49.27616 50.51380 51.67942 52.75852 53.76525 54.66299 55.43463 56.11869 56.63572 57.16986 57.80626 58.58592 59.64652 60.86257 62.14884 63.59063 65.24089 67.00327 68.71974 70.24215 71.64577 72.97245 74.04735 75.00234 75.95304 76.92560 77.69364 78.34375 78.78939 
13 "J7" 0.00000 57.14656 27.48608 3.203064 7.274188 5.956868 4.501232 4.501232 4.501232 4.501232 4.501232 4.501232 4.501232 4.502583 4.502753 4.499591 4.490949 4.488024 4.502025 4.728109 4.911723 5.031322 5.096821 5.139708 5.177938 5.229879 5.304534 5.416639 5.585796 5.806627 6.058456 6.342810 6.683688 7.097775 7.596075 8.228756 9.122518 10.37436 11.94078 13.74606 15.69843 17.47717 18.94501 19.89103 20.31947 20.24781 19.81018 19.14640 18.33411 17.40473 16.37429 15.25598 14.04355 12.75218 11.39576 9.996998 8.597990 7.250081 5.991873 4.871723 3.907368 3.112296 2.481279 1.989660 1.624472 1.364937 1.190739 1.076831 1.009353 0.970758 0.946609 0.941026 0.949541 0.964930 0.988999 1.035155 1.100238 1.182750 1.304135 1.456672 1.640704 1.867349 2.136070 2.443292 2.776926 3.142112 3.531925 3.925795 4.305284 4.651371 4.976178 5.276694 5.592349 5.931112 6.352231 6.917449 7.690582 8.631971 9.795952 11.15826 12.72605 14.46424 16.22428 18.03148 19.92176 21.73331 23.50689 25.30708 27.12397 28.89114 30.63265 32.19430 
14 "A5" 0.00000 0.00000 0.00000 0.705986 0.669437 0.757567 1.157663 1.157663 1.157663 1.157663 1.157663 1.157663 1.157663 1.158071 1.158177 1.157425 1.155265 1.154576 1.158238 1.146181 1.129782 1.110480 1.079239 1.045028 1.021709 1.004690 0.983767 0.955452 0.934673 0.915845 0.882801 0.857319 0.848593 0.795956 0.710609 0.715187 0.691046 0.734693 0.797367 0.776057 0.789011 0.811592 0.837290 0.835755 0.834095 0.826179 0.814044 0.809817 0.809425 0.795725 0.766761 0.747187 0.724272 0.700894 0.675177 0.652169 0.630649 0.604415 0.586332 0.567693 0.548572 0.537327 0.532372 0.527428 0.515516 0.507538 0.506350 0.509289 0.513927 0.517561 0.521819 0.521320 0.527280 0.532130 0.527138 0.528112 0.539683 0.552939 0.573913 0.587908 0.605993 0.629271 0.659391 0.707859 0.744062 0.777541 0.835634 0.918125 1.021269 1.140536 1.287506 1.488268 1.768517 2.120778 2.607163 3.276562 4.130343 5.225269 6.603385 8.309102 10.35507 12.75092 15.44663 18.40137 21.60949 24.92106 28.27153 31.77422 35.29833 38.67835 42.07995 45.30724 
15 "F3" 57.14351 57.14351 57.14351 23.67582 24.44061 18.72881 18.88116 18.88116 18.88116 18.88116 18.88116 18.88116 18.88116 18.88713 18.88814 18.87519 18.83925 18.82730 18.88636 19.91924 20.66450 21.09595 21.26012 21.26970 21.22012 21.18779 21.17859 21.23737 21.41856 21.69231 22.02476 22.43053 22.85441 23.27255 23.76972 24.35902 25.01762 25.84155 26.92516 28.06850 29.12103 29.89221 30.36375 30.41014 30.10959 29.58965 28.99117 28.42343 27.91828 27.45977 27.04172 26.63974 26.22436 25.77314 25.26917 24.69221 24.05079 23.36455 22.66935 21.99820 21.38034 20.82677 20.30511 19.78920 19.28100 18.84427 18.58259 18.58556 18.91667 19.56852 20.40393 21.25844 22.02404 22.73288 23.46270 24.26744 25.19623 26.25822 27.43290 28.70563 30.02309 31.36988 32.74890 34.11225 35.45744 36.73546 37.89841 38.94095 39.84095 40.56920 41.13153 41.53725 41.95064 42.49332 43.25799 44.38489 45.85641 47.58025 49.56954 51.86448 54.32818 56.76492 58.97386 60.97246 62.83799 64.49142 65.90906 67.21468 68.58326 69.75126 70.82060 71.70494 
16 "F14" 42.85649 42.85649 42.85649 13.39732 13.80926 8.938067 8.707915 8.707915 8.707915 8.707915 8.707915 8.707915 8.707915 8.710461 8.710721 8.704536 8.687750 8.682021 8.709028 9.053726 9.348498 9.520757 9.567804 9.554600 9.527365 9.516233 9.533853 9.604828 9.739843 9.931855 10.15211 10.38773 10.62212 10.86877 11.25689 11.74208 12.33612 13.20549 14.30796 15.47808 16.58763 17.42765 17.94440 18.06016 17.85274 17.45281 16.99714 16.56212 16.19345 15.90026 15.64558 15.38602 15.09290 14.73880 14.31715 13.83614 13.32522 12.80499 12.31347 11.87587 11.50030 11.18186 10.89512 10.62259 10.35619 10.13397 9.999535 9.997342 10.16601 10.50064 10.93790 11.40745 11.86047 12.32496 12.84652 13.46039 14.20104 15.07144 16.05881 17.14609 18.29629 19.48564 20.72211 21.95407 23.16634 24.31226 25.33224 26.20914 26.92663 27.45032 27.81717 28.04014 28.26852 28.64844 29.27584 30.32398 31.79269 33.62783 35.81476 38.42342 41.32743 44.21192 46.85418 49.26301 51.48424 53.46887 55.23390 56.93832 58.60629 60.02949 61.33817 62.53858 
17 "K6" 28.57099 28.57099 28.57099 7.422199 7.640789 4.930794 4.947517 4.947517 4.947517 4.947517 4.947517 4.947517 4.947517 4.948962 4.949107 4.945591 4.936051 4.932793 4.948132 5.093213 5.216417 5.278690 5.273267 5.245259 5.207502 5.180348 5.177181 5.200649 5.264916 5.353352 5.438020 5.520658 5.636117 5.800380 5.993968 6.308778 6.748473 7.323253 8.133731 9.031520 9.891704 10.55393 10.93545 11.01622 10.89006 10.55973 10.17140 9.798719 9.497929 9.274498 9.096270 8.916824 8.702192 8.421088 8.081107 7.680928 7.236364 6.796165 6.394859 6.048845 5.780538 5.576039 5.415753 5.283642 5.169851 5.083996 5.040879 5.054717 5.141595 5.305113 5.523234 5.762639 6.016846 6.295705 6.605435 6.991356 7.476813 8.062748 8.749503 9.531254 10.38204 11.29986 12.25185 13.23591 14.22531 15.19299 16.08628 16.88889 17.57969 18.10651 18.48915 18.77196 19.03999 19.42530 20.05149 21.02813 22.35246 23.95102 25.91959 28.27746 30.88995 33.60421 36.10370 38.48852 40.84456 42.92103 44.77290 46.59389 48.43380 50.13681 51.73164 52.98820 
18 "N11" 0.00000 0.00000 0.00000 0.882544 0.854653 0.913704 1.309563 1.309563 1.309563 1.309563 1.309563 1.309563 1.309563 1.310021 1.310137 1.309283 1.306836 1.306053 1.310192 1.296742 1.290573 1.269709 1.242229 1.214007 1.188205 1.166584 1.150373 1.131563 1.105422 1.072589 1.031875 1.000795 1.010366 1.059540 1.029829 1.008077 0.997615 0.987422 1.001788 1.031091 1.035299 1.038793 1.047382 1.033983 1.017655 1.022681 1.009500 0.996367 0.981212 0.968002 0.944193 0.924236 0.900780 0.874453 0.849418 0.825549 0.802079 0.780723 0.761877 0.743053 0.729166 0.720367 0.714143 0.707655 0.701549 0.699765 0.697150 0.696910 0.699043 0.704490 0.708965 0.714580 0.715578 0.717376 0.721042 0.727362 0.737351 0.747528 0.762746 0.783055 0.797716 0.816274 0.849523 0.883926 0.920031 0.959824 1.017575 1.082605 1.177483 1.312178 1.452834 1.646272 1.905553 2.254866 2.732853 3.362801 4.200239 5.288122 6.660377 8.340511 10.35608 12.71355 15.37301 18.30447 21.50676 24.77539 28.12855 31.55939 35.12806 38.55620 41.75089 44.75959 
19 "H13" 0.00000 0.00000 100.0000 4.435723 2.114800 17.38308 26.53138 26.53138 26.53138 26.53138 26.53138 26.53138 26.53138 26.54204 26.54578 26.52991 26.48176 26.46735 26.55286 28.67989 30.23276 31.11152 31.26265 30.85447 30.07180 29.04425 27.81217 26.37418 24.69648 22.81174 20.91885 19.15405 17.38969 15.55010 13.73060 12.03809 10.46209 9.071528 7.826014 6.741232 5.816470 5.014669 4.312566 3.701580 3.176997 2.745459 2.420774 2.183161 2.017311 1.901588 1.822428 1.750291 1.678212 1.595539 1.498215 1.393659 1.287588 1.190434 1.106752 1.039445 0.993569 0.965876 0.947103 0.935693 0.926903 0.918216 0.915066 0.920715 0.926896 0.943452 0.962830 0.978471 0.997887 1.028216 1.064952 1.114175 1.183363 1.275513 1.395915 1.547047 1.730309 1.948433 2.206868 2.492793 2.805105 3.154469 3.516324 3.864415 4.188135 4.455296 4.657624 4.787672 4.865711 4.997723 5.236717 5.652295 6.290311 7.160438 8.308056 9.759150 11.45987 13.36097 15.24039 17.12164 19.03179 20.92863 22.80390 24.63203 26.44636 28.21803 29.93423 31.55857 
20 "F2" 0.00000 100.0000 0.00000 3.824295 11.90793 3.246277 1.605822 1.605822 1.605822 1.605822 1.605822 1.605822 1.605822 1.605716 1.605180 1.603448 1.599757 1.598096 1.602443 1.548877 1.550799 1.546772 1.525797 1.505943 1.494907 1.497596 1.514914 1.551891 1.609885 1.697518 1.810050 1.941674 2.107402 2.334796 2.686916 3.170469 3.849450 4.961896 6.704130 9.214945 12.53263 16.61011 21.18287 25.73850 29.82742 33.01574 35.06905 35.91746 35.60298 34.34247 32.38872 29.97953 27.30720 24.50515 21.64662 18.76770 15.91792 13.16022 10.59266 8.297847 6.349946 4.775716 3.562161 2.674225 2.048275 1.628067 1.355887 1.181717 1.077572 1.022416 0.997867 0.991125 0.984655 0.997857 1.033642 1.080727 1.151169 1.248632 1.371985 1.530496 1.729545 1.967556 2.253894 2.576658 2.956545 3.370951 3.792237 4.218803 4.659664 5.114364 5.550302 5.951600 6.395879 6.897537 7.429901 8.097742 8.916449 9.909678 11.07710 12.41499 13.93872 15.56312 17.22255 18.95885 20.74592 22.56957 24.34777 26.11954 27.93620 29.63666 31.33721 33.00248 
21 "D9" 100.0000 0.00000 100.0000 36.20152 17.80453 22.21464 40.67580 40.67580 40.67580 40.67580 40.67580 40.67580 40.67580 40.69095 40.69545 40.66988 40.59482 40.57145 40.70115 42.99078 44.03802 43.89657 42.74014 40.97360 38.93016 36.81167 34.64432 32.39432 29.98595 27.47044 25.05582 22.82945 20.66414 18.41147 16.18340 14.13504 12.24925 10.56234 8.996763 7.644458 6.513329 5.556454 4.723531 3.986590 3.381517 2.913596 2.569564 2.348943 2.217466 2.149579 2.135823 2.144345 2.158567 2.166966 2.143157 2.097844 2.056512 2.039619 2.082718 2.224579 2.517444 3.029999 3.826994 4.974133 6.545901 8.603130 11.22626 14.54136 18.69139 23.73671 29.52873 35.74036 41.98446 47.98263 53.54982 58.58231 63.05512 66.95680 70.30442 73.15086 75.45955 77.33932 78.91513 80.24540 81.34074 82.26164 83.05676 83.80905 84.54007 85.16002 85.70943 86.14944 86.60308 87.08484 87.58399 88.13080 88.59893 89.00495 89.42268 89.83900 90.24354 90.63628 91.02264 91.41393 91.85861 92.18145 92.32010 92.37925 92.57465 92.68449 92.76520 92.65323 
22 "M7" 100.0000 0.00000 0.00000 31.73542 16.82246 1.062730 1.256030 1.256030 1.256030 1.256030 1.256030 1.256030 1.256030 1.255004 1.253632 1.251316 1.247460 1.245176 1.247562 1.276881 1.277201 1.258548 1.225463 1.195346 1.171296 1.153396 1.140524 1.124409 1.104638 1.093113 1.089645 1.083794 1.054541 1.054464 1.104011 1.141189 1.224410 1.360381 1.573466 1.826957 2.095433 2.344982 2.538518 2.646845 2.679264 2.628858 2.555633 2.489173 2.456854 2.450979 2.472357 2.505762 2.536989 2.540583 2.522400 2.485384 2.442354 2.416845 2.437502 2.538204 2.775930 3.197977 3.869104 4.875953 6.295875 8.203459 10.69226 13.86859 17.85737 22.72985 28.34514 34.42131 40.59741 46.58596 52.21493 57.36950 61.98041 66.01282 69.46841 72.41595 74.75993 76.65451 78.25074 79.57970 80.65263 81.50744 82.22679 82.93462 83.63505 84.20011 84.69711 85.07624 85.49290 85.95061 86.49277 87.13432 87.63776 87.98061 88.29235 88.65579 89.04129 89.49520 89.81909 90.19356 90.65057 90.86139 90.87358 91.00039 91.27396 91.34551 91.31695 91.06427 
