Epson_XP-960/PermaJet/Smooth_Gloss_280/PermaJet_Smooth_Gloss_280.ti3
CTI3   

DESCRIPTOR "Argyll Calibration Target chart information 3"
ORIGINATOR "Argyll chartread"
CREATED "Fri Sep 14 23:22:10 2018"
DEVICE_CLASS "OUTPUT"
COMP_GREY_STEPS "8"
COLOR_REP "iRGB_XYZ"
TARGET_INSTRUMENT "X-Rite ColorMunki"
DEVCALSTD "XRGA"
SPECTRAL_BANDS "106"
SPECTRAL_START_NM "380.000000"
SPECTRAL_END_NM "730.000000"

NUMBER_OF_FIELDS 114
BEGIN_DATA_FORMAT
SAMPLE_ID SAMPLE_LOC RGB_R RGB_G RGB_B XYZ_X XYZ_Y XYZ_Z SPEC_380 SPEC_383 SPEC_387 SPEC_390 SPEC_393 SPEC_397 SPEC_400 SPEC_403 SPEC_407 SPEC_410 SPEC_413 SPEC_417 SPEC_420 SPEC_423 SPEC_427 SPEC_430 SPEC_433 SPEC_437 SPEC_440 SPEC_443 SPEC_447 SPEC_450 SPEC_453 SPEC_457 SPEC_460 SPEC_463 SPEC_467 SPEC_470 SPEC_473 SPEC_477 SPEC_480 SPEC_483 SPEC_487 SPEC_490 SPEC_493 SPEC_497 SPEC_500 SPEC_503 SPEC_507 SPEC_510 SPEC_513 SPEC_517 SPEC_520 SPEC_523 SPEC_527 SPEC_530 SPEC_533 SPEC_537 SPEC_540 SPEC_543 SPEC_547 SPEC_550 SPEC_553 SPEC_557 SPEC_560 SPEC_563 SPEC_567 SPEC_570 SPEC_573 SPEC_577 SPEC_580 SPEC_583 SPEC_587 SPEC_590 SPEC_593 SPEC_597 SPEC_600 SPEC_603 SPEC_607 SPEC_610 SPEC_613 SPEC_617 SPEC_620 SPEC_623 SPEC_627 SPEC_630 SPEC_633 SPEC_637 SPEC_640 SPEC_643 SPEC_647 SPEC_650 SPEC_653 SPEC_657 SPEC_660 SPEC_663 SPEC_667 SPEC_670 SPEC_673 SPEC_677 SPEC_680 SPEC_683 SPEC_687 SPEC_690 SPEC_693 SPEC_697 SPEC_700 SPEC_703 SPEC_707 SPEC_710 SPEC_713 SPEC_717 SPEC_720 SPEC_723 SPEC_727 SPEC_730 
END_DATA_FORMAT

NUMBER_OF_SETS 210
BEGIN_DATA
1 "M8" 100.0000 100.0000 100.0000 82.23066 85.60604 73.64203 78.05116 78.05116 78.05116 78.05116 78.05116 78.05116 78.05116 78.07727 78.08293 78.03086 77.88379 77.83588 78.08151 81.10061 83.64974 85.58133 86.69838 87.27096 87.57903 87.85004 88.16453 88.63710 89.37233 90.21810 91.03162 91.88203 92.81704 93.83623 94.39847 94.50422 94.46517 93.80782 92.73859 91.42297 90.25629 89.35632 88.68190 88.14622 87.68432 87.29438 86.99195 86.78280 86.54966 86.31273 86.14397 85.98863 85.87734 85.79995 85.72553 85.63443 85.53649 85.40901 85.20533 85.00215 84.82816 84.75710 84.70992 84.64730 84.54157 84.38991 84.25091 84.16877 84.11483 84.09800 84.07601 84.03595 84.01329 84.05222 84.09140 84.13442 84.21115 84.27161 84.35344 84.47400 84.63077 84.78598 84.94900 85.13183 85.35239 85.58212 85.83373 86.09349 86.40072 86.75958 87.02624 87.24558 87.38709 87.46349 87.55231 87.83221 87.97528 88.05877 88.28180 88.46226 88.58327 88.71236 88.83661 89.05702 89.22067 89.30032 89.43117 89.42012 89.34970 89.38374 89.54781 89.84060 
2 "D15" 0.00000 31.54498 19.63836 2.164751 3.685104 3.171753 3.540899 3.540899 3.540899 3.540899 3.540899 3.540899 3.540899 3.542093 3.542360 3.540008 3.533345 3.531180 3.542322 3.515246 3.481154 3.437771 3.367117 3.287438 3.212876 3.152095 3.103756 3.068766 3.058448 3.067658 3.105655 3.177737 3.252708 3.331582 3.453330 3.698288 4.161551 4.820761 5.683659 6.733449 7.794121 8.727764 9.403034 9.688670 9.649390 9.369152 8.934035 8.468772 8.028853 7.612194 7.223047 6.821985 6.376251 5.864469 5.291500 4.670712 4.047787 3.461834 2.930517 2.462517 2.072342 1.762511 1.510118 1.318230 1.172082 1.053964 0.966700 0.914248 0.878021 0.857147 0.853132 0.855146 0.863989 0.887144 0.925755 0.980364 1.051446 1.147753 1.272833 1.430037 1.630306 1.869838 2.157313 2.487290 2.874383 3.293617 3.741390 4.209094 4.697005 5.198674 5.698573 6.202179 6.727190 7.283177 7.933079 8.710614 9.588810 10.59755 11.73571 13.01668 14.46174 16.01872 17.66563 19.45749 21.26772 23.11766 25.00430 26.88116 28.74804 30.51059 32.30969 34.10826 
3 "K1" 0.00000 19.55749 34.53422 2.207300 2.721180 4.192535 5.409761 5.409761 5.409761 5.409761 5.409761 5.409761 5.409761 5.411781 5.412387 5.408993 5.399016 5.395914 5.413153 5.441827 5.444880 5.416819 5.340034 5.229314 5.113833 5.009372 4.913887 4.833050 4.774057 4.714054 4.677798 4.677943 4.661861 4.647032 4.638521 4.717304 4.983648 5.372665 5.804783 6.338458 6.797361 7.074068 7.116562 6.941202 6.573915 6.117281 5.645969 5.224301 4.868751 4.586106 4.347840 4.122230 3.879487 3.608244 3.295500 2.955027 2.609761 2.280082 1.986658 1.736071 1.526945 1.365217 1.234536 1.135005 1.057963 0.993848 0.944484 0.913013 0.893762 0.887452 0.891052 0.900210 0.920323 0.951409 0.991269 1.042500 1.116192 1.221542 1.358026 1.522512 1.725110 1.981624 2.287717 2.631041 3.007707 3.430532 3.892621 4.383378 4.883062 5.388822 5.896544 6.392512 6.909788 7.473270 8.135444 8.901484 9.772890 10.79469 11.96754 13.26348 14.68943 16.22657 17.86677 19.67585 21.54376 23.38552 25.24781 27.12957 28.98031 30.74933 32.55166 34.43035 
4 "C2" 58.59770 86.10971 69.36141 36.23969 45.82868 33.66474 33.45472 33.45472 33.45472 33.45472 33.45472 33.45472 33.45472 33.46533 33.46715 33.44422 33.38057 33.35942 33.46404 34.47795 35.37487 35.96569 36.23402 36.36039 36.44306 36.56078 36.72639 37.00134 37.45192 38.03079 38.72242 39.55435 40.53010 41.67466 42.94471 44.41803 46.28406 48.56998 51.19006 53.90749 56.53972 58.88933 60.80764 62.23307 63.04845 63.37128 63.34791 63.11845 62.70703 62.13696 61.46562 60.64498 59.65551 58.48516 57.10804 55.51667 53.74052 51.79728 49.70581 47.53236 45.31278 43.10579 40.91737 38.78278 36.74581 34.87832 33.24972 31.90724 30.84511 30.03868 29.46643 29.11332 28.97508 29.05704 29.34624 29.84481 30.55434 31.46144 32.53873 33.75412 35.07336 36.46030 37.90202 39.36790 40.84124 42.26935 43.62156 44.94129 46.22509 47.41885 48.50544 49.48330 50.41640 51.38783 52.47206 53.71207 54.99626 56.39225 57.98104 59.63917 61.29342 62.97675 64.61497 66.17736 67.63673 69.05481 70.33876 71.48014 72.50656 73.56458 74.62046 75.65396 
5 "I12" 36.31952 9.677272 36.17609 8.254652 5.447838 4.001986 6.159882 6.159882 6.159882 6.159882 6.159882 6.159882 6.159882 6.161931 6.162367 6.158245 6.146626 6.142830 6.162180 6.088589 6.017635 5.907850 5.742634 5.552651 5.355664 5.175077 5.015447 4.864851 4.730821 4.612808 4.496482 4.396076 4.268175 4.124408 4.021559 4.028767 4.147154 4.267864 4.508894 4.805211 5.056739 5.155766 5.066703 4.833823 4.511621 4.165534 3.841901 3.579384 3.395376 3.283402 3.224347 3.183201 3.139810 3.077243 2.983159 2.850090 2.697946 2.551740 2.437594 2.370533 2.361549 2.437467 2.596242 2.840381 3.163740 3.555854 4.005060 4.497922 5.025584 5.590852 6.168363 6.762195 7.393098 8.061336 8.789829 9.602387 10.49142 11.47264 12.56774 13.74498 15.00541 16.32950 17.69512 19.09314 20.49094 21.86386 23.20002 24.50643 25.73914 26.88019 27.95788 29.00655 30.03625 31.10824 32.33014 33.74036 35.14313 36.64378 38.41088 40.27351 42.14664 44.07365 46.04011 48.02417 50.01805 51.85270 53.71125 55.49732 57.10250 58.71572 60.26928 61.70706 
6 "L4" 100.0000 100.0000 100.0000 82.20992 85.56380 73.71938 77.92134 77.92134 77.92134 77.92134 77.92134 77.92134 77.92134 77.94740 77.95304 77.90104 77.75420 77.70636 77.95157 81.01939 83.62053 85.58144 86.72007 87.31772 87.65995 87.96584 88.31475 88.81370 89.54593 90.38281 91.19394 92.05622 93.01187 93.99201 94.51060 94.61895 94.57111 93.90520 92.82335 91.46768 90.26381 89.33036 88.65357 88.09800 87.63003 87.24833 86.94071 86.72547 86.49762 86.25824 86.08787 85.93693 85.81782 85.73566 85.66132 85.57542 85.48691 85.35634 85.15035 84.94869 84.77575 84.70863 84.65931 84.59547 84.48718 84.33785 84.20079 84.10852 84.05608 84.03830 84.00771 83.97480 83.95451 83.99129 84.03243 84.08124 84.16499 84.23363 84.33208 84.45878 84.61737 84.76730 84.94166 85.13773 85.35106 85.58350 85.83715 86.11148 86.42482 86.77149 87.04683 87.28180 87.42119 87.47937 87.56879 87.89760 88.07160 88.16440 88.39264 88.58092 88.72580 88.89223 89.02381 89.22917 89.39401 89.43303 89.54555 89.60243 89.53184 89.62777 89.82007 89.91502 
7 "L14" 70.64317 82.40940 93.62173 49.42140 53.00352 58.96288 64.54110 64.54110 64.54110 64.54110 64.54110 64.54110 64.54110 64.56387 64.56975 64.52789 64.40749 64.36910 64.57350 67.11108 69.21147 70.74354 71.61295 72.02705 72.18368 72.28766 72.36720 72.49220 72.77388 73.02969 73.20552 73.44187 73.68749 73.92664 73.76912 73.35518 72.95627 72.20496 71.18048 69.97849 68.84587 67.76776 66.81840 65.85704 64.78011 63.72187 62.74263 61.92100 61.18797 60.52188 59.92598 59.34819 58.73175 58.03601 57.21614 56.26527 55.21191 54.07103 52.85793 51.64643 50.46283 49.36268 48.28357 47.22647 46.20242 45.24012 44.38737 43.69576 43.16939 42.80112 42.56253 42.45373 42.48464 42.67882 43.02320 43.52694 44.21250 45.04959 46.01219 47.08343 48.24220 49.43757 50.67581 51.94147 53.20782 54.44137 55.63627 56.77746 57.86365 58.84818 59.70246 60.49573 61.18661 61.84682 62.65077 63.70419 64.77657 65.87537 67.17665 68.54447 69.90029 71.24647 72.49764 73.75370 74.91748 75.90365 76.86210 77.73604 78.46187 79.18915 79.89048 80.58303 
8 "E8" 81.60983 36.98939 30.78050 34.38803 26.35993 6.057349 6.621525 6.621525 6.621525 6.621525 6.621525 6.621525 6.621525 6.622220 6.621160 6.615186 6.601144 6.595488 6.614664 6.622413 6.594042 6.510950 6.371945 6.205182 6.045442 5.919179 5.829285 5.783004 5.785138 5.830417 5.931197 6.060865 6.223276 6.470563 6.798672 7.293857 8.148295 9.357337 10.86420 12.59198 14.32056 15.76792 16.77007 17.24052 17.25767 16.98496 16.60143 16.26795 16.06116 16.00392 16.07276 16.20147 16.31182 16.35302 16.30096 16.17458 16.01471 15.92200 15.99088 16.32429 16.98340 18.00096 19.36711 21.07110 23.07890 25.35742 27.87550 30.58208 33.39372 36.22386 38.98485 41.60851 44.06136 46.33927 48.43490 50.37611 52.19052 53.90052 55.52460 57.07456 58.56581 59.98424 61.33396 62.63253 63.87836 65.03960 66.12628 67.11996 68.01819 68.88033 69.64387 70.31590 70.97152 71.69090 72.49536 73.46655 74.37931 75.29537 76.31563 77.33654 78.36046 79.37447 80.41356 81.50772 82.41348 83.28170 84.02609 84.66560 85.23691 85.86161 86.35121 87.01822 
9 "K3" 10.43259 50.62333 61.71969 6.236774 9.556808 16.20158 17.34810 17.34810 17.34810 17.34810 17.34810 17.34810 17.34810 17.35454 17.35645 17.34553 17.31350 17.30352 17.35880 17.91535 18.41502 18.77325 18.95424 19.00910 18.99925 18.98021 18.95090 18.94197 18.99754 19.08216 19.21219 19.39106 19.58153 19.80233 20.01246 20.34704 20.93263 21.79436 22.76134 23.74502 24.55624 25.03894 25.09331 24.70604 23.94401 22.96685 21.90504 20.87137 19.89136 18.94825 18.02338 17.06084 16.01265 14.85835 13.58813 12.22487 10.82769 9.448094 8.134353 6.920772 5.828060 4.873135 4.048672 3.371819 2.828456 2.395062 2.075042 1.850883 1.695963 1.599426 1.543927 1.521391 1.534585 1.578939 1.660489 1.773719 1.935056 2.161253 2.447221 2.796430 3.212437 3.698478 4.257918 4.873587 5.545124 6.255661 7.007651 7.776917 8.535042 9.287317 10.02533 10.74090 11.45212 12.20387 13.06806 14.05688 15.18482 16.46124 17.93749 19.58958 21.38390 23.27026 25.21552 27.32946 29.44423 31.53400 33.61853 35.69852 37.73114 39.60382 41.50405 43.50126 
10 "L13" 93.49660 21.73190 61.04677 38.82151 23.87297 14.15688 20.75206 20.75206 20.75206 20.75206 20.75206 20.75206 20.75206 20.75864 20.75978 20.74556 20.70608 20.69296 20.75783 21.06976 21.22189 21.14402 20.81476 20.33084 19.79011 19.26875 18.75682 18.25092 17.77360 17.29450 16.80111 16.31796 15.82116 15.29566 14.73235 14.23366 13.98079 13.83332 13.77665 13.66234 13.44758 13.02159 12.40382 11.60541 10.69220 9.804826 9.045764 8.476524 8.117483 7.937213 7.894985 7.946303 8.019689 8.062688 8.037499 7.951413 7.843847 7.784789 7.862863 8.172306 8.806670 9.859730 11.37997 13.41834 15.99028 19.11011 22.75255 26.84418 31.32294 36.07373 40.92955 45.73304 50.34326 54.66501 58.58319 62.05248 65.10552 67.74996 70.01089 71.94087 73.60368 75.01413 76.23709 77.31492 78.28301 79.12491 79.88800 80.58420 81.24075 81.85619 82.36536 82.84779 83.24646 83.56851 84.02882 84.70374 85.23881 85.68992 86.30908 86.91074 87.47017 88.01254 88.55225 89.16595 89.72782 90.15600 90.63431 90.99752 91.16452 91.43671 91.80986 92.13429 
11 "K8" 14.28550 14.28550 14.28550 2.909950 2.926917 2.060800 2.739234 2.739234 2.739234 2.739234 2.739234 2.739234 2.739234 2.740118 2.740283 2.738422 2.733227 2.731510 2.740083 2.675855 2.613168 2.543570 2.460130 2.374071 2.294482 2.228556 2.172934 2.127258 2.097379 2.060844 2.061766 2.089602 2.081389 2.106921 2.164465 2.291105 2.496313 2.839284 3.271401 3.828037 4.375088 4.841250 5.100945 5.139784 5.026419 4.788568 4.496687 4.236816 4.027353 3.872935 3.746971 3.635564 3.510144 3.353739 3.156778 2.922308 2.670554 2.417400 2.191836 1.997641 1.840102 1.726699 1.645727 1.592162 1.552391 1.522790 1.507102 1.504477 1.513264 1.542470 1.585708 1.640168 1.717094 1.819986 1.955257 2.126616 2.344693 2.634641 2.990914 3.402971 3.890395 4.448479 5.078733 5.762091 6.489355 7.257335 8.049059 8.839823 9.623932 10.40267 11.16437 11.91463 12.68250 13.49081 14.39245 15.43225 16.59449 17.89381 19.36759 20.99741 22.71635 24.50024 26.39394 28.37861 30.37350 32.39473 34.38045 36.30673 38.18334 40.01704 41.80014 43.65129 
12 "F14" 71.42901 71.42901 71.42901 41.88916 43.94148 31.95334 34.49482 34.49482 34.49482 34.49482 34.49482 34.49482 34.49482 34.50591 34.50795 34.48447 34.41901 34.39736 34.50540 35.46506 36.27748 36.77315 36.90879 36.87356 36.77967 36.70513 36.66496 36.71206 36.89866 37.17251 37.51505 37.94074 38.45839 39.08436 39.71881 40.47496 41.63564 43.03461 44.61520 46.17315 47.55754 48.59621 49.25610 49.46275 49.26730 48.76582 48.17238 47.63624 47.17812 46.79922 46.52612 46.28132 46.00468 45.61411 45.08315 44.42295 43.68631 42.92214 42.18164 41.54453 41.04334 40.69541 40.44105 40.24739 40.08456 39.96138 39.90786 39.94786 40.06851 40.27073 40.52168 40.82075 41.18992 41.66395 42.24251 42.92958 43.74962 44.70227 45.76639 46.91643 48.14623 49.39387 50.66979 51.96412 53.25363 54.50980 55.70641 56.83968 57.91286 58.86549 59.72261 60.52726 61.25375 61.99601 62.86516 63.94535 65.01389 66.11052 67.43841 68.80839 70.22087 71.60084 72.85057 74.08975 75.28202 76.39852 77.36204 78.21511 79.04125 79.72336 80.35754 81.17939 
13 "L12" 0.00000 57.14656 27.48608 3.156774 7.498002 5.523207 4.839425 4.839425 4.839425 4.839425 4.839425 4.839425 4.839425 4.840912 4.841129 4.837764 4.828507 4.825397 4.840474 4.910649 4.964197 4.986451 4.960869 4.909745 4.860415 4.830381 4.818361 4.829075 4.889384 5.007778 5.165700 5.363368 5.615159 5.953101 6.376495 6.968577 7.904635 9.292886 11.10214 13.25020 15.61733 17.81238 19.60569 20.81261 21.35018 21.32336 20.89437 20.22536 19.39279 18.44388 17.40169 16.24836 14.95804 13.54194 12.02226 10.45270 8.895550 7.410490 6.056542 4.865842 3.851894 3.031859 2.381853 1.889766 1.526581 1.269750 1.095986 0.973596 0.896694 0.855612 0.830140 0.817530 0.818167 0.834721 0.863957 0.906485 0.978116 1.076230 1.202034 1.362827 1.562026 1.801890 2.096414 2.435913 2.812043 3.236253 3.688824 4.166171 4.671327 5.194059 5.699907 6.204640 6.735488 7.311119 7.969655 8.751708 9.623983 10.63378 11.82635 13.16221 14.63597 16.20675 17.87477 19.68237 21.54822 23.37197 25.28580 27.16068 28.95227 30.81548 32.70178 34.53595 
14 "D7" 0.00000 0.00000 0.00000 0.630986 0.603551 0.737867 1.244014 1.244014 1.244014 1.244014 1.244014 1.244014 1.244014 1.244460 1.244580 1.243780 1.241467 1.240733 1.244673 1.200851 1.166845 1.142321 1.102477 1.061359 1.025369 0.992460 0.963014 0.936522 0.911073 0.874531 0.834564 0.806644 0.768331 0.691698 0.629379 0.628310 0.643189 0.723566 0.779482 0.784044 0.795371 0.783228 0.789880 0.785724 0.778933 0.775399 0.771251 0.752434 0.739557 0.724933 0.706592 0.686619 0.667974 0.647148 0.625795 0.601073 0.577793 0.557855 0.545153 0.522490 0.501701 0.494236 0.481983 0.476229 0.469102 0.455800 0.446267 0.436374 0.432035 0.433320 0.433596 0.432390 0.433499 0.432932 0.431374 0.425770 0.428300 0.434588 0.448685 0.454940 0.457092 0.469483 0.483078 0.491662 0.514739 0.550343 0.587778 0.633329 0.715440 0.805182 0.926582 1.134129 1.441460 1.837036 2.438273 3.295982 4.443747 5.939667 7.788921 10.09367 12.82624 15.90979 19.29641 22.97625 26.74127 30.57804 34.45890 38.16187 41.76813 45.13310 48.39882 51.46442 
15 "D13" 57.14351 57.14351 57.14351 25.78608 26.83419 17.77537 19.51209 19.51209 19.51209 19.51209 19.51209 19.51209 19.51209 19.51819 19.51917 19.50572 19.46851 19.45608 19.51699 19.85013 20.11371 20.23331 20.17002 20.01231 19.83657 19.69919 19.59443 19.54902 19.62431 19.78774 20.01849 20.33139 20.70101 21.14393 21.67117 22.46483 23.68037 25.19435 26.88927 28.73291 30.40599 31.59190 32.28396 32.41876 32.11043 31.54533 30.88616 30.29902 29.84021 29.48569 29.22607 28.98375 28.68100 28.26244 27.69471 26.99544 26.23289 25.47296 24.76863 24.16460 23.68798 23.35539 23.10109 22.90369 22.74474 22.62232 22.56497 22.60324 22.72949 22.93983 23.22352 23.58242 24.03158 24.59888 25.28666 26.11237 27.09245 28.21615 29.47461 30.83614 32.28315 33.78380 35.31687 36.86142 38.38330 39.84572 41.27153 42.63385 43.93557 45.16348 46.27002 47.29069 48.27129 49.25770 50.39214 51.68163 53.01978 54.47040 56.03231 57.66493 59.38397 61.12192 62.80057 64.51204 66.08464 67.57252 69.02972 70.32761 71.50805 72.54915 73.58164 74.66440 
16 "A6" 42.85649 42.85649 42.85649 14.53394 14.94036 9.160106 10.52820 10.52820 10.52820 10.52820 10.52820 10.52820 10.52820 10.53143 10.53189 10.52457 10.50442 10.49765 10.53044 10.57302 10.57320 10.50384 10.35475 10.17367 9.999040 9.856997 9.748587 9.687171 9.692414 9.756294 9.865122 10.01503 10.21369 10.44357 10.75784 11.27927 12.01862 13.09159 14.51089 16.03256 17.48193 18.62611 19.29100 19.50358 19.33137 18.90747 18.39354 17.91737 17.55122 17.26864 17.05743 16.83491 16.55502 16.17211 15.66518 15.06009 14.40815 13.76456 13.17701 12.68400 12.28504 11.96629 11.71709 11.51505 11.33672 11.19634 11.11940 11.11873 11.19085 11.34141 11.56388 11.86653 12.26194 12.75668 13.36884 14.11114 14.99082 16.01195 17.15843 18.41902 19.77307 21.19458 22.66456 24.15283 25.64091 27.10624 28.52447 29.87882 31.16762 32.38376 33.55042 34.65934 35.75643 36.88805 38.13245 39.51075 40.96092 42.53735 44.22498 46.02817 47.89357 49.83073 51.75631 53.72652 55.59853 57.31191 58.96120 60.54989 62.00631 63.46941 64.86125 66.22594 
17 "E3" 28.57099 28.57099 28.57099 7.779419 7.895368 4.649311 5.474098 5.474098 5.474098 5.474098 5.474098 5.474098 5.474098 5.475739 5.475943 5.472096 5.461585 5.458024 5.475026 5.427217 5.401646 5.336715 5.228923 5.099642 4.975629 4.874350 4.793471 4.740581 4.718658 4.732810 4.779775 4.813155 4.883689 5.051839 5.246292 5.492654 5.967189 6.730454 7.742751 8.873731 9.979137 10.88833 11.44693 11.63338 11.49070 11.12430 10.67783 10.26566 9.939665 9.691262 9.510569 9.335303 9.108917 8.808399 8.419859 7.953793 7.436703 6.916364 6.437080 6.029350 5.704232 5.466671 5.293665 5.172873 5.092229 5.044543 5.037442 5.069076 5.137170 5.248735 5.399384 5.599526 5.858890 6.178715 6.577539 7.075573 7.674532 8.383094 9.206253 10.12964 11.14745 12.25598 13.41840 14.63308 15.87939 17.12282 18.35866 19.55599 20.68728 21.78025 22.81249 23.81460 24.83274 25.90574 27.05401 28.37543 29.80664 31.37180 33.09052 34.89654 36.79961 38.77586 40.79522 42.86602 44.88889 46.87029 48.79037 50.61616 52.32956 53.98413 55.56252 57.28026 
18 "K11" 0.00000 0.00000 0.00000 0.620087 0.595548 0.725324 1.268700 1.268700 1.268700 1.268700 1.268700 1.268700 1.268700 1.269158 1.269284 1.268472 1.266115 1.265371 1.269391 1.205108 1.158690 1.121136 1.078629 1.039259 1.005629 0.975285 0.945630 0.913630 0.881785 0.839341 0.805035 0.772129 0.731499 0.713587 0.670989 0.655658 0.658201 0.693402 0.698408 0.717597 0.766885 0.790301 0.779229 0.777707 0.778346 0.774975 0.757721 0.745961 0.733719 0.726356 0.704162 0.681474 0.660937 0.639703 0.618574 0.597357 0.575807 0.552635 0.537146 0.518796 0.504891 0.485820 0.469548 0.465320 0.455599 0.445375 0.442637 0.437050 0.429829 0.428745 0.429361 0.426232 0.425318 0.427238 0.428369 0.421833 0.419630 0.425482 0.435520 0.440201 0.445435 0.455937 0.475341 0.491577 0.508778 0.535858 0.574889 0.622463 0.685879 0.773263 0.902978 1.092925 1.362197 1.745322 2.337704 3.155309 4.249411 5.720920 7.585670 9.861766 12.55371 15.60764 18.96699 22.63660 26.45392 30.27618 34.10613 37.92281 41.54454 44.88005 48.10363 51.22465 
19 "F7" 0.00000 0.00000 100.0000 4.564335 2.059598 18.23709 29.62505 29.62505 29.62505 29.62505 29.62505 29.62505 29.62505 29.63703 29.64128 29.62364 29.56996 29.55394 29.64943 31.01992 32.15117 32.81665 32.87040 32.42788 31.62945 30.58794 29.32008 27.78821 25.96520 23.93227 21.84585 19.82614 17.87837 15.89460 13.91445 12.06291 10.43854 9.040474 7.830546 6.782709 5.875468 5.080992 4.373021 3.769774 3.242721 2.798094 2.445198 2.177051 1.985923 1.849352 1.750660 1.669531 1.599646 1.510897 1.412398 1.302097 1.190348 1.081411 0.984469 0.906379 0.854031 0.820248 0.796725 0.780381 0.767130 0.761156 0.766387 0.768102 0.775018 0.796864 0.813427 0.829653 0.852509 0.881135 0.930126 0.988440 1.055713 1.149934 1.269709 1.417115 1.618564 1.853137 2.126954 2.451984 2.819503 3.236584 3.686009 4.160733 4.650638 5.128488 5.607743 6.063109 6.504436 6.985482 7.534567 8.225194 9.039667 9.975632 11.11058 12.38242 13.85982 15.45834 17.09703 18.82877 20.68653 22.60311 24.45931 26.35036 28.29030 30.13667 31.96942 33.90610 
20 "I5" 0.00000 100.0000 0.00000 3.887465 12.67640 3.040657 1.628282 1.628282 1.628282 1.628282 1.628282 1.628282 1.628282 1.628134 1.627550 1.625753 1.621969 1.620242 1.624606 1.571318 1.529850 1.486885 1.447735 1.409659 1.370149 1.341238 1.325877 1.316539 1.323060 1.340233 1.370849 1.441880 1.525127 1.682768 1.901765 2.240724 2.890132 3.907110 5.649972 8.342842 12.10669 16.76768 21.98365 27.18272 31.77614 35.34336 37.66223 38.67676 38.50608 37.33652 35.41157 32.91971 30.03523 26.89945 23.62991 20.32097 17.07641 13.98832 11.16121 8.672717 6.566763 4.880480 3.583296 2.636592 1.973554 1.521700 1.231144 1.045795 0.931613 0.870710 0.830570 0.806364 0.806168 0.814121 0.839891 0.897516 0.970536 1.060877 1.195481 1.356701 1.565963 1.822887 2.126409 2.485262 2.886138 3.325050 3.804659 4.326271 4.853770 5.382829 5.939130 6.504236 7.085022 7.714632 8.450510 9.294119 10.17246 11.19560 12.40567 13.74618 15.18553 16.70856 18.41110 20.19298 22.00696 23.78387 25.68538 27.53907 29.30310 31.13715 32.93398 34.69680 
21 "K5" 100.0000 0.00000 100.0000 37.83452 18.38730 23.71078 46.02640 46.02640 46.02640 46.02640 46.02640 46.02640 46.02640 46.04376 46.04908 46.02038 45.93567 45.90946 46.05636 46.99846 47.30995 46.81623 45.47882 43.60898 41.49854 39.33338 37.09948 34.72727 32.16787 29.43454 26.75732 24.24986 21.76827 19.25536 16.74507 14.45140 12.41790 10.65136 9.044132 7.674401 6.536480 5.559747 4.683761 3.903439 3.243785 2.720882 2.329289 2.071865 1.922590 1.850359 1.835584 1.850978 1.875953 1.893859 1.884148 1.841088 1.784702 1.743196 1.760200 1.874666 2.139987 2.629928 3.432736 4.659163 6.409472 8.783248 11.87345 15.72752 20.34744 25.64948 31.44820 37.55789 43.76536 49.86736 55.63744 60.91413 65.64797 69.79167 73.33104 76.30219 78.77708 80.78950 82.44648 83.81383 84.93009 85.85546 86.66273 87.35643 87.97962 88.57819 89.07164 89.50932 89.86407 90.15610 90.48066 90.95996 91.29341 91.55318 91.95224 92.28056 92.56320 92.85599 93.11191 93.48619 93.78186 93.95188 94.13665 94.35268 94.44597 94.52024 94.70299 95.01313 
22 "J9" 100.0000 0.00000 0.00000 33.34324 17.56150 1.034348 1.415109 1.415109 1.415109 1.415109 1.415109 1.415109 1.415109 1.414068 1.412638 1.410146 1.405920 1.403467 1.406274 1.361180 1.317633 1.277838 1.232494 1.179326 1.134939 1.095377 1.063052 1.050790 1.029779 0.999614 0.980652 0.972548 0.963496 0.939110 1.034325 1.125018 1.191025 1.311231 1.542165 1.896865 2.257093 2.553040 2.732718 2.798576 2.750051 2.634891 2.512661 2.397145 2.331439 2.310092 2.327760 2.366399 2.408120 2.423277 2.408534 2.364434 2.310281 2.262009 2.262713 2.342978 2.538075 2.920202 3.583755 4.621059 6.163409 8.334176 11.23601 14.92805 19.40891 24.59532 30.31644 36.39804 42.63571 48.84971 54.80106 60.29906 65.26281 69.60213 73.29205 76.36259 78.88620 80.89491 82.50889 83.83032 84.88815 85.74514 86.46030 87.05727 87.61605 88.15005 88.59890 89.02044 89.42155 89.77512 90.11368 90.60875 90.95408 91.19353 91.53997 91.85866 92.10456 92.41837 92.66908 92.98340 93.29935 93.50798 93.66162 93.82982 93.92072 93.93156 94.00240 94.20695 
