Epson_XP-960/ScandinavianPhoto/SatinProfessional2/XP_960-satin-professional.ti3
CTI3   

DESCRIPTOR "Argyll Calibration Target chart information 3"
ORIGINATOR "Argyll chartread"
CREATED "Thu Nov 16 22:10:09 2023"
DEVICE_CLASS "OUTPUT"
COMP_GREY_STEPS "128"
COLOR_REP "iRGB_XYZ"
TARGET_INSTRUMENT "X-Rite ColorMunki"
DEVCALSTD "XRGA"
SPECTRAL_BANDS "106"
SPECTRAL_START_NM "380.000000"
SPECTRAL_END_NM "730.000000"

NUMBER_OF_FIELDS 114
BEGIN_DATA_FORMAT
SAMPLE_ID SAMPLE_LOC RGB_R RGB_G RGB_B XYZ_X XYZ_Y XYZ_Z SPEC_380 SPEC_383 SPEC_387 SPEC_390 SPEC_393 SPEC_397 SPEC_400 SPEC_403 SPEC_407 SPEC_410 SPEC_413 SPEC_417 SPEC_420 SPEC_423 SPEC_427 SPEC_430 SPEC_433 SPEC_437 SPEC_440 SPEC_443 SPEC_447 SPEC_450 SPEC_453 SPEC_457 SPEC_460 SPEC_463 SPEC_467 SPEC_470 SPEC_473 SPEC_477 SPEC_480 SPEC_483 SPEC_487 SPEC_490 SPEC_493 SPEC_497 SPEC_500 SPEC_503 SPEC_507 SPEC_510 SPEC_513 SPEC_517 SPEC_520 SPEC_523 SPEC_527 SPEC_530 SPEC_533 SPEC_537 SPEC_540 SPEC_543 SPEC_547 SPEC_550 SPEC_553 SPEC_557 SPEC_560 SPEC_563 SPEC_567 SPEC_570 SPEC_573 SPEC_577 SPEC_580 SPEC_583 SPEC_587 SPEC_590 SPEC_593 SPEC_597 SPEC_600 SPEC_603 SPEC_607 SPEC_610 SPEC_613 SPEC_617 SPEC_620 SPEC_623 SPEC_627 SPEC_630 SPEC_633 SPEC_637 SPEC_640 SPEC_643 SPEC_647 SPEC_650 SPEC_653 SPEC_657 SPEC_660 SPEC_663 SPEC_667 SPEC_670 SPEC_673 SPEC_677 SPEC_680 SPEC_683 SPEC_687 SPEC_690 SPEC_693 SPEC_697 SPEC_700 SPEC_703 SPEC_707 SPEC_710 SPEC_713 SPEC_717 SPEC_720 SPEC_723 SPEC_727 SPEC_730 
END_DATA_FORMAT

NUMBER_OF_SETS 1120
BEGIN_DATA
1 "K2" 100.0000 100.0000 100.0000 86.75351 90.17847 78.22933 81.57812 81.57812 81.57812 81.57812 81.57812 81.57812 81.57812 81.60531 81.61112 81.55659 81.40277 81.35260 81.60924 84.89057 87.80100 90.03772 91.37758 92.14467 92.58447 92.94955 93.41950 94.13608 95.10377 96.22918 97.37299 98.38018 99.50167 100.6956 101.4147 101.5018 101.1634 100.0011 98.47950 96.78342 95.36666 94.26745 93.34889 92.65814 92.12298 91.69341 91.38333 91.18555 91.00066 90.81190 90.60166 90.46696 90.38622 90.32033 90.24633 90.14929 90.02332 89.89929 89.70777 89.48282 89.30944 89.21427 89.16574 89.09352 88.94918 88.80211 88.65119 88.54093 88.48064 88.45090 88.41933 88.39469 88.39037 88.43724 88.50041 88.59974 88.70696 88.82178 88.94351 89.14187 89.33481 89.52670 89.74558 90.00548 90.28102 90.55382 90.85440 91.19866 91.58363 91.95796 92.33473 92.69999 92.97349 93.20342 93.43164 93.79212 94.09437 94.30063 94.55448 94.80997 95.12973 95.43552 95.66382 96.01026 96.27081 96.29348 96.33052 96.22518 96.35295 96.44763 96.75743 96.93908 
2 "F12" 14.64408 100.0000 68.21088 8.701432 20.21230 19.41075 15.67856 15.67856 15.67856 15.67856 15.67856 15.67856 15.67856 15.68363 15.68459 15.67395 15.64423 15.63442 15.68357 16.22047 16.76300 17.23255 17.60534 17.92787 18.21990 18.52135 18.84478 19.23922 19.79369 20.45170 21.17279 21.98007 22.90148 24.07481 25.42171 27.01420 29.02547 31.58059 34.95580 38.84371 42.99994 47.02605 50.55118 53.29004 54.94939 55.49511 55.05981 53.79486 51.84369 49.33564 46.39766 43.15924 39.70570 36.08929 32.36780 28.60640 24.86475 21.23778 17.77648 14.56800 11.71016 9.243430 7.199497 5.580363 4.335806 3.410691 2.752256 2.301277 1.998824 1.798639 1.672938 1.606356 1.580998 1.606639 1.677242 1.783276 1.940715 2.165173 2.462736 2.825819 3.268261 3.780478 4.359645 4.998770 5.707372 6.469086 7.268278 8.086814 8.895193 9.697162 10.48723 11.27999 12.07318 12.90543 13.82372 14.91127 16.13765 17.53085 19.11150 20.84753 22.72779 24.66566 26.68665 28.86410 31.02588 33.07256 35.18933 37.20492 39.28732 41.38399 43.36895 45.22500 
3 "AV2" 65.48409 19.86114 58.19181 10.56501 6.666927 5.733677 9.287413 9.287413 9.287413 9.287413 9.287413 9.287413 9.287413 9.290658 9.291471 9.285416 9.268057 9.262498 9.291842 9.224880 9.149015 8.998063 8.746894 8.441098 8.119649 7.810743 7.519876 7.247519 6.997385 6.769678 6.528966 6.285528 6.039319 5.792249 5.622550 5.505930 5.406739 5.452645 5.602785 5.767299 5.831258 5.777683 5.592456 5.289996 4.907817 4.504973 4.139061 3.853140 3.647835 3.509728 3.426081 3.380152 3.336833 3.272403 3.180146 3.069632 2.943450 2.822779 2.722095 2.663729 2.675071 2.774012 2.968413 3.281636 3.705294 4.239001 4.886048 5.642779 6.487383 7.405479 8.359393 9.323403 10.28720 11.25963 12.25031 13.27102 14.34666 15.47536 16.67884 17.97211 19.31622 20.70799 22.14312 23.59365 25.03129 26.44691 27.82558 29.12275 30.34428 31.48669 32.53471 33.53007 34.49791 35.56677 36.80634 38.23650 39.78736 41.44111 43.34978 45.52532 47.74986 49.98553 52.25856 54.53883 56.84095 59.04102 61.08893 63.07483 64.86595 66.68323 68.28441 69.64728 
4 "AO3" 44.64027 49.39803 0.00000 5.739002 6.579029 1.284786 1.263239 1.263239 1.263239 1.263239 1.263239 1.263239 1.263239 1.263251 1.262927 1.261664 1.258860 1.257654 1.261182 1.269845 1.246087 1.219115 1.182003 1.144999 1.110420 1.077083 1.043441 1.009126 0.981306 0.968752 0.958014 0.944308 0.924982 0.901626 0.949212 1.012820 1.148300 1.365821 1.767710 2.456723 3.412164 4.631995 5.971590 7.249570 8.270500 8.934732 9.289797 9.442795 9.505105 9.515175 9.499205 9.431235 9.288122 9.030557 8.637650 8.131408 7.555398 6.952568 6.362284 5.826346 5.368792 5.004137 4.714945 4.485324 4.309321 4.176199 4.082817 4.025737 4.002087 4.017908 4.070256 4.160403 4.293920 4.480192 4.720811 5.036798 5.439936 5.927309 6.509422 7.183891 7.949366 8.794007 9.702806 10.67505 11.67642 12.69379 13.71856 14.72457 15.69758 16.65063 17.56152 18.43377 19.32468 20.29638 21.38989 22.63772 24.01971 25.55248 27.29856 29.24382 31.26104 33.36358 35.55716 37.74653 39.91954 42.07873 44.14199 46.14917 48.09103 50.06197 51.77889 53.32481 
5 "K7" 0.00000 0.00000 0.00000 0.431368 0.380847 0.547884 0.906857 0.906857 0.906857 0.906857 0.906857 0.906857 0.906857 0.907184 0.907274 0.906693 0.905008 0.904476 0.907351 0.884436 0.851816 0.841829 0.820714 0.794897 0.770734 0.748010 0.723826 0.702235 0.681204 0.664321 0.666989 0.637219 0.609563 0.606678 0.549214 0.502923 0.500990 0.435010 0.425760 0.426759 0.435292 0.452740 0.475020 0.468292 0.444243 0.438657 0.438346 0.435606 0.423296 0.417947 0.407542 0.394943 0.380070 0.369591 0.361868 0.350791 0.339192 0.336358 0.332349 0.327868 0.326384 0.324753 0.314324 0.306007 0.300741 0.298505 0.296610 0.298392 0.300776 0.304941 0.312690 0.314012 0.310549 0.309132 0.307381 0.306297 0.305113 0.305077 0.303439 0.318446 0.326695 0.333436 0.334418 0.333255 0.350563 0.369543 0.378410 0.393723 0.406475 0.423919 0.468547 0.552153 0.617701 0.748194 0.931171 1.247119 1.784964 2.573631 3.754829 5.356417 7.526749 10.34173 13.73601 17.70069 22.18645 27.01854 32.12963 37.35314 42.68549 47.89107 52.99564 57.95168 
6 "P2" 56.74983 67.45708 72.88624 18.43747 19.92599 22.42005 25.29884 25.29884 25.29884 25.29884 25.29884 25.29884 25.29884 25.30779 25.31012 25.29374 25.24657 25.23155 25.31167 25.97018 26.54521 26.92889 27.03488 26.99478 26.90735 26.83112 26.78399 26.76839 26.77578 26.82211 26.91138 26.97750 27.02212 27.12892 27.27997 27.52990 27.96924 28.56040 29.37152 30.20047 30.84380 31.14383 30.98933 30.45921 29.60868 28.58988 27.56269 26.66741 25.94230 25.33596 24.81412 24.34395 23.82710 23.18560 22.39487 21.46419 20.44074 19.40112 18.38888 17.44199 16.58476 15.80767 15.11024 14.49104 13.92225 13.43770 13.05266 12.77629 12.61878 12.58414 12.65208 12.82071 13.09633 13.49902 14.03660 14.72482 15.56842 16.57163 17.72918 19.02457 20.42311 21.89642 23.42896 25.00222 26.57526 28.13055 29.64856 31.11446 32.51999 33.82112 35.03617 36.20372 37.33067 38.46215 39.75485 41.29299 42.91294 44.63713 46.54062 48.56895 50.72245 52.90099 55.02638 57.23413 59.30210 61.15357 62.91538 64.49649 66.15859 67.76523 69.45045 70.80910 
7 "BP12" 51.56023 0.00000 45.93118 5.378933 3.263242 2.162135 3.729677 3.729677 3.729677 3.729677 3.729677 3.729677 3.729677 3.730897 3.731139 3.728622 3.721565 3.719245 3.730935 3.650213 3.575818 3.467505 3.331040 3.176924 3.023010 2.885544 2.760564 2.645115 2.544303 2.437482 2.322536 2.265272 2.227756 2.144798 2.058681 2.005618 2.000612 2.097545 2.191872 2.312056 2.396933 2.447164 2.437906 2.362932 2.236420 2.097129 1.962385 1.862648 1.764130 1.696101 1.663455 1.642706 1.624664 1.590844 1.537719 1.481373 1.417959 1.350933 1.290690 1.241018 1.219147 1.233793 1.286609 1.381749 1.519973 1.711497 1.969165 2.286722 2.660879 3.085393 3.548852 4.045382 4.573973 5.130953 5.709751 6.323997 6.992987 7.713784 8.491879 9.345875 10.24776 11.19404 12.19401 13.22917 14.27623 15.33494 16.41215 17.48720 18.56723 19.62868 20.65683 21.68964 22.78522 24.03154 25.42640 27.01563 28.74697 30.58530 32.63418 34.91196 37.26468 39.69303 42.18462 44.74628 47.19811 49.63427 52.02589 54.37549 56.51889 58.51588 60.24667 61.75230 
8 "L2" 92.91371 92.91371 92.91371 67.12609 70.23582 60.83466 64.20347 64.20347 64.20347 64.20347 64.20347 64.20347 64.20347 64.22490 64.22951 64.18663 64.06561 64.02615 64.22816 66.68751 68.80922 70.37906 71.30904 71.81447 72.07061 72.29406 72.58121 72.99472 73.57457 74.22696 74.86751 75.50145 76.23145 77.07577 77.68238 77.89114 77.99890 77.76569 77.40283 77.06110 76.81515 76.60574 76.39384 76.08623 75.64758 75.13567 74.61334 74.16303 73.74154 73.34145 72.97654 72.69600 72.45170 72.13430 71.72731 71.21848 70.61875 69.97819 69.28652 68.59526 67.98700 67.50644 67.11853 66.75768 66.37551 66.08250 65.87918 65.77194 65.75890 65.82606 65.94096 66.11483 66.34326 66.65369 67.03604 67.50650 68.05439 68.67640 69.39402 70.19116 70.98674 71.81679 72.67632 73.53383 74.38837 75.22960 76.05845 76.85612 77.63388 78.38206 79.05615 79.67756 80.19962 80.60355 81.18085 82.04700 82.85242 83.62397 84.47474 85.39125 86.38816 87.32460 88.08441 88.90786 89.68462 90.30705 90.81566 90.97862 91.49663 92.02467 92.57162 93.02484 
9 "H12" 5.888457 52.37201 57.01686 2.545766 3.797061 5.895687 6.738348 6.738348 6.738348 6.738348 6.738348 6.738348 6.738348 6.740854 6.741598 6.737359 6.724920 6.721046 6.742510 6.815299 6.889439 6.936648 6.930264 6.897285 6.853600 6.810463 6.770021 6.744082 6.733029 6.732205 6.768109 6.802748 6.828723 6.870847 6.965794 7.153786 7.400334 7.814024 8.448982 9.189268 9.899571 10.43334 10.65648 10.57315 10.21241 9.677259 9.047774 8.431513 7.881678 7.399290 6.951606 6.511861 6.056253 5.549418 4.997279 4.415066 3.837592 3.293817 2.802027 2.384808 2.033375 1.747070 1.530053 1.365057 1.232516 1.133591 1.063737 1.015195 0.986751 0.972842 0.965274 0.956444 0.955856 0.971006 1.004152 1.046096 1.091367 1.159035 1.250316 1.360113 1.488086 1.663939 1.883081 2.125801 2.395287 2.696837 3.038014 3.391653 3.759047 4.148577 4.535747 4.938444 5.366037 5.805820 6.345592 7.012450 7.765918 8.641328 9.696801 10.90280 12.22724 13.69767 15.27493 16.99441 18.78805 20.58334 22.39637 24.13411 26.03209 27.97259 29.86019 31.70975 
10 "AT11" 98.42527 98.42527 98.42527 80.98371 84.21232 73.23638 77.18275 77.18275 77.18275 77.18275 77.18275 77.18275 77.18275 77.20856 77.21415 77.16264 77.01720 76.96982 77.21272 80.30437 83.02266 85.02068 86.22295 86.84118 87.08604 87.23776 87.46638 87.93970 88.71537 89.62663 90.54766 91.57807 92.73064 93.71020 94.18382 94.28658 94.16422 93.31364 92.18334 91.02448 89.96286 89.04683 88.28347 87.75799 87.24212 86.74947 86.38490 86.06719 85.78763 85.52250 85.29167 85.06445 84.90042 84.74720 84.56999 84.37288 84.12241 83.84313 83.48779 83.11518 82.80933 82.61469 82.47647 82.37182 82.17478 81.97669 81.83458 81.76075 81.75112 81.78502 81.81696 81.86887 81.98776 82.15030 82.31851 82.51013 82.72830 82.98867 83.30777 83.66938 84.02264 84.37947 84.78953 85.21647 85.59788 86.02818 86.49860 86.94498 87.45026 87.99962 88.46415 88.77774 89.07606 89.44005 89.77029 90.25501 90.66471 90.90433 91.35620 91.99022 92.43572 92.88693 93.34479 93.75380 94.09467 94.49676 94.74586 95.05921 95.23667 95.32042 95.25749 95.24760 
11 "AD13" 97.63790 97.63790 97.63790 78.98082 82.19043 71.41585 75.24458 75.24458 75.24458 75.24458 75.24458 75.24458 75.24458 75.26973 75.27516 75.22494 75.08314 75.03693 75.27372 78.32509 80.91782 82.82486 83.99421 84.63089 84.92755 85.14944 85.41993 85.86090 86.55718 87.41342 88.28396 89.14418 90.11858 91.09957 91.74602 91.91258 91.64315 90.94416 89.95451 88.87532 87.98531 87.24191 86.61689 86.08422 85.58793 85.14038 84.75614 84.42039 84.11103 83.81007 83.57290 83.34665 83.14070 82.94276 82.73460 82.48652 82.18611 81.83182 81.41644 80.99579 80.64604 80.40909 80.22163 80.03534 79.81742 79.61660 79.45826 79.38059 79.37042 79.40861 79.47466 79.56398 79.69138 79.86880 80.07970 80.31230 80.60128 80.94310 81.32763 81.76354 82.18790 82.63098 83.11534 83.63109 84.14199 84.63911 85.15381 85.68198 86.23092 86.80138 87.30549 87.72464 88.10139 88.44676 88.77848 89.23507 89.72809 90.19318 90.71887 91.24704 91.76435 92.33821 92.88106 93.39713 93.82395 94.17889 94.44194 94.71164 94.97491 95.26617 95.51993 95.70858 
12 "BA12" 96.85054 96.85054 96.85054 76.08890 79.25158 69.26592 73.12547 73.12547 73.12547 73.12547 73.12547 73.12547 73.12547 73.14995 73.15528 73.10651 72.96874 72.92388 73.15405 76.08026 78.59298 80.46090 81.59845 82.18531 82.41229 82.56997 82.80318 83.23087 83.92458 84.72069 85.52413 86.45658 87.53170 88.41895 88.80876 88.92238 88.80762 88.05823 87.13921 86.25093 85.45322 84.68176 84.09235 83.66296 83.15018 82.62870 82.19869 81.83530 81.51428 81.20270 80.90829 80.67464 80.47399 80.26915 80.01642 79.70943 79.34419 78.95462 78.49650 78.00950 77.59108 77.28435 77.04599 76.85756 76.59849 76.34748 76.16437 76.06659 76.03980 76.06713 76.10035 76.16043 76.30187 76.51649 76.76665 77.05256 77.41433 77.80048 78.25752 78.77002 79.27020 79.78912 80.35060 80.91922 81.45444 82.03303 82.66180 83.24967 83.85127 84.48364 85.04807 85.46641 85.83778 86.22533 86.66023 87.27102 87.80370 88.20653 88.81727 89.58172 90.18791 90.82443 91.37282 91.91743 92.45816 93.00336 93.36761 93.73061 93.93917 94.16985 94.30824 94.28920 
13 "BA8" 96.06317 96.06317 96.06317 74.07253 77.30893 67.54961 71.54617 71.54617 71.54617 71.54617 71.54617 71.54617 71.54617 71.57014 71.57537 71.52768 71.39290 71.34903 71.57424 74.38517 76.79658 78.58312 79.65389 80.19131 80.37537 80.49026 80.67418 81.03865 81.68558 82.47363 83.27223 84.16804 85.19443 86.09180 86.51378 86.58889 86.49995 85.89992 85.11600 84.39822 83.72923 83.06174 82.56035 82.18673 81.68005 81.14930 80.71301 80.32725 79.99222 79.66367 79.35719 79.10970 78.88601 78.64513 78.34557 77.99361 77.57799 77.12050 76.59046 76.04192 75.57171 75.21180 74.92413 74.68215 74.37366 74.08654 73.86925 73.72721 73.65450 73.66292 73.71246 73.80243 73.96088 74.19598 74.46635 74.77883 75.17448 75.61308 76.12992 76.70125 77.26381 77.84979 78.48556 79.12181 79.72980 80.35556 81.02399 81.66338 82.31872 82.97701 83.56619 84.00859 84.37555 84.73917 85.23815 85.91223 86.47551 86.94208 87.64624 88.48093 89.10974 89.78811 90.40837 91.04826 91.66451 92.17974 92.52600 92.97632 93.33050 93.65621 93.73881 93.60794 
14 "AV15" 95.27581 95.27581 95.27581 72.39234 75.62232 66.11121 70.23006 70.23006 70.23006 70.23006 70.23006 70.23006 70.23006 70.25361 70.25876 70.21197 70.07969 70.03665 70.25773 72.97428 75.32652 77.04131 78.05009 78.54862 78.70907 78.79378 78.91979 79.22716 79.85214 80.61306 81.35608 82.20367 83.17099 83.99085 84.47853 84.71129 84.63989 84.09117 83.45899 82.86066 82.29027 81.72449 81.28238 80.89834 80.40040 79.85400 79.38609 78.97872 78.60742 78.24391 77.90763 77.64033 77.39983 77.12359 76.79579 76.40794 75.94416 75.43458 74.84755 74.26006 73.75085 73.34645 73.01617 72.74380 72.41802 72.11280 71.86836 71.71893 71.67009 71.70820 71.77664 71.87592 72.04984 72.30319 72.60160 72.95482 73.39416 73.88678 74.43943 75.06580 75.69516 76.33442 77.01323 77.70312 78.37769 79.05330 79.76012 80.43925 81.14348 81.85187 82.45499 82.93114 83.33317 83.74279 84.26589 84.94054 85.55738 86.08817 86.82191 87.72109 88.52913 89.28347 89.95464 90.59902 91.23116 91.80338 92.23249 92.66421 92.93808 93.26888 93.43619 93.49601 
15 "BO15" 94.48844 94.48844 94.48844 70.24831 73.34051 63.70503 67.95292 67.95292 67.95292 67.95292 67.95292 67.95292 67.95292 67.97570 67.98068 67.93539 67.80740 67.76573 67.97964 70.55400 72.80873 74.45041 75.38304 75.78457 75.83099 75.79397 75.82249 76.08050 76.69689 77.46206 78.19676 79.04168 80.01774 80.83953 81.24968 81.42793 81.51768 81.17694 80.72590 80.28865 79.86334 79.42240 79.06550 78.71376 78.20469 77.64931 77.15777 76.70956 76.33156 75.97637 75.62188 75.32959 75.10669 74.83139 74.47581 74.05673 73.55694 73.02373 72.41685 71.81265 71.29444 70.89235 70.57675 70.33253 70.01145 69.69804 69.50153 69.41354 69.39957 69.46360 69.56282 69.69646 69.91420 70.20544 70.53787 70.92963 71.40593 71.93402 72.53920 73.20573 73.88306 74.57400 75.30179 76.03540 76.73995 77.45523 78.21090 78.91365 79.63776 80.37042 80.97095 81.45684 81.88097 82.31185 82.91173 83.63049 84.25242 84.79112 85.56689 86.53743 87.36032 88.11706 88.90152 89.65292 90.33144 90.87780 91.36000 91.91192 92.32959 92.66052 92.76824 92.62763 
16 "AU5" 93.70108 93.70108 93.70108 68.48022 71.62961 61.78792 65.95471 65.95471 65.95471 65.95471 65.95471 65.95471 65.95471 65.97679 65.98159 65.93761 65.81334 65.77287 65.98045 68.46943 70.59781 72.12822 72.98564 73.35895 73.41740 73.40954 73.45591 73.69310 74.24966 74.93751 75.62375 76.47260 77.44261 78.28534 78.77045 79.00907 79.16331 78.94177 78.67172 78.42936 78.15698 77.83944 77.56279 77.25821 76.78354 76.25376 75.75068 75.29637 74.89977 74.52656 74.16707 73.86720 73.62213 73.33247 72.95418 72.49921 71.95042 71.36870 70.71939 70.07929 69.52820 69.09498 68.74186 68.44202 68.08136 67.78289 67.57742 67.46833 67.45165 67.51192 67.60801 67.75000 67.97629 68.27695 68.62600 69.04307 69.55755 70.13599 70.79249 71.51550 72.24992 73.00052 73.78259 74.58380 75.36406 76.13590 76.92945 77.68594 78.44596 79.19890 79.84782 80.36708 80.81702 81.29087 81.90006 82.67206 83.35048 83.98404 84.84764 85.87773 86.72366 87.55655 88.40102 89.18297 89.91390 90.54182 91.02868 91.56021 91.93359 92.41488 92.57993 92.66677 
17 "G6" 0.00000 0.00000 0.00000 0.428094 0.382854 0.538386 0.909462 0.909462 0.909462 0.909462 0.909462 0.909462 0.909462 0.909790 0.909881 0.909298 0.907610 0.907076 0.909960 0.886954 0.858930 0.842987 0.826698 0.804667 0.781608 0.763098 0.739823 0.710085 0.685366 0.662149 0.630694 0.572358 0.534012 0.494816 0.457848 0.458606 0.462433 0.523195 0.489501 0.497260 0.497110 0.480686 0.454208 0.452371 0.452401 0.443940 0.443083 0.429086 0.421003 0.413034 0.412815 0.404660 0.390494 0.379521 0.368530 0.361434 0.353946 0.343773 0.340679 0.332596 0.320300 0.319054 0.317753 0.311727 0.300868 0.301769 0.302526 0.301648 0.301532 0.309689 0.313411 0.308618 0.306776 0.305305 0.302876 0.300648 0.301043 0.306024 0.309515 0.315562 0.320761 0.327572 0.334499 0.341463 0.345063 0.350399 0.365225 0.390805 0.418590 0.432051 0.467934 0.528910 0.605601 0.714511 0.900075 1.212605 1.757380 2.500181 3.575475 5.170525 7.325885 10.01431 13.29360 17.21121 21.66664 26.52156 31.60548 36.74185 41.99735 47.24570 52.41627 57.23648 
18 "F14" 92.12634 92.12634 92.12634 65.24264 68.21428 59.63877 62.80819 62.80819 62.80819 62.80819 62.80819 62.80819 62.80819 62.82918 62.83371 62.79178 62.67341 62.63483 62.83248 65.30633 67.42827 68.99348 69.92946 70.46317 70.76913 71.04607 71.35486 71.74739 72.29283 72.86659 73.41357 74.02036 74.67055 75.44631 76.02813 76.26597 76.32335 76.03057 75.71587 75.39114 75.16762 74.96144 74.78238 74.47580 73.98885 73.43036 72.88434 72.38374 71.93353 71.51776 71.14986 70.84546 70.57450 70.21833 69.76321 69.20772 68.55724 67.85810 67.10925 66.37780 65.74025 65.22698 64.79482 64.39732 64.03389 63.73927 63.52552 63.42369 63.43791 63.53941 63.68123 63.87858 64.13872 64.48180 64.89843 65.40705 65.99912 66.67963 67.45025 68.30122 69.18219 70.07371 70.99581 71.92934 72.86379 73.77952 74.66973 75.54869 76.40761 77.20655 77.92435 78.55307 79.13136 79.62599 80.25232 81.13720 82.02128 82.88851 83.85556 84.86572 85.87582 86.84491 87.74823 88.74359 89.57249 90.20003 90.73890 91.11122 91.69257 92.27908 92.86990 93.32962 
19 "H2" 91.33898 91.33898 91.33898 62.71021 65.63024 57.00580 60.40120 60.40120 60.40120 60.40120 60.40120 60.40120 60.40120 60.42140 60.42576 60.38544 60.27161 60.23452 60.42459 62.72795 64.69357 66.11230 66.92890 67.35850 67.55546 67.71914 67.94023 68.29187 68.80646 69.36633 69.95041 70.55777 71.21112 71.96030 72.50489 72.82511 73.01731 72.91120 72.76658 72.68810 72.64942 72.57205 72.42818 72.11704 71.62280 71.04401 70.44476 69.90396 69.43768 69.01057 68.62848 68.31046 68.01620 67.67127 67.21541 66.64511 65.97212 65.25019 64.48663 63.74151 63.08741 62.55214 62.10863 61.73090 61.36280 61.07256 60.87750 60.78427 60.79028 60.89180 61.04097 61.24300 61.51201 61.86968 62.30396 62.83947 63.45889 64.17700 64.99351 65.88607 66.79597 67.72724 68.69428 69.68418 70.65205 71.59446 72.51529 73.40872 74.26933 75.08735 75.83196 76.50970 77.08926 77.56106 78.22163 79.19302 80.11490 80.98171 81.97948 83.02571 84.12220 85.16150 86.09658 87.05996 87.93508 88.66965 89.25252 89.56501 90.10997 90.71121 91.35121 91.85427 
20 "AJ6" 90.55161 90.55161 90.55161 61.29814 64.44338 55.25222 59.09867 59.09867 59.09867 59.09867 59.09867 59.09867 59.09867 59.11843 59.12270 59.08326 58.97189 58.93560 59.12157 61.34096 63.18951 64.47978 65.18164 65.46600 65.50437 65.50362 65.52883 65.68663 66.09390 66.60923 67.15624 67.85479 68.70151 69.50933 70.03048 70.45864 70.90756 71.10638 71.27791 71.46798 71.57299 71.60616 71.55864 71.32433 70.89150 70.31074 69.72729 69.18366 68.70905 68.25080 67.85870 67.50179 67.16658 66.79900 66.31389 65.71724 65.01868 64.25408 63.43628 62.64119 61.93297 61.34209 60.86786 60.45460 60.04294 59.69077 59.43654 59.30584 59.27915 59.35175 59.49220 59.68350 59.95652 60.31422 60.75754 61.29930 61.95102 62.69813 63.53702 64.46579 65.41039 66.37636 67.39198 68.42647 69.41420 70.37980 71.34840 72.26745 73.17603 74.01171 74.75176 75.37870 75.92190 76.51250 77.22865 78.10318 78.99752 79.93664 80.94411 82.08975 83.23629 84.37056 85.34506 86.32877 87.31708 88.10572 88.69888 89.38830 90.03779 90.52436 90.84372 91.17216 
21 "AU9" 89.76425 89.76425 89.76425 59.28332 62.31137 53.69699 57.37469 57.37469 57.37469 57.37469 57.37469 57.37469 57.37469 57.39389 57.39804 57.35976 57.25165 57.21643 57.39699 59.53505 61.34439 62.62357 63.32597 63.61750 63.65808 63.66696 63.71488 63.89684 64.33117 64.85152 65.38368 66.08642 66.90086 67.57908 67.97012 68.32453 68.68174 68.83973 69.05172 69.28899 69.51722 69.59255 69.57596 69.39731 68.93615 68.32108 67.69000 67.12319 66.64302 66.20189 65.79795 65.44518 65.10116 64.70750 64.22978 63.61382 62.87882 62.09770 61.25623 60.42331 59.69359 59.11304 58.62757 58.22255 57.80244 57.44012 57.18364 57.04633 57.01636 57.08203 57.21350 57.40235 57.69058 58.07673 58.53163 59.09289 59.77714 60.55993 61.43485 62.40078 63.38838 64.40117 65.46977 66.54263 67.57296 68.58995 69.61860 70.58414 71.50986 72.41410 73.21518 73.84601 74.37169 75.01055 75.81675 76.78056 77.67411 78.53382 79.66299 81.00343 82.20590 83.30891 84.41138 85.53003 86.53116 87.37582 88.08369 88.84171 89.42865 90.03926 90.33998 90.65184 
22 "AD3" 88.97688 88.97688 88.97688 57.40427 60.32728 51.41429 54.90841 54.90841 54.90841 54.90841 54.90841 54.90841 54.90841 54.92673 54.93066 54.89397 54.79045 54.75669 54.92943 56.97240 58.67099 59.84754 60.47578 60.75040 60.82311 60.87601 60.94577 61.10955 61.49052 61.96604 62.46647 63.03888 63.66877 64.41438 65.03722 65.48827 65.91243 66.24119 66.61761 66.99677 67.35237 67.59078 67.67345 67.46517 67.00408 66.38981 65.74232 65.14990 64.63676 64.17719 63.79205 63.44376 63.08367 62.67083 62.17768 61.54073 60.79242 59.97418 59.11140 58.27686 57.56809 57.00643 56.53902 56.13065 55.74114 55.41329 55.18624 55.08027 55.08067 55.17617 55.34035 55.56885 55.87038 56.25849 56.74333 57.33376 58.04614 58.86196 59.77973 60.78557 61.81017 62.87944 63.98802 65.10496 66.21207 67.27790 68.31807 69.32159 70.28317 71.20140 72.02709 72.71869 73.29334 73.93617 74.72561 75.65664 76.63939 77.67065 78.84238 80.07855 81.32267 82.56374 83.70536 84.82505 85.82072 86.66882 87.44781 88.19045 88.88399 89.52928 90.07120 90.47952 
