Epson_XP-960/ScandinavianPhoto/SatinProfessional2/XP_960-satin-professional.ti2
CTI2   

DESCRIPTOR "Argyll Calibration Target chart information 2"
ORIGINATOR "Argyll printtarg"
CREATED "Wed Nov 15 20:21:42 2023"
TARGET_INSTRUMENT "GretagMacbeth i1 Pro"
COMP_GREY_STEPS "128"
APPROX_WHITE_POINT "95.106486 100.000000 108.844025"
COLOR_REP "iRGB"
PAPER_SIZE "297.0x210.0"
RANDOM_START "102"
STEPS_IN_PASS "16"
PASSES_IN_STRIPS2 "35,35"
STRIP_INDEX_PATTERN "A-Z, A-Z"
PATCH_INDEX_PATTERN "0-9,@-9,@-9;1-999"
INDEX_ORDER "STRIP_THEN_PATCH"

NUMBER_OF_FIELDS 8
BEGIN_DATA_FORMAT
SAMPLE_ID SAMPLE_LOC RGB_R RGB_G RGB_B XYZ_X XYZ_Y XYZ_Z 
END_DATA_FORMAT

NUMBER_OF_SETS 1120
BEGIN_DATA
1 "K2" 100.0000 100.0000 100.0000 95.10649 100.0000 108.8440 
2 "F12" 14.64408 100.0000 68.21088 44.73115 75.21915 52.64871 
3 "AV2" 65.48409 19.86114 58.19181 23.25426 13.57559 30.16087 
4 "AO3" 44.64027 49.39803 0.00000 15.23108 19.29387 3.781725 
5 "K7" 0.00000 0.00000 0.00000 1.000000 1.000000 1.000000 
6 "P2" 56.74983 67.45708 72.88624 35.88037 39.65315 52.54988 
7 "BP12" 51.56023 0.00000 45.93118 13.52679 7.090290 18.22093 
8 "L2" 92.91371 92.91371 92.91371 80.64228 84.78366 92.26835 
9 "H12" 5.888457 52.37201 57.01686 14.66474 19.89227 30.61379 
10 "AT11" 98.42527 98.42527 98.42527 91.77029 96.49032 105.0208 
11 "AD13" 97.63790 97.63790 97.63790 90.12848 94.76313 103.1393 
12 "BA12" 96.85054 96.85054 96.85054 88.50412 93.05431 101.2779 
13 "BA8" 96.06317 96.06317 96.06317 86.89716 91.36379 99.43632 
14 "AV15" 95.27581 95.27581 95.27581 85.30756 89.69153 97.61466 
15 "BO15" 94.48844 94.48844 94.48844 83.73524 88.03745 95.81282 
16 "AU5" 93.70108 93.70108 93.70108 82.18017 86.40152 94.03074 
17 "G6" 0.00000 0.00000 0.00000 1.000000 1.000000 1.000000 
18 "F14" 92.12634 92.12634 92.12634 79.12152 83.18382 90.52559 
19 "H2" 91.33898 91.33898 91.33898 77.61783 81.60194 88.80240 
20 "AJ6" 90.55161 90.55161 90.55161 76.13117 80.03797 87.09872 
21 "AU9" 89.76425 89.76425 89.76425 74.66147 78.49185 85.41448 
22 "AD3" 88.97688 88.97688 88.97688 73.20868 76.96352 83.74961 
23 "AD5" 88.18952 88.18952 88.18952 71.77274 75.45291 82.10406 
24 "U3" 87.40215 87.40215 87.40215 70.35360 73.95997 80.47775 
25 "AU7" 86.61479 86.61479 86.61479 68.95120 72.48465 78.87063 
26 "C8" 85.82742 85.82742 85.82742 67.56549 71.02687 77.28263 
27 "G7" 85.04005 85.04005 85.04005 66.19639 69.58659 75.71368 
28 "U13" 84.25269 84.25269 84.25269 64.84387 68.16374 74.16371 
29 "AY10" 83.46532 83.46532 83.46532 63.50786 66.75825 72.63267 
30 "BH10" 82.67643 82.67643 82.67643 62.18830 65.37007 71.12048 
31 "BA14" 81.88907 81.88907 81.88907 60.88513 63.99914 69.62708 
32 "L6" 81.10170 81.10170 81.10170 59.59830 62.64540 68.15240 
33 "C10" 80.31434 80.31434 80.31434 58.32775 61.30878 66.69637 
34 "BM9" 79.52697 79.52697 79.52697 57.07341 59.98921 65.25893 
35 "AZ2" 78.73960 78.73960 78.73960 55.83523 58.68665 63.84000 
36 "BH12" 77.95224 77.95224 77.95224 54.61315 57.40102 62.43952 
37 "BM13" 77.16487 77.16487 77.16487 53.40710 56.13226 61.05742 
38 "BH8" 76.37751 76.37751 76.37751 52.21703 54.88030 59.69362 
39 "L10" 75.59014 75.59014 75.59014 51.04288 53.64509 58.34807 
40 "BE7" 74.80278 74.80278 74.80278 49.88458 52.42656 57.02068 
41 "G9" 74.01541 74.01541 74.01541 48.74207 51.22464 55.71139 
42 "L12" 73.22805 73.22805 73.22805 47.61529 50.03927 54.42012 
43 "D15" 72.44068 72.44068 72.44068 46.50418 48.87038 53.14681 
44 "AE7" 71.65332 71.65332 71.65332 45.40867 47.71791 51.89139 
45 "A15" 70.86595 70.86595 70.86595 44.32870 46.58179 50.65377 
46 "BH2" 70.07858 70.07858 70.07858 43.26422 45.46194 49.43389 
47 "BE9" 69.29122 69.29122 69.29122 42.21514 44.35832 48.23167 
48 "R12" 68.50385 68.50385 68.50385 41.18142 43.27084 47.04705 
49 "BC6" 67.71649 67.71649 67.71649 40.16297 42.19944 45.87993 
50 "BD8" 66.92912 66.92912 66.92912 39.15975 41.14405 44.73026 
51 "BQ3" 66.14176 66.14176 66.14176 38.17168 40.10460 43.59796 
52 "AT7" 65.35439 65.35439 65.35439 37.19870 39.08103 42.48294 
53 "AJ3" 64.56703 64.56703 64.56703 36.24074 38.07325 41.38514 
54 "P7" 63.77966 63.77966 63.77966 35.29774 37.08121 40.30447 
55 "P9" 62.99229 62.99229 62.99229 34.36962 36.10483 39.24087 
56 "AL2" 62.20493 62.20493 62.20493 33.45631 35.14403 38.19424 
57 "BQ5" 61.41756 61.41756 61.41756 32.55776 34.19876 37.16452 
58 "D3" 60.63020 60.63020 60.63020 31.67389 33.26893 36.15162 
59 "AN12" 59.84283 59.84283 59.84283 30.80463 32.35447 35.15547 
60 "L4" 59.05547 59.05547 59.05547 29.94991 31.45530 34.17598 
61 "X10" 58.26810 58.26810 58.26810 29.10967 30.57136 33.21308 
62 "BP10" 57.48074 57.48074 57.48074 28.28382 29.70258 32.26668 
63 "BB13" 56.69337 56.69337 56.69337 27.47231 28.84886 31.33670 
64 "BP8" 55.90600 55.90600 55.90600 26.67505 28.01015 30.42306 
65 "G2" 55.11864 55.11864 55.11864 25.89198 27.18635 29.52568 
66 "BQ7" 54.33127 54.33127 54.33127 25.12302 26.37741 28.64446 
67 "BM15" 53.54391 53.54391 53.54391 24.36809 25.58323 27.77934 
68 "Y14" 52.75654 52.75654 52.75654 23.62713 24.80374 26.93021 
69 "X8" 51.96918 51.96918 51.96918 22.90006 24.03886 26.09701 
70 "AI3" 51.18181 51.18181 51.18181 22.18681 23.28852 25.27963 
71 "N8" 50.39445 50.39445 50.39445 21.48729 22.55262 24.47800 
72 "V8" 49.60555 49.60555 49.60555 20.80143 21.83110 23.69202 
73 "AE11" 48.81819 48.81819 48.81819 20.12916 21.12387 22.92161 
74 "C6" 48.03082 48.03082 48.03082 19.47039 20.43085 22.16668 
75 "C14" 47.24346 47.24346 47.24346 18.82505 19.75195 21.42713 
76 "AN4" 46.45609 46.45609 46.45609 18.19306 19.08710 20.70288 
77 "V13" 45.66873 45.66873 45.66873 17.57434 18.43620 19.99384 
78 "AC6" 44.88136 44.88136 44.88136 16.96880 17.79918 19.29991 
79 "C4" 44.09400 44.09400 44.09400 16.37637 17.17594 18.62099 
80 "X12" 43.30663 43.30663 43.30663 15.79696 16.56640 17.95700 
81 "BJ7" 42.51926 42.51926 42.51926 15.23049 15.97048 17.30784 
82 "U15" 41.73190 41.73190 41.73190 14.67688 15.38808 16.67342 
83 "H9" 40.94453 40.94453 40.94453 14.13604 14.81911 16.05362 
84 "BB3" 40.15717 40.15717 40.15717 13.60789 14.26349 15.44837 
85 "AL4" 39.36980 39.36980 39.36980 13.09233 13.72113 14.85755 
86 "AW3" 38.58244 38.58244 38.58244 12.58929 13.19193 14.28108 
87 "K14" 37.79507 37.79507 37.79507 12.09867 12.67580 13.71884 
88 "Z8" 37.00771 37.00771 37.00771 11.62038 12.17264 13.17073 
89 "A9" 36.22034 36.22034 36.22034 11.15434 11.68237 12.63666 
90 "F2" 35.43297 35.43297 35.43297 10.70045 11.20487 12.11651 
91 "G4" 34.64561 34.64561 34.64561 10.25863 10.74007 11.61019 
92 "U9" 33.85824 33.85824 33.85824 9.828766 10.28786 11.11758 
93 "AI15" 33.07088 33.07088 33.07088 9.410778 9.848137 10.63857 
94 "AC8" 32.28351 32.28351 32.28351 9.004568 9.420804 10.17306 
95 "AH2" 31.49615 31.49615 31.49615 8.610039 9.005759 9.720942 
96 "AC10" 30.70878 30.70878 30.70878 8.227092 8.602899 9.282093 
97 "J14" 29.92142 29.92142 29.92142 7.855628 8.212119 8.856404 
98 "P14" 29.13405 29.13405 29.13405 7.495547 7.833314 8.443759 
99 "BD10" 28.34668 28.34668 28.34668 7.146747 7.466377 8.044041 
100 "AE5" 27.55932 27.55932 27.55932 6.809125 7.111198 7.657133 
101 "G14" 26.77195 26.77195 26.77195 6.482575 6.767667 7.282914 
102 "U7" 25.98459 25.98459 25.98459 6.166992 6.435674 6.921262 
103 "AN7" 25.19722 25.19722 25.19722 5.862267 6.115104 6.572054 
104 "J12" 24.40986 24.40986 24.40986 5.568292 5.805842 6.235165 
105 "AC2" 23.62249 23.62249 23.62249 5.284955 5.507771 5.910466 
106 "AO15" 22.83513 22.83513 22.83513 5.012142 5.220773 5.597830 
107 "M11" 22.04776 22.04776 22.04776 4.749741 4.944726 5.297123 
108 "AV6" 21.26040 21.26040 21.26040 4.497633 4.679509 5.008212 
109 "BE5" 20.47303 20.47303 20.47303 4.255699 4.424995 4.730962 
110 "BL11" 19.68566 19.68566 19.68566 4.023820 4.181058 4.465234 
111 "AI1" 18.89830 18.89830 18.89830 3.801872 3.947569 4.210886 
112 "AW1" 18.11093 18.11093 18.11093 3.589730 3.724395 3.967775 
113 "M7" 17.32357 17.32357 17.32357 3.387265 3.511402 3.735755 
114 "AA10" 16.53468 16.53468 16.53468 3.194348 3.308453 3.514676 
115 "AU4" 15.74731 15.74731 15.74731 3.010845 3.115408 3.304385 
116 "M16" 14.95995 14.95995 14.95995 2.836620 2.932124 3.104727 
117 "D1" 14.17258 14.17258 14.17258 2.671534 2.758453 2.915542 
118 "AP1" 13.38521 13.38521 13.38521 2.515445 2.594247 2.736667 
119 "BA11" 12.59785 12.59785 12.59785 2.368206 2.439353 2.567935 
120 "G16" 11.81048 11.81048 11.81048 2.229669 2.293612 2.409175 
121 "AN1" 11.02312 11.02312 11.02312 2.099680 2.156863 2.260210 
122 "BA7" 10.23575 10.23575 10.23575 1.978081 2.028941 2.120860 
123 "AB1" 9.448386 9.448386 9.448386 1.864709 1.909674 1.990938 
124 "M2" 8.661021 8.661021 8.661021 1.759399 1.798887 1.870255 
125 "AY16" 7.873655 7.873655 7.873655 1.661976 1.696398 1.758610 
126 "K1" 7.086290 7.086290 7.086290 1.572262 1.602020 1.655800 
127 "BR16" 6.298924 6.298924 6.298924 1.490073 1.515557 1.561613 
128 "AA16" 5.511559 5.511559 5.511559 1.415217 1.436808 1.475829 
129 "AD16" 4.724193 4.724193 4.724193 1.347492 1.365562 1.398219 
130 "AD2" 3.936828 3.936828 3.936828 1.286692 1.301600 1.328543 
131 "U4" 3.149462 3.149462 3.149462 1.229411 1.241340 1.262900 
132 "L16" 2.362097 2.362097 2.362097 1.172058 1.181005 1.197175 
133 "BJ13" 1.574731 1.574731 1.574731 1.114705 1.120670 1.131450 
134 "Q16" 0.787366 0.787366 0.787366 1.057353 1.060335 1.065725 
135 "Z5" 100.0000 0.00000 100.0000 59.70128 29.19948 97.04219 
136 "BR3" 100.0000 100.0000 0.00000 77.23538 92.85269 14.71507 
137 "Y15" 0.00000 100.0000 0.00000 36.40521 71.80052 12.80184 
138 "N7" 0.00000 0.00000 100.0000 18.87111 8.147314 95.12896 
139 "AI2" 100.0000 0.00000 0.00000 41.83017 22.05217 2.913230 
140 "BC12" 0.00000 100.0000 100.0000 54.27632 78.94783 106.9308 
141 "BD4" 0.00000 30.41428 100.0000 21.53731 13.47897 96.01770 
142 "BQ2" 100.0000 0.00000 31.50835 43.27643 22.63058 10.53083 
143 "AB16" 100.0000 41.47402 0.00000 46.90849 32.20739 4.606018 
144 "AF9" 0.00000 100.0000 38.41611 38.58617 72.67276 24.28919 
145 "BJ14" 50.97581 100.0000 0.00000 45.51777 76.49898 13.22883 
146 "K13" 47.35485 0.00000 100.0000 26.64379 12.15493 95.49317 
147 "W5" 0.00000 67.46319 0.00000 15.61225 30.22042 5.870792 
148 "BD7" 0.00000 0.00000 59.44915 6.578429 3.231019 30.38216 
149 "A6" 100.0000 55.97772 100.0000 69.38804 48.57030 100.2711 
150 "H16" 53.29519 0.00000 0.00000 11.03697 6.175094 1.470315 
151 "M8" 100.0000 100.0000 45.77859 80.39916 94.11800 31.37902 
152 "AJ9" 56.46143 100.0000 100.0000 65.65987 84.81723 107.4642 
153 "AT13" 100.0000 0.00000 49.70169 45.60613 23.56231 22.80160 
154 "BK3" 0.00000 61.34890 100.0000 30.71485 31.83149 99.07691 
155 "AB13" 0.00000 53.69650 0.00000 9.846743 18.69101 3.948939 
156 "AW10" 0.00000 100.0000 63.20287 42.78913 74.35368 46.42658 
157 "U14" 100.0000 18.42679 100.0000 60.70718 31.21101 97.37749 
158 "AL10" 72.17975 31.58465 0.00000 23.46381 16.85609 2.877559 
159 "AW12" 39.47814 43.74762 100.0000 29.83663 22.24353 97.27241 
160 "AZ12" 36.59571 0.00000 59.60937 11.11303 5.565241 30.76770 
161 "AV5" 68.05371 100.0000 59.57733 59.19040 82.90033 43.12896 
162 "T12" 0.00000 35.67864 41.13527 7.221424 9.411112 15.50242 
163 "Y11" 100.0000 38.61143 47.71801 49.65558 32.16798 22.58505 
164 "Y8" 100.0000 70.36851 0.00000 57.87760 54.14255 8.262420 
165 "AM9" 0.00000 0.00000 30.58824 2.361573 1.544543 8.171545 
166 "C3" 67.90723 100.0000 0.00000 53.50334 80.61637 13.60302 
167 "AX4" 48.91890 0.00000 57.83627 14.58824 7.398665 29.05316 
168 "BJ4" 34.23209 76.06165 0.00000 24.00924 41.19643 7.547228 
169 "AI10" 13.53628 100.0000 100.0000 54.94641 79.29333 106.9622 
170 "A2" 69.51400 0.00000 0.00000 19.01041 10.28622 1.843936 
171 "BJ2" 16.61097 0.00000 100.0000 19.83107 8.642274 95.17394 
172 "T13" 100.0000 100.0000 73.31807 86.11211 96.40282 61.46970 
173 "C15" 62.30869 0.00000 100.0000 33.00494 15.43477 95.79125 
174 "AK6" 29.29580 100.0000 73.25246 48.11400 76.81294 59.59569 
175 "Z16" 0.00000 72.55360 55.74884 23.02518 37.29155 32.25114 
176 "N2" 28.87465 100.0000 16.09216 39.56997 73.38637 15.02210 
177 "D12" 100.0000 87.71801 53.60189 72.58457 76.43619 35.11124 
178 "AN13" 58.36576 24.23896 100.0000 32.80741 17.84904 96.26767 
179 "I11" 26.05478 0.00000 0.00000 3.253993 2.162166 1.105618 
180 "D11" 27.83093 76.67811 100.0000 40.88107 48.34621 101.7293 
181 "AK8" 100.0000 100.0000 30.01297 78.54534 93.37659 21.61478 
182 "E7" 0.00000 27.82483 0.00000 3.227906 5.455189 1.742641 
183 "E11" 28.86397 52.58717 0.00000 12.21947 19.33117 3.947541 
184 "BR12" 52.10040 72.90303 100.0000 45.78983 47.79792 101.3649 
185 "AA4" 73.62173 0.00000 30.94682 22.86280 12.11128 9.302239 
186 "J13" 100.0000 37.69436 100.0000 63.85372 37.50320 98.42635 
187 "AL1" 100.0000 27.16564 0.00000 43.95377 26.29877 3.621102 
188 "AN8" 100.0000 0.00000 84.24659 53.95237 26.90028 66.76212 
189 "BF10" 86.86351 100.0000 100.0000 83.94987 94.24761 108.3212 
190 "AK13" 100.0000 64.04974 60.15259 60.57941 50.38704 37.40763 
191 "J6" 0.00000 50.66758 86.70634 21.73395 21.76897 71.72946 
192 "AP2" 88.40925 0.00000 72.14160 40.44216 20.34616 47.54432 
193 "BG13" 17.10842 100.0000 0.00000 37.41779 72.32261 12.84928 
194 "Z9" 62.19577 74.98589 0.00000 33.56953 45.23748 7.823745 
195 "K6" 58.57481 62.16831 100.0000 43.40305 38.89457 99.77202 
196 "X4" 43.10979 0.00000 26.57664 8.383877 4.688465 6.702530 
197 "AS3" 39.80468 12.42084 0.00000 6.871854 4.773563 1.419148 
198 "AG7" 0.00000 25.68093 73.71481 11.88344 8.391153 48.95350 
199 "AG6" 100.0000 48.47486 40.01831 51.29490 37.17656 17.79491 
200 "BD11" 0.00000 100.0000 88.00488 49.78194 77.15037 83.25846 
201 "AO4" 100.0000 37.52346 80.78584 56.97381 34.68875 62.38322 
202 "R9" 0.00000 0.00000 86.67887 13.92605 6.169604 69.08284 
203 "AO7" 0.00000 60.39979 28.94789 13.66155 24.37153 11.22833 
204 "BM16" 49.48501 100.0000 39.22026 47.22938 77.11800 25.20092 
205 "G3" 72.37964 100.0000 16.46448 56.52442 82.12622 15.90311 
206 "BF12" 100.0000 75.90906 41.46487 63.39810 61.08307 22.74375 
207 "Z11" 42.97704 100.0000 100.0000 60.59256 82.20451 107.2268 
208 "E1" 0.00000 0.00000 13.48898 1.291590 1.116618 2.535835 
209 "BC16" 85.56802 0.00000 0.00000 29.68478 15.78997 2.344119 
210 "BD9" 0.00000 100.0000 12.36133 36.65692 71.90119 14.12764 
211 "AK16" 62.17899 0.00000 71.01396 23.33554 11.56012 45.19990 
212 "AS12" 0.00000 86.41642 74.47623 35.62621 55.53632 57.89708 
213 "BC1" 0.00000 26.81315 16.29816 3.475053 5.299908 3.828115 
214 "I16" 100.0000 31.65484 32.65736 46.27926 28.45909 12.07552 
215 "BL4" 58.68925 100.0000 70.11521 56.83123 81.40280 55.70627 
216 "L5" 0.00000 85.97848 12.59174 26.40361 51.38481 10.74876 
217 "AQ9" 13.15938 100.0000 51.25353 41.07977 73.74392 34.08912 
218 "AA12" 31.73877 0.00000 31.58312 5.807474 3.310650 8.811914 
219 "G13" 82.52232 100.0000 0.00000 62.84135 85.43108 14.04059 
220 "BL7" 0.00000 73.65835 100.0000 36.63948 43.67909 101.0518 
221 "AW15" 100.0000 87.85382 100.0000 86.10005 81.98964 105.8419 
222 "U6" 75.87396 75.59777 0.00000 41.72549 49.94568 8.303004 
223 "BR5" 100.0000 85.96628 0.00000 66.96568 72.31616 11.29180 
224 "S12" 29.28817 57.78592 100.0000 32.10441 30.38261 98.72405 
225 "AZ4" 0.00000 49.07301 64.52277 14.95984 18.22581 38.62136 
226 "C16" 15.81903 29.04097 0.00000 4.307517 6.308798 1.850552 
227 "BL16" 28.52064 14.64561 100.0000 22.23692 10.87077 95.47739 
228 "BQ12" 67.48913 32.81147 100.0000 38.85026 23.06960 96.95713 
229 "X11" 0.00000 14.67460 100.0000 19.53918 9.483269 95.35165 
230 "AI16" 37.34798 81.20394 32.07904 29.30527 48.23156 16.49209 
231 "B11" 72.44984 47.83551 0.00000 27.63631 24.95666 4.221448 
232 "AK7" 100.0000 63.32647 72.42847 63.17000 50.90684 52.64472 
233 "AZ13" 100.0000 56.40040 29.77188 52.96651 42.25991 12.98406 
234 "BA16" 0.00000 15.19188 58.08042 7.010421 4.539473 29.15503 
235 "O4" 85.78164 36.74067 35.30938 35.61108 24.47484 13.29588 
236 "AD15" 67.66766 79.61852 27.90875 40.24563 52.49360 14.80409 
237 "AH12" 42.50248 49.24239 83.53857 26.39504 23.60011 66.38000 
238 "BL1" 29.88174 26.03494 0.00000 5.917883 6.431967 1.789512 
239 "Z15" 75.85412 45.81979 69.66354 37.08280 28.00796 45.83818 
240 "BI7" 11.94781 0.00000 41.70748 4.137667 2.317751 14.68841 
241 "W8" 75.35668 0.00000 58.73503 27.99440 14.29006 30.62303 
242 "A7" 33.91775 54.89586 51.98138 18.28839 23.20949 26.19212 
243 "U10" 88.56031 100.0000 41.39925 69.95840 88.80529 27.70445 
244 "AV1" 0.00000 22.90532 31.50988 3.965003 4.615068 9.125106 
245 "U16" 0.00000 82.59556 25.05989 24.88304 47.29803 13.46795 
246 "Q3" 31.26879 32.00275 61.39773 13.20020 10.98799 33.68204 
247 "AB11" 12.07599 74.34958 0.00000 19.69661 37.56677 7.073736 
248 "BH13" 35.99298 100.0000 45.69772 43.90506 75.30291 29.60626 
249 "L13" 100.0000 9.614710 40.77668 44.63719 23.70926 16.04979 
250 "R13" 75.15679 0.00000 100.0000 40.30521 19.19881 96.13332 
251 "S11" 85.27047 25.28267 0.00000 31.30240 19.35709 2.947480 
252 "AE9" 100.0000 88.10407 85.02174 80.77408 80.13173 76.95019 
253 "AO9" 75.48486 100.0000 73.36690 66.93952 86.51584 60.64045 
254 "BF6" 100.0000 15.75647 65.84268 49.57595 26.36134 39.97521 
255 "BH3" 100.0000 100.0000 16.42939 77.64731 93.01743 16.88473 
256 "AL13" 31.62737 0.00000 100.0000 22.20094 9.864186 95.28499 
257 "AD11" 87.10918 60.41962 100.0000 60.18785 46.44750 100.3459 
258 "P5" 57.02144 38.34592 20.84993 17.57610 15.86040 6.351190 
259 "BA9" 44.72419 24.30457 0.00000 9.580500 7.953337 1.890277 
260 "K8" 83.48516 73.30892 100.0000 63.58731 57.29528 102.2608 
261 "AS14" 100.0000 100.0000 100.0000 95.10649 100.0000 108.8440 
262 "BL3" 53.48592 0.00000 33.95132 12.80149 6.889856 10.35519 
263 "AA13" 61.41299 87.60204 100.0000 58.78876 67.65361 104.5130 
264 "F1" 100.0000 13.83536 12.83894 42.70161 23.36573 4.527000 
265 "AM2" 0.00000 72.99001 69.75662 26.35472 38.99354 48.64590 
266 "W9" 47.24346 68.72358 69.02876 31.71939 38.53715 47.31528 
267 "BI12" 100.0000 76.16541 14.52354 61.31075 60.47809 11.04067 
268 "AZ6" 0.00000 82.23850 0.00000 23.74708 46.48779 8.582423 
269 "AT4" 53.28908 63.66064 0.00000 23.88473 31.87091 5.753689 
270 "BJ10" 100.0000 100.0000 58.21927 82.56375 94.98370 42.78016 
271 "L3" 100.0000 13.11818 0.00000 42.38115 23.15398 3.096893 
272 "AC16" 12.52918 0.00000 23.73388 2.409373 1.631691 5.352969 
273 "AP16" 25.24605 42.12711 100.0000 26.23815 19.73649 96.97800 
274 "AL16" 0.00000 40.56611 15.37194 6.211645 10.83656 4.542214 
275 "J3" 24.72572 0.00000 64.83711 9.787222 4.749454 36.67179 
276 "N12" 0.00000 54.38926 14.92485 10.44452 19.33079 5.861735 
277 "AZ3" 43.37377 14.17258 100.0000 25.94083 12.72576 95.64038 
278 "AM4" 51.34356 0.00000 15.96551 10.64705 5.928786 3.494794 
279 "BC10" 41.47860 60.14191 19.53460 18.76122 26.91798 8.035044 
280 "M6" 100.0000 100.0000 100.0000 95.10649 100.0000 108.8440 
281 "V12" 73.66293 15.76257 100.0000 40.12332 20.22970 96.34190 
282 "AX8" 100.0000 0.00000 66.75517 49.03510 24.93368 40.86233 
283 "AL11" 73.09987 100.0000 36.13794 58.47056 82.95550 23.85460 
284 "AL8" 58.18875 26.36149 0.00000 15.15975 11.26949 2.236541 
285 "E12" 92.35981 59.95422 38.91356 48.58981 41.98816 18.15257 
286 "BB2" 71.59838 0.00000 86.33097 33.04318 16.04001 69.36733 
287 "AC3" 47.71038 100.0000 84.15961 56.39846 80.71019 76.87424 
288 "AQ3" 77.63485 42.39567 24.85389 30.26836 23.88329 8.587551 
289 "BH16" 14.54337 0.00000 11.26574 1.974615 1.477501 2.174566 
290 "T7" 56.23713 12.03632 43.15404 15.55053 8.887902 16.37757 
291 "Y1" 0.00000 46.01511 100.0000 25.20862 20.82057 97.24148 
292 "BG8" 8.311589 55.02861 67.52270 18.03179 22.77609 43.04856 
293 "AX16" 52.72755 49.64675 100.0000 36.13952 28.12677 98.07608 
294 "AJ4" 43.10063 0.00000 87.30297 20.49180 9.530535 70.49124 
295 "AD7" 100.0000 0.00000 16.41108 42.24123 22.21657 5.078341 
296 "AE3" 40.25177 0.00000 0.00000 6.497415 3.834485 1.257599 
297 "AS7" 59.46136 26.76280 29.00893 17.03560 12.18572 8.725677 
298 "AA3" 0.00000 40.78737 0.00000 5.901791 10.80221 2.633944 
299 "J11" 86.45151 100.0000 64.96986 72.54743 89.65075 49.91532 
300 "AT6" 31.34051 100.0000 31.17266 41.08882 74.05173 20.40828 
301 "AE15" 54.61509 41.16121 77.90494 26.75135 20.51850 56.71436 
302 "L8" 88.09491 85.90372 100.0000 74.59677 74.12186 104.9290 
303 "AF12" 100.0000 27.48150 54.85771 48.68187 28.26918 28.27945 
304 "Y10" 14.33738 57.33730 0.00000 11.94889 21.79677 4.437725 
305 "AU12" 0.00000 81.36263 48.06744 26.71912 46.81050 26.90700 
306 "BN16" 56.94057 92.44221 49.01503 45.88075 67.67716 30.71723 
307 "AA15" 17.84390 73.74075 51.64416 24.00907 38.82559 28.59819 
308 "AL7" 73.74990 93.15633 41.95163 54.31523 72.91850 25.84282 
309 "AW4" 49.02724 100.0000 56.13184 49.70038 78.08658 39.10362 
310 "J5" 83.57214 62.28428 0.00000 40.44509 39.51164 6.356367 
311 "AQ11" 32.85725 100.0000 86.07614 52.72980 78.74581 79.98817 
312 "BK4" 22.34531 22.13931 92.28199 18.98410 10.66062 79.99336 
313 "D7" 43.09148 100.0000 12.14923 43.00179 75.17344 14.38798 
314 "BM6" 55.14305 28.00488 79.63226 24.74740 15.35862 58.51143 
315 "AO12" 100.0000 42.12100 25.54513 48.02650 32.92546 9.659121 
316 "C11" 100.0000 50.65385 13.51644 49.91696 37.75541 7.052449 
317 "BG15" 24.03143 85.66567 0.00000 27.86034 51.86008 9.402792 
318 "S13" 25.99985 15.06981 56.46296 8.926953 5.549433 27.58322 
319 "D10" 60.79805 56.67353 30.76829 25.71936 28.35590 12.20211 
320 "BD5" 0.00000 50.86290 47.06950 12.22221 18.06892 21.30926 
321 "BC11" 84.93477 17.03212 67.90417 37.56257 20.27889 42.02662 
322 "AP13" 85.42458 38.09720 0.00000 33.82180 24.22426 3.754294 
323 "A10" 100.0000 85.09041 27.21599 67.46802 71.59946 16.76756 
324 "M4" 27.85687 100.0000 100.0000 56.85158 80.27565 107.0515 
325 "BP7" 0.00000 17.37392 87.01152 14.94113 8.020032 69.97461 
326 "T3" 14.66087 71.06126 75.27276 27.58484 37.96057 56.08766 
327 "BI16" 76.15625 0.00000 14.42893 23.40470 12.51406 3.759161 
328 "T9" 100.0000 51.70367 57.29763 55.12392 40.40444 32.73064 
329 "E14" 63.05028 100.0000 85.29183 63.37745 84.26580 79.13202 
330 "AA11" 0.00000 87.14733 100.0000 44.79294 59.98373 103.7696 
331 "BR6" 22.99077 45.82742 21.02235 9.696205 14.73210 6.600947 
332 "AX10" 0.00000 100.0000 50.64164 40.33730 73.37311 33.51259 
333 "A4" 66.53696 18.95628 13.98489 18.71224 11.67019 3.753058 
334 "AB14" 82.56657 83.56146 43.91089 53.94030 62.95466 25.34343 
335 "AJ2" 0.00000 0.00000 72.86336 9.754243 4.501144 47.10950 
336 "AZ8" 0.00000 72.80537 33.48287 19.95107 36.27550 15.40136 
337 "H14" 0.00000 40.78889 54.87755 10.58478 12.67633 27.29596 
338 "G15" 100.0000 29.50179 90.69352 58.65495 32.79077 79.16490 
339 "AB12" 100.0000 75.29717 86.61936 73.40049 64.53695 77.11264 
340 "Q6" 64.04974 59.64599 44.78523 30.17172 32.21368 21.31367 
341 "AA2" 100.0000 76.08759 71.68994 69.37837 63.63399 53.75157 
342 "AE10" 58.41154 89.57351 0.00000 40.84244 62.47563 10.76816 
343 "BJ8" 29.61471 100.0000 58.65568 44.73445 75.46862 41.46633 
344 "AP9" 100.0000 100.0000 100.0000 95.10649 100.0000 108.8440 
345 "T5" 77.86221 0.00000 46.27604 27.43840 14.25720 19.14172 
346 "AO13" 24.14588 51.88220 52.44678 15.39269 20.11430 26.17351 
347 "BF11" 16.66438 42.77409 84.71351 19.66190 17.24955 67.50214 
348 "BM10" 14.26261 100.0000 28.88991 38.35106 72.66353 19.22371 
349 "AM7" 77.73709 46.68040 100.0000 48.52383 33.13560 98.39067 
350 "AC4" 38.99748 0.00000 12.21637 6.389352 3.750214 2.541191 
351 "AB7" 0.00000 100.0000 25.40932 37.34393 72.17595 17.74616 
352 "BF7" 12.86183 15.95636 0.00000 2.389025 2.865558 1.286950 
353 "I1" 13.99557 42.24155 0.00000 6.989411 11.92402 2.793202 
354 "AW2" 88.95705 72.83589 0.00000 49.64287 51.79842 8.243644 
355 "AJ15" 71.42748 100.0000 100.0000 73.40921 88.81281 107.8273 
356 "Q5" 12.65278 78.60227 27.92096 23.27939 42.85361 13.84212 
357 "B6" 100.0000 51.28862 72.83894 58.58535 41.56339 51.65756 
358 "BQ4" 91.65332 29.38582 100.0000 54.86072 30.39432 97.52777 
359 "E3" 12.14466 0.00000 73.04494 10.36167 4.808685 47.39307 
360 "AV13" 23.70336 38.99748 60.23957 13.07378 13.17935 32.82217 
361 "B15" 100.0000 72.48035 100.0000 76.84151 63.47515 102.7556 
362 "AH8" 30.25559 62.10269 32.68025 17.76750 27.52190 13.40770 
363 "AX15" 0.00000 74.34348 84.23590 31.25850 42.12095 70.87800 
