Epson_XP-960/Moab/Chinle/Entrada Fine Art 190/Moab_Chinle_Entrada_Fine_Art_190_XP-960.ti1
CTI1   

DESCRIPTOR "Argyll Calibration Target chart information 1"
ORIGINATOR "Argyll targen"
CREATED "Sat Sep 12 11:03:06 2020"
APPROX_WHITE_POINT "95.106486 100.000000 108.844025"
COLOR_REP "iRGB"
WHITE_COLOR_PATCHES "16"
BLACK_COLOR_PATCHES "4"
COMP_GREY_STEPS "16"
OFPS_PATCHES "200"

NUMBER_OF_FIELDS 7
BEGIN_DATA_FORMAT
SAMPLE_ID RGB_R RGB_G RGB_B XYZ_X XYZ_Y XYZ_Z 
END_DATA_FORMAT

NUMBER_OF_SETS 234
BEGIN_DATA
1 100.0000 100.0000 100.0000 95.10649 100.0000 108.8440 
2 42.50555 55.02134 100.0000 34.37010 29.98419 98.52781 
3 94.78988 78.16522 18.62142 57.96881 60.43219 12.18599 
4 29.68907 33.39699 87.02593 20.19983 14.18298 70.91240 
5 15.81674 86.76871 36.43880 29.49988 53.56309 19.88207 
6 100.0000 0.00000 0.00000 41.83017 22.05217 2.913230 
7 47.97671 75.06577 0.00000 27.53040 42.18918 7.553403 
8 63.81511 54.40601 100.0000 42.87340 34.03307 98.86151 
9 46.66667 46.66667 46.66667 18.36029 19.26302 20.89453 
10 42.95755 28.45281 100.0000 27.51134 16.06030 96.20133 
11 34.62056 7.180434 17.65560 5.699578 3.694102 3.733254 
12 85.55738 51.59419 100.0000 55.65911 39.15321 99.17644 
13 0.00000 0.00000 0.00000 1.000000 1.000000 1.000000 
14 0.00000 63.51205 50.51513 17.69534 28.12938 25.86070 
15 9.291167 40.08991 31.30390 7.519539 11.21120 10.10999 
16 61.50858 89.66706 14.58130 42.71615 63.50003 12.61541 
17 100.0000 100.0000 78.06052 87.44826 96.93719 68.50737 
18 0.00000 100.0000 76.34129 46.12103 75.68623 63.97607 
19 21.27768 50.59719 100.0000 28.16641 24.47953 97.79199 
20 55.48569 15.04699 88.78117 26.30053 13.50271 73.61442 
21 100.0000 77.53773 72.82511 70.50482 65.40501 55.61217 
22 86.66667 86.66667 86.66667 69.04418 72.58246 78.97718 
23 80.00000 80.00000 80.00000 57.82407 60.77891 66.11917 
24 73.33333 73.33333 73.33333 47.76462 50.19637 54.59125 
25 66.66667 66.66667 66.66667 38.82872 40.79580 44.35090 
26 60.00000 60.00000 60.00000 30.97732 32.53613 35.35337 
27 53.33333 53.33333 53.33333 24.16914 25.37393 27.55134 
28 100.0000 100.0000 100.0000 95.10649 100.0000 108.8440 
29 40.00000 40.00000 40.00000 13.50377 14.15396 15.32905 
30 33.33333 33.33333 33.33333 9.548794 9.993329 10.79674 
31 26.66667 26.66667 26.66667 6.439866 6.722738 7.233970 
32 20.00000 20.00000 20.00000 4.115373 4.277372 4.570151 
33 13.33333 13.33333 13.33333 2.505355 2.583633 2.725105 
34 6.666667 6.666667 6.666667 1.527504 1.554934 1.604508 
35 0.00000 100.0000 0.00000 36.40521 71.80052 12.80184 
36 0.00000 0.00000 100.0000 18.87111 8.147314 95.12896 
37 100.0000 0.00000 100.0000 59.70128 29.19948 97.04219 
38 100.0000 100.0000 0.00000 77.23538 92.85269 14.71507 
39 100.0000 100.0000 100.0000 95.10649 100.0000 108.8440 
40 0.00000 100.0000 100.0000 54.27632 78.94783 106.9308 
41 0.00000 48.48381 100.0000 25.96188 22.32688 97.49257 
42 100.0000 0.00000 40.14537 44.22292 23.00912 15.51610 
43 100.0000 28.31654 0.00000 44.13783 26.66684 3.682456 
44 0.00000 100.0000 50.52253 40.31736 73.36513 33.40756 
45 52.56697 100.0000 0.00000 46.14625 76.82303 13.25828 
46 50.57773 0.00000 100.0000 27.83037 12.76674 95.54878 
47 0.00000 34.55154 0.00000 4.463757 7.926545 2.154595 
48 0.00000 0.00000 70.47765 9.128148 4.250746 43.81179 
49 100.0000 70.77113 100.0000 75.95398 61.70035 102.4598 
50 52.23545 0.00000 0.00000 10.60810 5.953967 1.450219 
51 100.0000 100.0000 100.0000 95.10649 100.0000 108.8440 
52 74.68194 100.0000 100.0000 75.40921 89.84402 107.9210 
53 0.00000 0.00000 36.57062 2.967411 1.786840 11.36256 
54 100.0000 100.0000 53.21303 81.61371 94.60374 37.77618 
55 100.0000 35.17242 100.0000 63.29530 36.38653 98.24021 
56 35.39589 0.00000 44.73711 8.211237 4.369791 17.05946 
57 74.07623 49.08682 0.00000 29.03414 26.26236 4.399865 
58 0.00000 32.80967 42.99769 6.880587 8.332245 16.61405 
59 75.63144 100.0000 28.25271 59.30324 83.47269 19.92789 
60 100.0000 100.0000 100.0000 95.10649 100.0000 108.8440 
61 100.0000 79.32046 37.05901 64.82595 64.80146 20.55794 
62 100.0000 51.97160 0.00000 50.07058 38.53069 5.660058 
63 0.00000 70.22541 0.00000 16.97501 32.94556 6.325049 
64 51.47964 100.0000 74.85330 55.01145 80.31858 62.20761 
65 100.0000 0.00000 58.78541 47.27288 24.22891 31.58056 
66 100.0000 100.0000 100.0000 95.10649 100.0000 108.8440 
67 50.19462 100.0000 100.0000 63.08938 83.49188 107.3438 
68 100.0000 100.0000 100.0000 95.10649 100.0000 108.8440 
69 26.80747 100.0000 0.00000 38.79028 73.03027 12.91360 
70 27.52052 0.00000 0.00000 3.513372 2.295903 1.117772 
71 0.00000 0.00000 0.00000 1.000000 1.000000 1.000000 
72 78.47626 0.00000 55.52573 29.41670 15.09611 27.40810 
73 100.0000 34.47576 52.19241 49.47610 30.62619 26.17328 
74 0.00000 24.66623 100.0000 20.62544 11.65549 95.71374 
75 75.88420 0.00000 100.0000 40.77249 19.43974 96.15522 
76 50.39767 100.0000 27.37394 46.38399 76.81972 18.95115 
77 0.00000 73.51485 100.0000 36.56251 43.52516 101.0261 
78 48.73396 25.36168 0.00000 11.12147 8.968685 2.005109 
79 0.00000 47.88192 73.99047 16.96196 18.42631 51.01790 
80 100.0000 62.12506 53.27580 58.39616 48.15715 30.09240 
81 100.0000 100.0000 25.74784 78.19902 93.23808 19.79064 
82 27.48034 36.10709 0.00000 7.301485 9.881952 2.382588 
83 100.0000 76.74077 0.00000 61.30486 60.99610 9.404847 
84 73.57644 0.00000 26.12260 22.43196 11.93569 7.180697 
85 0.00000 51.14157 22.11612 9.674039 17.19962 7.425762 
86 76.37567 100.0000 73.68945 67.60269 86.84766 61.12755 
87 0.00000 100.0000 23.49439 37.21040 72.12254 17.04286 
88 100.0000 0.00000 79.43225 52.45006 26.29945 58.84927 
89 32.65522 100.0000 50.75780 43.91244 75.21419 33.78246 
90 75.33587 24.57805 0.00000 24.29095 15.59430 2.590432 
91 0.00000 0.00000 0.00000 1.000000 1.000000 1.000000 
92 26.25067 0.00000 100.0000 21.15872 9.326814 95.23615 
93 57.34395 0.00000 48.90137 16.42220 8.530025 20.75534 
94 10.03183 76.10068 57.90051 25.78878 41.53800 35.11966 
95 100.0000 100.0000 100.0000 95.10649 100.0000 108.8440 
96 24.30633 78.01475 100.0000 41.04339 49.56835 101.9567 
97 48.14953 51.51046 0.00000 17.13888 21.31681 4.071731 
98 100.0000 29.78016 27.85595 45.51194 27.61156 9.701332 
99 26.08128 100.0000 74.03768 47.73600 76.59334 60.69274 
100 26.30315 13.02184 62.82567 10.14092 5.791931 34.47223 
101 45.01840 0.00000 72.04331 16.50951 8.009430 46.28651 
102 61.17977 14.86752 66.94188 22.50884 12.26581 40.04894 
103 37.93877 62.82541 13.56201 18.62933 28.57936 6.937863 
104 78.41338 8.875410 14.49040 25.19660 13.87726 3.940559 
105 47.20435 0.00000 23.97944 9.557713 5.315468 5.775039 
106 18.13498 56.94753 0.00000 12.18412 21.69334 4.405371 
107 75.87287 100.0000 0.00000 58.29928 83.08917 13.82775 
108 72.43098 62.40126 19.02983 33.57208 35.98080 8.862702 
109 0.00000 24.00608 65.39680 9.547737 7.079956 37.81399 
110 100.0000 24.72463 77.42601 53.62041 29.58713 56.31791 
111 85.34951 30.80162 40.79124 34.73061 22.16560 16.28344 
112 0.00000 76.69994 71.55788 28.85976 43.26031 51.77109 
113 24.08486 47.57814 76.72412 19.56469 19.54035 55.11064 
114 64.51249 28.40532 100.0000 36.45480 20.65998 96.61817 
115 85.57526 65.12293 38.06293 45.34181 43.66928 18.11528 
116 76.15998 0.00000 0.00000 23.07992 12.38448 2.034626 
117 100.0000 100.0000 100.0000 95.10649 100.0000 108.8440 
118 24.38937 100.0000 27.15270 39.45498 73.24912 18.53513 
119 67.06619 100.0000 51.37620 57.09370 81.99834 34.94852 
120 16.41353 0.00000 20.59555 2.564798 1.734486 4.337667 
121 100.0000 100.0000 100.0000 95.10649 100.0000 108.8440 
122 25.73095 72.12323 41.68549 22.74268 37.07083 20.40165 
123 35.97332 68.95003 69.69303 28.60833 37.07965 48.07423 
124 100.0000 100.0000 100.0000 95.10649 100.0000 108.8440 
125 40.67247 83.61574 33.76901 31.90000 51.78378 17.91728 
126 72.74996 37.05673 11.40779 25.15873 19.37718 4.431842 
127 88.66010 40.52373 86.88658 49.90936 31.89069 72.51885 
128 25.53186 100.0000 100.0000 56.44160 80.06426 107.0323 
129 0.00000 78.04438 31.06048 22.62846 42.00371 15.13986 
130 22.72302 0.00000 75.62238 12.23659 5.693375 51.18279 
131 66.34440 24.62369 51.96101 23.14346 14.53118 24.24210 
132 74.35633 73.64319 0.00000 39.68796 47.30621 7.900824 
133 93.33333 93.33333 93.33333 81.46035 85.64427 93.20584 
134 9.920723 43.83109 10.42001 7.306727 12.70623 3.928755 
135 84.82571 22.89665 100.0000 48.51546 25.68405 96.95275 
136 78.22513 79.41235 100.0000 63.34266 62.28453 103.2368 
137 23.88463 78.56569 0.00000 23.42759 43.02967 7.931732 
138 100.0000 0.00000 20.28695 42.43789 22.29522 6.114168 
139 76.10148 86.04991 64.92546 55.00748 65.44877 46.11342 
140 17.36429 17.64158 0.00000 2.968837 3.393213 1.358265 
141 89.37781 48.64324 43.48766 42.62590 32.73282 19.79571 
142 45.55917 18.85950 50.83519 13.16900 8.374382 22.56810 
143 49.22700 27.93887 30.44412 13.04484 10.38813 9.247435 
144 14.03138 0.00000 52.17064 5.906827 3.044862 23.12406 
145 64.74282 53.61654 35.67168 27.06813 27.31147 14.49916 
146 53.79369 36.87162 59.45936 20.78790 16.44171 32.19552 
147 26.16990 77.53268 19.48936 23.76504 42.24771 10.71764 
148 9.184105 14.78155 82.84788 13.70989 7.207071 62.73004 
149 100.0000 57.28245 26.17029 53.01300 42.82260 11.55096 
150 1.649391 16.27680 41.60707 4.435416 3.663811 14.86322 
151 47.51129 94.23465 57.07191 44.86713 68.94359 38.54710 
152 100.0000 100.0000 100.0000 95.10649 100.0000 108.8440 
153 7.848228 47.45980 55.37598 12.83360 16.59988 28.42370 
154 70.02305 0.00000 77.12570 29.24566 14.41374 54.21701 
155 21.28041 22.52316 100.0000 21.86138 11.87069 95.69019 
156 28.39792 56.43332 57.31889 18.68617 24.15691 31.53490 
157 100.0000 100.0000 100.0000 95.10649 100.0000 108.8440 
158 50.19887 78.43227 100.0000 48.13567 53.58624 102.3587 
159 63.74617 36.50969 37.80040 21.85609 17.27420 14.09570 
160 100.0000 100.0000 100.0000 95.10649 100.0000 108.8440 
161 35.94127 20.01643 9.313028 6.669801 5.646982 2.440623 
162 59.46439 54.26287 78.27138 33.07837 29.78401 58.73324 
163 34.55407 14.16633 85.15257 18.04162 9.282883 66.80447 
164 60.32342 48.13088 12.39292 21.39381 21.84505 5.274930 
165 91.19012 38.84294 12.84701 38.81084 27.02743 5.440119 
166 13.12025 79.06057 88.81682 36.11188 48.42227 79.90310 
167 34.74617 37.71343 61.48368 15.20510 13.79836 34.21541 
168 88.65621 86.91743 54.69478 62.49074 70.40902 35.52799 
169 0.00000 17.68049 20.20716 2.535519 3.105588 4.487990 
170 100.0000 52.00825 79.89879 60.84364 42.85942 62.34057 
171 42.17741 54.78709 74.23522 25.43837 26.26214 52.43573 
172 21.50933 35.00291 47.70650 9.566579 10.29789 20.46554 
173 40.14540 76.26004 54.56462 30.29346 44.06784 32.01287 
174 84.81883 25.74643 64.27858 37.65712 21.96710 37.85606 
175 91.57304 13.88448 30.06672 36.35754 19.97917 9.694106 
176 36.08943 88.53925 86.25297 45.02159 62.09142 77.48984 
177 18.34720 59.84990 19.58878 13.93613 24.25039 7.789595 
178 63.95270 90.11836 86.66263 56.85219 69.80124 79.07532 
179 57.29377 31.33127 13.70703 15.88596 12.84446 4.073375 
180 26.93081 41.26250 17.85283 8.909625 12.47845 5.310425 
181 1.145388 63.06060 77.92634 23.79439 30.25318 58.78183 
182 79.98128 47.45761 26.71078 33.44944 27.66096 9.870955 
183 81.88983 98.95280 46.16892 64.77193 84.81075 30.70958 
184 90.29960 17.45895 7.622436 34.42394 19.57172 3.454191 
185 100.0000 100.0000 100.0000 95.10649 100.0000 108.8440 
186 7.234355 82.27515 13.67273 24.32321 46.78358 10.17352 
187 82.28678 59.35766 64.11743 44.87101 39.20477 40.61125 
188 10.97805 89.15578 78.73121 39.17537 59.98174 64.95352 
189 29.40496 12.96418 35.70861 6.283592 4.309237 11.17484 
190 42.59415 64.01030 40.20618 22.60469 31.16581 18.26932 
191 54.59074 69.59162 27.81138 28.35529 38.20986 12.63179 
192 71.23672 37.71496 68.30581 31.75746 22.15123 43.21013 
193 56.49268 12.48806 34.31565 14.62805 8.580108 10.78231 
194 87.70042 59.80319 12.00206 42.76023 39.12172 7.416076 
195 58.13128 80.42978 60.56219 40.58168 52.84885 39.38695 
196 66.65269 38.04488 85.64857 34.22067 22.95655 69.44994 
197 72.89805 46.18155 51.90343 31.55617 25.75352 25.91288 
198 23.88882 54.15389 39.94279 14.27904 20.94693 16.56193 
199 18.30268 29.99651 66.03284 11.77144 9.587741 38.96291 
200 100.0000 100.0000 100.0000 95.10649 100.0000 108.8440 
201 47.50061 40.68225 86.80611 26.66843 19.97020 71.29956 
202 9.408605 36.50879 86.61836 18.16229 14.12048 70.28699 
203 91.28517 68.00508 85.08474 61.46807 52.81826 72.80402 
204 89.34097 43.47145 64.04729 44.80619 31.15524 38.97739 
205 75.52867 11.35979 41.95474 25.73341 14.09323 15.99556 
206 72.92212 19.81153 82.40938 33.72351 18.24690 63.08047 
207 50.66842 78.89928 77.61082 40.79957 51.11159 61.42964 
208 44.80916 50.92428 26.61642 16.81822 20.73855 9.372540 
209 7.813674 62.12377 34.71944 15.22598 26.20110 14.37370 
210 64.92123 69.27062 90.00277 46.04495 45.59522 81.01397 
211 61.05999 70.80472 10.41410 30.97792 40.58106 8.061800 
212 18.33285 64.40326 71.00563 23.59782 31.26256 48.97792 
213 26.59341 82.84255 68.27562 34.04584 51.48167 48.71223 
214 14.63845 91.67839 54.74650 35.49378 61.38799 35.25883 
215 88.07625 9.438127 70.28580 40.02146 20.66712 45.09575 
216 17.44852 61.91669 89.54517 28.04770 31.27466 78.35200 
217 93.01883 16.42987 50.87193 40.43056 22.08242 23.81088 
218 42.54798 39.60556 11.07293 12.00023 13.48468 3.933222 
219 58.63101 85.35561 43.11599 40.88171 57.95026 24.48607 
220 0.00000 0.00000 0.00000 1.000000 1.000000 1.000000 
221 45.28587 25.32878 72.75073 18.63477 11.82646 47.89744 
222 87.31010 88.04386 35.08512 59.35191 70.24775 20.75527 
223 40.64531 88.58467 13.30453 33.79353 57.79405 11.72894 
224 93.42277 72.08791 61.12987 58.85096 55.27456 39.52501 
225 70.27228 68.44474 49.52654 38.28571 42.18392 26.63143 
226 72.96970 77.68864 35.52088 42.93535 52.11649 18.36569 
227 58.95750 12.77734 13.49571 14.33390 8.623450 3.299175 
228 74.56126 25.20356 25.64694 24.84310 15.89931 7.633103 
229 76.69366 56.76028 85.06225 45.80178 37.48659 70.63096 
230 91.58033 13.55892 87.34732 48.17662 24.66807 72.03426 
231 37.51385 68.12086 88.05359 34.06414 38.65686 76.74327 
232 80.68662 87.70697 12.95121 52.70326 66.65752 12.37745 
233 6.510461 7.837204 25.41444 2.408435 1.984751 6.039443 
234 18.17000 18.91768 46.98174 6.531425 5.032688 19.02226 
END_DATA
CTI1   

DESCRIPTOR "Argyll Calibration Target chart information 1"
ORIGINATOR "Argyll targen"
DENSITY_EXTREME_VALUES "8"
CREATED "September 12, 2020"

NUMBER_OF_FIELDS 7
BEGIN_DATA_FORMAT
INDEX RGB_R RGB_G RGB_B XYZ_X XYZ_Y XYZ_Z 
END_DATA_FORMAT

NUMBER_OF_SETS 8
BEGIN_DATA
0 100.0000 100.0000 100.0000 95.10649 100.0000 108.8440 
1 0.00000 47.36069 100.0000 25.61297 21.62916 97.37627 
2 100.0000 0.00000 79.35138 52.42580 26.28975 58.72152 
3 0.00000 0.00000 58.99714 6.485834 3.193987 29.89445 
4 100.0000 66.65930 0.00000 56.05879 50.50543 7.656144 
5 0.00000 35.60114 0.00000 4.685619 8.370208 2.228550 
6 84.44437 0.00000 0.00000 28.84279 15.35583 2.304665 
7 0.00000 0.00000 0.00000 1.000000 1.000000 1.000000 
END_DATA
CTI1   

DESCRIPTOR "Argyll Calibration Target chart information 1"
ORIGINATOR "Argyll targen"
DEVICE_COMBINATION_VALUES "9"
CREATED "September 12, 2020"

NUMBER_OF_FIELDS 7
BEGIN_DATA_FORMAT
INDEX RGB_R RGB_G RGB_B XYZ_X XYZ_Y XYZ_Z 
END_DATA_FORMAT

NUMBER_OF_SETS 9
BEGIN_DATA
0 100.0000 100.0000 100.0000 95.10649 100.0000 108.8440 
1 0.00000 100.0000 100.0000 54.27632 78.94783 106.9308 
2 100.0000 0.00000 100.0000 59.70128 29.19948 97.04219 
3 0.00000 0.00000 100.0000 18.87111 8.147314 95.12896 
4 100.0000 100.0000 0.00000 77.23538 92.85269 14.71507 
5 0.00000 100.0000 0.00000 36.40521 71.80052 12.80184 
6 100.0000 0.00000 0.00000 41.83017 22.05217 2.913230 
7 0.00000 0.00000 0.00000 1.000000 1.000000 1.000000 
8 50.00000 50.00000 50.00000 21.14266 22.19007 24.08306 
END_DATA
