Epson_XP-960/Moab/Chinle/Entrada Fine Art 190/Moab_Chinle_Entrada_Fine_Art_190_XP-960.ti3
CTI3   

DESCRIPTOR "Argyll Calibration Target chart information 3"
ORIGINATOR "Argyll chartread"
CREATED "Sat Sep 12 11:35:49 2020"
DEVICE_CLASS "OUTPUT"
COMP_GREY_STEPS "16"
COLOR_REP "iRGB_XYZ"
TARGET_INSTRUMENT "X-Rite ColorMunki"
DEVCALSTD "XRGA"
SPECTRAL_BANDS "106"
SPECTRAL_START_NM "380.000000"
SPECTRAL_END_NM "730.000000"

NUMBER_OF_FIELDS 114
BEGIN_DATA_FORMAT
SAMPLE_ID SAMPLE_LOC RGB_R RGB_G RGB_B XYZ_X XYZ_Y XYZ_Z SPEC_380 SPEC_383 SPEC_387 SPEC_390 SPEC_393 SPEC_397 SPEC_400 SPEC_403 SPEC_407 SPEC_410 SPEC_413 SPEC_417 SPEC_420 SPEC_423 SPEC_427 SPEC_430 SPEC_433 SPEC_437 SPEC_440 SPEC_443 SPEC_447 SPEC_450 SPEC_453 SPEC_457 SPEC_460 SPEC_463 SPEC_467 SPEC_470 SPEC_473 SPEC_477 SPEC_480 SPEC_483 SPEC_487 SPEC_490 SPEC_493 SPEC_497 SPEC_500 SPEC_503 SPEC_507 SPEC_510 SPEC_513 SPEC_517 SPEC_520 SPEC_523 SPEC_527 SPEC_530 SPEC_533 SPEC_537 SPEC_540 SPEC_543 SPEC_547 SPEC_550 SPEC_553 SPEC_557 SPEC_560 SPEC_563 SPEC_567 SPEC_570 SPEC_573 SPEC_577 SPEC_580 SPEC_583 SPEC_587 SPEC_590 SPEC_593 SPEC_597 SPEC_600 SPEC_603 SPEC_607 SPEC_610 SPEC_613 SPEC_617 SPEC_620 SPEC_623 SPEC_627 SPEC_630 SPEC_633 SPEC_637 SPEC_640 SPEC_643 SPEC_647 SPEC_650 SPEC_653 SPEC_657 SPEC_660 SPEC_663 SPEC_667 SPEC_670 SPEC_673 SPEC_677 SPEC_680 SPEC_683 SPEC_687 SPEC_690 SPEC_693 SPEC_697 SPEC_700 SPEC_703 SPEC_707 SPEC_710 SPEC_713 SPEC_717 SPEC_720 SPEC_723 SPEC_727 SPEC_730 
END_DATA_FORMAT

NUMBER_OF_SETS 234
BEGIN_DATA
1 "K5" 100.0000 100.0000 100.0000 89.14548 92.74198 74.72597 75.64464 75.64464 75.64464 75.64464 75.64464 75.64464 75.64464 75.66917 75.67387 75.62262 75.47929 75.43206 75.66943 80.68741 84.11126 86.24957 87.32749 87.78676 87.93637 88.06390 88.30907 88.81635 89.70440 90.81708 91.96144 93.20088 94.63054 96.14676 97.27104 97.81972 97.78281 97.22082 96.18130 95.03565 94.07861 93.35898 92.81666 92.49719 92.32682 92.22952 92.19067 92.19696 92.22919 92.23453 92.23400 92.22195 92.25153 92.31536 92.37588 92.43270 92.46979 92.46628 92.41984 92.36178 92.37278 92.49331 92.63887 92.73913 92.77061 92.77524 92.76700 92.81534 92.88073 92.93708 92.98031 93.01008 93.01844 93.04136 93.07602 93.09977 93.11318 93.10905 93.11885 93.12477 93.12794 93.11508 93.12969 93.15020 93.19196 93.21860 93.23627 93.24743 93.35385 93.51089 93.57642 93.59614 93.57046 93.53321 93.48718 93.47838 93.45527 93.35863 93.38490 93.43523 93.42028 93.32329 93.42772 93.49304 93.59517 93.65226 93.53581 93.47601 93.47976 93.60449 93.62306 93.71477 
2 "S8" 42.50553 55.02098 100.0000 24.00583 21.94305 45.03109 57.00104 57.00104 57.00104 57.00104 57.00104 57.00104 57.00104 57.02290 57.02985 56.99467 56.89013 56.85806 57.04054 60.62431 62.99330 64.29412 64.71258 64.56041 64.07149 63.45598 62.69134 61.70313 60.42165 58.72812 56.84850 54.93494 52.79034 50.45720 47.98355 45.68252 43.47653 41.23249 39.00046 36.85842 34.79020 32.82298 30.97607 29.33507 27.92392 26.77116 25.89612 25.27011 24.82085 24.47885 24.13919 23.73286 23.23584 22.64065 21.98416 21.31776 20.69339 20.13510 19.65064 19.22600 18.86312 18.52974 18.19420 17.83552 17.46025 17.11163 16.79861 16.54660 16.36833 16.27186 16.24247 16.28696 16.40264 16.60780 16.90331 17.29895 17.79341 18.40535 19.12880 19.93926 20.84220 21.81127 22.83993 23.92103 25.04499 26.18393 27.30242 28.40135 29.52221 30.59934 31.61804 32.60274 33.50758 34.42700 35.42249 36.54351 37.76038 39.09659 40.56671 42.13020 43.74998 45.41565 47.26107 49.12531 50.94745 52.80900 54.51675 56.27887 58.10821 59.88746 61.50643 63.11129 
3 "C6" 94.79057 78.16587 18.62211 61.71049 57.89382 7.891223 7.195539 7.195539 7.195539 7.195539 7.195539 7.195539 7.195539 7.194284 7.191096 7.182546 7.165216 7.156970 7.175631 7.108368 7.047109 6.973337 6.871593 6.772779 6.691869 6.641656 6.626720 6.650168 6.719745 6.861175 7.081211 7.329343 7.575812 7.825880 8.229817 8.879948 9.807960 11.10953 12.89701 15.34167 18.36758 21.94188 25.95185 30.04625 33.91181 37.37252 40.37264 42.87387 44.96063 46.73521 48.25397 49.51933 50.50654 51.21902 51.69806 52.00873 52.25167 52.57809 53.10983 53.92842 55.12139 56.68434 58.52759 60.56401 62.70784 64.91959 67.16907 69.41805 71.57647 73.59889 75.43815 77.06197 78.45547 79.65801 80.68586 81.57243 82.32324 83.00567 83.66058 84.28995 84.85667 85.36712 85.86017 86.32835 86.76621 87.16506 87.49638 87.80806 88.16100 88.49742 88.72414 88.95093 89.20683 89.49071 89.75776 90.03506 90.31040 90.59677 90.90849 91.19659 91.46163 91.70829 92.11711 92.37098 92.71827 93.01948 93.15546 93.30453 93.52912 93.77792 93.90612 94.00555 
4 "I5" 29.68948 33.39742 87.02525 17.36008 15.37774 28.22661 39.10893 39.10893 39.10893 39.10893 39.10893 39.10893 39.10893 39.12395 39.12875 39.10465 39.03295 39.01098 39.13615 40.67685 41.62497 41.98169 41.81185 41.32876 40.66899 39.94101 39.12197 38.19122 37.12366 35.87789 34.57334 33.24797 31.85384 30.40117 28.93502 27.58219 26.38121 25.36103 24.34043 23.42253 22.46941 21.43937 20.39866 19.37383 18.44642 17.64423 16.99898 16.54102 16.20960 15.97638 15.76997 15.53449 15.25746 14.92338 14.54302 14.14857 13.76759 13.43733 13.16876 12.96952 12.83746 12.75846 12.70680 12.67388 12.64531 12.62791 12.62384 12.64399 12.69077 12.76939 12.87660 13.01310 13.19331 13.41822 13.69844 14.04986 14.47118 14.96583 15.53862 16.19920 16.92537 17.70616 18.53310 19.40044 20.29753 21.19667 22.10285 23.00016 23.89234 24.77371 25.58424 26.36796 27.12360 27.92948 28.80949 29.80043 30.87022 31.98726 33.29338 34.72541 36.25179 37.85321 39.56718 41.25956 43.05156 44.83300 46.57503 48.38113 50.15816 51.96881 53.65133 55.38203 
5 "N1" 15.81750 86.76890 36.43854 11.91461 20.09350 12.38380 12.18079 12.18079 12.18079 12.18079 12.18079 12.18079 12.18079 12.18445 12.18491 12.17636 12.15298 12.14507 12.18293 12.30668 12.41446 12.46590 12.44642 12.40379 12.36551 12.35673 12.36625 12.39429 12.48873 12.65944 12.87599 13.14655 13.47296 13.88852 14.43631 15.16521 16.19036 17.73000 19.76844 22.41125 25.53271 28.94238 32.34651 35.43230 37.92183 39.63775 40.57494 40.76512 40.30903 39.29214 37.86132 36.09072 34.06205 31.85116 29.53965 27.19262 24.87069 22.62510 20.48544 18.47937 16.64572 14.99451 13.53382 12.26682 11.18490 10.28463 9.555894 8.989905 8.552801 8.231196 8.006742 7.852463 7.768368 7.748673 7.793178 7.900674 8.068538 8.296323 8.591572 8.939580 9.329885 9.768969 10.25894 10.78049 11.32526 11.87766 12.43597 13.00418 13.57474 14.15043 14.69562 15.23345 15.76468 16.30974 16.92384 17.61016 18.34042 19.15508 20.08437 21.08140 22.18539 23.41703 24.76254 26.14715 27.61420 29.13185 30.55283 32.00332 33.54964 35.18981 36.88054 38.57861 
6 "V9" 100.0000 0.00000 0.00000 37.69745 22.37063 4.359789 5.189007 5.189007 5.189007 5.189007 5.189007 5.189007 5.189007 5.189140 5.187896 5.182796 5.171369 5.166507 5.181090 5.197625 5.191692 5.167975 5.122634 5.071337 5.028591 5.004585 4.990083 4.986273 4.989324 4.987372 5.005903 5.018745 5.007303 4.990593 5.006360 5.093423 5.252480 5.552450 5.905180 6.317286 6.719426 7.077904 7.307479 7.402703 7.388494 7.310531 7.210624 7.143336 7.134031 7.178058 7.257330 7.351663 7.421096 7.449143 7.448742 7.424444 7.408052 7.437567 7.545282 7.766720 8.144765 8.726811 9.573481 10.74299 12.28460 14.27398 16.77431 19.86273 23.58335 27.95341 32.96414 38.55267 44.58380 50.89173 57.21433 63.27780 68.87790 73.85030 78.13609 81.73946 84.65348 86.95782 88.78183 90.18248 91.30702 92.15732 92.74153 93.18950 93.65913 94.06047 94.29507 94.54942 94.76586 94.98562 95.26504 95.48262 95.59382 95.74127 95.96271 96.14872 96.24918 96.28748 96.59450 96.76832 97.05520 97.20536 97.03898 97.14763 97.35036 97.63283 97.85642 98.02247 
7 "Q2" 47.97742 75.06523 0.00000 21.47089 26.80232 5.899920 5.310429 5.310429 5.310429 5.310429 5.310429 5.310429 5.310429 5.310715 5.309590 5.304520 5.292977 5.288157 5.303241 5.292600 5.292697 5.264732 5.209823 5.162175 5.123208 5.101379 5.098519 5.116234 5.172282 5.249787 5.368748 5.520743 5.661140 5.905816 6.186928 6.562246 7.180558 8.112874 9.440178 11.19577 13.44931 16.12877 19.13242 22.33702 25.49824 28.37317 30.83051 32.85756 34.39511 35.50110 36.21992 36.53621 36.47414 36.04837 35.30820 34.33637 33.20142 31.96962 30.70332 29.45059 28.24641 27.10448 26.01558 24.97137 23.98046 23.08655 22.31701 21.69220 21.18468 20.79783 20.52475 20.35002 20.27539 20.32634 20.48617 20.75205 21.14647 21.66187 22.28976 23.03189 23.86765 24.76683 25.73757 26.75112 27.79247 28.84359 29.87479 30.87361 31.86855 32.83250 33.69693 34.56763 35.45818 36.35262 37.37518 38.47056 39.60824 40.83076 42.20226 43.72771 45.31699 46.91826 48.72281 50.52433 52.41934 54.21465 55.88095 57.57184 59.28209 61.21152 62.86419 64.24149 
8 "H5" 63.81476 54.40604 100.0000 33.14085 27.79076 47.13586 61.53793 61.53793 61.53793 61.53793 61.53793 61.53793 61.53793 61.56120 61.56838 61.53008 61.41689 61.38193 61.57860 65.45102 67.86926 69.02082 69.13618 68.60627 67.71273 66.69770 65.55603 64.23372 62.70007 60.85845 58.83155 56.77154 54.57583 52.25276 49.79692 47.30882 44.81373 42.42524 40.05388 37.74940 35.63046 33.63541 31.75854 30.04796 28.57195 27.35509 26.44188 25.82001 25.43164 25.18581 24.98732 24.76569 24.48095 24.11074 23.68736 23.27086 22.91247 22.67319 22.57318 22.61843 22.81823 23.14458 23.53897 23.96538 24.39297 24.81723 25.24834 25.71092 26.18921 26.68557 27.20255 27.73936 28.30802 28.93973 29.64680 30.44624 31.35344 32.35942 33.49643 34.74115 36.05322 37.42467 38.86671 40.32104 41.78466 43.21956 44.58151 45.89025 47.20970 48.46933 49.61375 50.69376 51.72062 52.74049 53.86348 55.07457 56.31677 57.67421 59.17968 60.79678 62.34999 63.85336 65.59994 67.26326 68.84374 70.35940 71.72375 73.06915 74.38066 75.78149 77.03963 78.16545 
9 "E6" 46.66667 46.66667 46.66667 19.95371 20.11906 13.79222 17.08277 17.08277 17.08277 17.08277 17.08277 17.08277 17.08277 17.08837 17.08948 17.07796 17.04564 17.03502 17.08860 17.14469 17.17036 17.10740 16.95017 16.73727 16.50061 16.28597 16.08587 15.90567 15.77366 15.69336 15.66147 15.64116 15.63199 15.69153 15.82904 16.06686 16.51355 17.32073 18.39308 19.50316 20.58149 21.38281 21.85386 21.99862 21.89998 21.67143 21.42653 21.23708 21.10765 21.02485 20.96960 20.85900 20.63763 20.31696 19.91244 19.47676 19.07040 18.73682 18.49222 18.34335 18.28147 18.28548 18.32254 18.35445 18.36588 18.36475 18.37397 18.41296 18.48709 18.60137 18.74859 18.93531 19.16989 19.46571 19.84780 20.31471 20.86555 21.51602 22.28202 23.14660 24.09336 25.08801 26.14725 27.25350 28.38549 29.52278 30.62436 31.69717 32.75138 33.78118 34.76158 35.71159 36.64661 37.59848 38.68659 39.84492 41.07153 42.40334 43.90773 45.47396 47.10744 48.78428 50.61834 52.46521 54.32791 56.18293 57.88242 59.54278 61.25826 62.94614 64.65587 66.29027 
10 "Z8" 42.95720 28.45350 100.0000 22.01784 17.10356 35.33209 51.66031 51.66031 51.66031 51.66031 51.66031 51.66031 51.66031 51.68035 51.68689 51.65525 51.56075 51.53192 51.69753 54.56188 56.23055 56.82287 56.48704 55.60805 54.43545 53.11348 51.61467 49.86030 47.74810 45.29945 42.83565 40.44602 37.97418 35.44033 32.95862 30.71631 28.72241 26.82931 25.04378 23.47506 22.03281 20.65486 19.39399 18.22186 17.20312 16.36673 15.73846 15.29748 15.01258 14.82214 14.68052 14.55147 14.38993 14.17295 13.91645 13.65329 13.42017 13.25300 13.17523 13.19666 13.31310 13.52943 13.82678 14.18700 14.57699 14.97507 15.37557 15.78075 16.18355 16.58990 16.99075 17.38860 17.80499 18.25487 18.75035 19.31095 19.95194 20.67668 21.48827 22.37442 23.32462 24.34094 25.43052 26.54858 27.68958 28.83543 29.95374 31.06609 32.15610 33.20325 34.19368 35.10986 36.01544 36.95134 37.96744 39.07548 40.28775 41.65790 43.15699 44.75134 46.43357 48.23959 50.07880 51.96492 53.78808 55.54561 57.30594 59.05324 60.81690 62.59009 64.23467 65.80841 
11 "X7" 34.62119 7.180896 17.65621 12.67884 10.65150 7.300610 9.565592 9.565592 9.565592 9.565592 9.565592 9.565592 9.565592 9.568722 9.569344 9.562889 9.544791 9.538843 9.568838 9.493270 9.463143 9.426964 9.315155 9.177916 9.054560 8.950647 8.856065 8.773199 8.698887 8.610925 8.555236 8.521811 8.524199 8.492793 8.292586 8.197815 8.282973 8.546877 8.811872 9.132570 9.485994 9.649494 9.637599 9.513914 9.310150 9.076484 8.856162 8.696995 8.585160 8.537540 8.530392 8.531326 8.503618 8.426845 8.310209 8.175254 8.042272 7.929749 7.865845 7.883319 7.985905 8.189967 8.499796 8.907305 9.386145 9.920717 10.48931 11.06277 11.62388 12.16566 12.67156 13.15425 13.61202 14.05249 14.51390 14.99884 15.50780 16.05403 16.66060 17.32778 18.02994 18.77602 19.56101 20.35928 21.17796 21.99610 22.80190 23.57448 24.35267 25.09180 25.77635 26.50738 27.26692 28.06209 28.90301 29.83934 30.87841 31.97671 33.22854 34.60669 36.04196 37.59506 39.31029 41.07661 42.96440 44.80119 46.48337 48.36088 50.21552 52.04309 53.76971 55.49370 
12 "J8" 85.55734 51.59380 100.0000 48.80432 36.48818 47.30923 64.35993 64.35993 64.35993 64.35993 64.35993 64.35993 64.35993 64.38368 64.39060 64.34994 64.23095 64.19377 64.39880 68.23813 70.42401 71.24683 70.97903 70.05057 68.78256 67.42692 65.97945 64.39219 62.65081 60.63202 58.45402 56.28284 53.93780 51.46469 48.92266 46.39065 43.87921 41.39217 38.90064 36.59358 34.44915 32.42936 30.53914 28.84183 27.35500 26.16649 25.29978 24.71993 24.39072 24.23916 24.18380 24.13983 24.05016 23.90035 23.72852 23.59520 23.56680 23.71822 24.09893 24.77105 25.77398 27.10584 28.74175 30.65529 32.79264 35.12489 37.62575 40.26256 42.94808 45.61879 48.19958 50.64006 52.90612 55.00021 56.93496 58.73648 60.42614 62.02668 63.56053 65.04904 66.46041 67.78617 69.07391 70.29453 71.47769 72.58718 73.58780 74.51158 75.44006 76.30839 77.04030 77.72040 78.21426 78.75953 79.45541 80.23689 80.95610 81.63473 82.44936 83.28197 84.06421 84.78503 85.70293 86.47336 87.23762 87.90891 88.39652 89.02058 89.61352 90.22320 90.80277 91.34326 
13 "J9" 0.00000 0.00000 0.00000 3.259202 3.382238 3.550335 5.026748 5.026748 5.026748 5.026748 5.026748 5.026748 5.026748 5.028582 5.029101 5.025902 5.016586 5.013658 5.029625 5.006130 4.950404 4.881591 4.800785 4.712863 4.622808 4.538857 4.452387 4.365696 4.287006 4.192610 4.097697 4.032554 3.978745 3.924146 3.875926 3.812013 3.805759 3.866126 3.939931 4.016609 4.064832 4.116697 4.140205 4.168271 4.169224 4.147190 4.111756 4.077081 4.025716 3.970648 3.916518 3.852229 3.770378 3.675309 3.578474 3.484067 3.382716 3.286166 3.194074 3.113169 3.042578 2.980119 2.927027 2.888624 2.855008 2.820872 2.797085 2.790827 2.785096 2.786246 2.793389 2.806623 2.825502 2.847801 2.881870 2.929685 2.991925 3.060545 3.130732 3.208968 3.295276 3.390851 3.493536 3.588485 3.693885 3.810563 3.932790 4.063276 4.216256 4.397732 4.618193 4.853812 5.122719 5.476153 5.899035 6.446635 7.092351 7.789925 8.629074 9.615963 10.78986 12.16521 13.81993 15.65204 17.67111 19.92704 22.46717 25.24807 28.12065 31.32398 34.76729 38.23583 
14 "F3" 0.00000 63.51263 50.51499 9.052328 13.05767 13.88069 15.28005 15.28005 15.28005 15.28005 15.28005 15.28005 15.28005 15.28547 15.28688 15.27699 15.24851 15.23944 15.28783 15.53769 15.74239 15.87117 15.90225 15.87669 15.81860 15.76323 15.70500 15.66404 15.68598 15.74572 15.80991 15.88694 16.05097 16.32618 16.67769 17.13093 17.78014 18.67927 19.93976 21.44919 22.97236 24.26885 25.19035 25.68939 25.76802 25.46385 24.93797 24.27668 23.51103 22.66193 21.74569 20.73338 19.62325 18.43325 17.19375 15.93942 14.69776 13.51771 12.41058 11.36755 10.41764 9.570870 8.813739 8.145860 7.563530 7.073440 6.678622 6.368801 6.136124 5.963505 5.845477 5.777165 5.747146 5.746468 5.790258 5.879675 6.014152 6.193305 6.414417 6.673548 6.969100 7.297508 7.647661 8.019911 8.412830 8.841500 9.261724 9.654246 10.07113 10.48962 10.87378 11.27548 11.64275 12.02559 12.45439 12.94833 13.50493 14.09377 14.78897 15.61113 16.43656 17.33636 18.37187 19.37207 20.48584 21.64456 22.83746 24.03840 25.29381 26.66640 28.00185 29.22480 
15 "D6" 9.291218 40.09003 31.30388 9.845908 11.76600 10.12448 12.07572 12.07572 12.07572 12.07572 12.07572 12.07572 12.07572 12.07988 12.08088 12.07295 12.05032 12.04303 12.08113 12.13848 12.16999 12.14894 12.06243 11.94930 11.83746 11.73859 11.63969 11.55159 11.49614 11.48217 11.50328 11.51125 11.53600 11.63446 11.76960 11.99152 12.44282 13.08811 13.95149 14.98455 15.94785 16.72464 17.24149 17.48689 17.46175 17.24071 16.93512 16.61418 16.31472 16.03524 15.75051 15.42632 15.03067 14.54170 13.98000 13.36405 12.72601 12.09697 11.49967 10.93855 10.43323 9.996793 9.608732 9.254746 8.938499 8.663831 8.423498 8.229808 8.093605 8.002893 7.944987 7.921045 7.935474 7.994862 8.102013 8.263574 8.474561 8.739001 9.055947 9.426386 9.841135 10.30128 10.79148 11.31587 11.85603 12.40596 12.96164 13.50284 14.03071 14.56603 15.08061 15.56523 16.07282 16.60916 17.16050 17.79956 18.49102 19.26090 20.14984 21.12956 22.17557 23.34071 24.57007 25.85013 27.17679 28.54836 30.03071 31.47716 32.92681 34.49301 36.06397 37.49477 
16 "O3" 61.50912 89.66659 14.58152 30.85853 40.51916 8.275107 7.141742 7.141742 7.141742 7.141742 7.141742 7.141742 7.141742 7.141851 7.140059 7.132959 7.117151 7.110380 7.130365 7.075541 7.039089 6.992470 6.917354 6.845625 6.796388 6.784164 6.795522 6.828434 6.913070 7.085617 7.299019 7.490620 7.766845 8.123643 8.568640 9.270316 10.19789 11.53924 13.49105 16.07915 19.39955 23.51230 28.28150 33.42995 38.63315 43.49339 47.70029 51.15912 53.82090 55.70461 56.90491 57.45003 57.41858 56.87926 55.89129 54.53550 52.86771 50.94543 48.84333 46.63376 44.38513 42.15019 39.94876 37.82370 35.82407 34.03012 32.47828 31.19831 30.18074 29.39825 28.82646 28.45016 28.25618 28.23182 28.37970 28.70819 29.20242 29.85426 30.66814 31.63632 32.71259 33.86269 35.08573 36.35112 37.63673 38.90059 40.13299 41.32139 42.51197 43.66172 44.70472 45.71352 46.71472 47.73221 48.82791 50.03629 51.25447 52.56358 53.99815 55.53013 57.11840 58.70875 60.45206 62.11346 63.85882 65.49925 66.96224 68.45936 69.86930 71.26041 72.51597 73.78875 
17 "T2" 100.0000 100.0000 78.06058 84.03815 89.37674 46.37124 46.18200 46.18200 46.18200 46.18200 46.18200 46.18200 46.18200 46.19473 46.19532 46.16172 46.07189 46.04070 46.18311 48.20739 49.58112 50.37049 50.69935 50.85952 50.98342 51.18445 51.49853 51.98104 52.67480 53.52690 54.50753 55.59592 56.80128 58.11361 59.40769 60.65090 61.88834 63.32286 64.98360 67.08926 69.65351 72.51643 75.57020 78.56611 81.24455 83.51772 85.39304 86.90011 88.04377 88.86590 89.55591 90.05679 90.47330 90.84221 91.14651 91.41057 91.60579 91.73005 91.78665 91.80877 91.89585 92.07231 92.26131 92.39893 92.45095 92.47393 92.48964 92.54718 92.62030 92.68678 92.73659 92.77714 92.79872 92.82428 92.87027 92.91998 92.95003 92.97076 92.99738 93.02622 93.05373 93.06009 93.07073 93.09840 93.14785 93.17097 93.15098 93.14361 93.25428 93.36863 93.41991 93.45263 93.43428 93.44073 93.44296 93.48443 93.44975 93.43456 93.52408 93.53581 93.50854 93.46501 93.58026 93.58746 93.69097 93.75758 93.57740 93.60412 93.66549 93.81219 94.10338 94.33784 
18 "M5" 0.00000 100.0000 76.34089 10.58140 17.65011 28.60202 24.79909 24.79909 24.79909 24.79909 24.79909 24.79909 24.79909 24.80803 24.81048 24.79459 24.74853 24.73398 24.81275 26.20185 27.48068 28.61289 29.54270 30.35041 31.08519 31.77225 32.41252 33.03910 33.71792 34.43872 35.12976 35.83062 36.55357 37.37757 38.27029 39.13861 40.13201 41.39020 42.92596 44.56941 46.14423 47.46829 48.32432 48.53199 48.04507 46.85266 45.05431 42.77559 40.11859 37.20496 34.17728 31.12274 28.12618 25.23910 22.49448 19.93603 17.56134 15.37650 13.41812 11.67831 10.16976 8.886488 7.815482 6.917132 6.188757 5.614888 5.162483 4.825753 4.573409 4.392957 4.265752 4.179833 4.130263 4.113519 4.126180 4.172340 4.248867 4.365923 4.510686 4.678035 4.876650 5.104099 5.335595 5.605304 5.920316 6.227311 6.538033 6.888211 7.228600 7.578098 7.904309 8.217264 8.531675 8.828218 9.147539 9.555404 10.01216 10.51739 11.09674 11.77549 12.54370 13.31338 14.16850 15.13690 16.22834 17.32074 18.36531 19.56991 20.80338 22.02614 23.41935 24.80206 
19 "K9" 21.27718 50.59739 100.0000 17.86464 16.97774 41.37531 50.62328 50.62328 50.62328 50.62328 50.62328 50.62328 50.62328 50.64285 50.64920 50.61812 50.52545 50.49714 50.65940 53.94126 56.35070 57.91957 58.70372 58.95667 58.82365 58.44191 57.83483 57.00249 55.92125 54.49432 52.80978 51.00736 49.02518 46.85075 44.59717 42.40098 40.23317 38.08699 35.97806 34.04450 32.17443 30.32692 28.57623 26.97696 25.56764 24.36731 23.39341 22.63141 22.02105 21.48725 20.97447 20.42262 19.78214 19.06479 18.27866 17.47247 16.67421 15.91385 15.19573 14.53132 13.91880 13.35246 12.81258 12.29158 11.80519 11.37029 11.00312 10.71305 10.48699 10.33186 10.24308 10.20565 10.21932 10.29553 10.44159 10.64754 10.91435 11.25753 11.67292 12.16263 12.70735 13.29764 13.93816 14.62743 15.35239 16.07494 16.81877 17.56493 18.30879 19.05218 19.78061 20.44645 21.06112 21.68510 22.37651 23.19227 24.12115 25.05329 26.17440 27.44449 28.77597 30.14298 31.68654 33.26758 34.91489 36.58100 38.25756 39.90768 41.48819 43.20027 44.83457 46.47844 
20 "Q4" 55.48638 15.04692 88.78157 21.52106 14.83043 23.14596 37.67144 37.67144 37.67144 37.67144 37.67144 37.67144 37.67144 37.68587 37.69046 37.66720 37.59810 37.57689 37.69739 38.89950 39.40574 39.23837 38.48576 37.41720 36.21181 34.97871 33.69254 32.28160 30.69418 28.93817 27.19365 25.55121 23.84507 22.12930 20.47498 19.01701 17.78880 16.63683 15.64020 14.76451 13.92144 13.08385 12.25113 11.49102 10.84013 10.29032 9.877027 9.605918 9.442761 9.370220 9.339541 9.309958 9.262160 9.182024 9.083093 8.988932 8.916467 8.894049 8.950952 9.114702 9.405935 9.842575 10.44691 11.21002 12.11713 13.14744 14.27413 15.45769 16.65392 17.83207 18.96782 20.06905 21.12309 22.14404 23.15024 24.16528 25.20769 26.29977 27.45915 28.69278 29.97255 31.28078 32.59971 33.92271 35.25905 36.58960 37.86501 39.08142 40.28870 41.42748 42.43363 43.42330 44.37701 45.36242 46.50695 47.76017 49.02784 50.36989 51.86592 53.49587 55.21610 56.87769 58.67669 60.42756 62.21657 63.90106 65.46889 67.03166 68.57470 70.26228 71.81600 73.11426 
21 "Q3" 100.0000 77.53719 72.82521 72.33284 67.07820 34.37541 37.51467 37.51467 37.51467 37.51467 37.51467 37.51467 37.51467 37.52528 37.52602 37.49900 37.42631 37.40125 37.51720 38.91310 39.79537 40.19618 40.21924 40.09497 39.95647 39.89704 39.90025 39.97674 40.15215 40.34632 40.60610 40.98259 41.34362 41.69053 42.05045 42.48829 43.02831 43.84156 44.93278 46.31502 47.86163 49.37707 50.77616 51.95520 52.87165 53.49550 53.96452 54.41496 54.86464 55.31505 55.77286 56.15855 56.45826 56.65878 56.78991 56.92289 57.13590 57.53847 58.20243 59.19253 60.58728 62.37686 64.48643 66.82344 69.31075 71.90053 74.50918 77.12313 79.63803 81.97105 84.06489 85.89131 87.44659 88.76149 89.85216 90.72760 91.42815 91.97217 92.40595 92.75892 93.03992 93.24240 93.40732 93.53913 93.67798 93.78742 93.84931 93.89540 94.04607 94.19617 94.23799 94.29453 94.33569 94.38138 94.50594 94.57813 94.57731 94.54448 94.63310 94.73774 94.72569 94.66504 94.85063 94.94456 95.07898 95.19760 95.03270 94.95378 95.00569 95.32310 95.48376 95.47211 
22 "H2" 86.66667 86.66667 86.66667 64.12721 66.55873 52.09820 55.10136 55.10136 55.10136 55.10136 55.10136 55.10136 55.10136 55.11929 55.12278 55.08551 54.98116 54.94682 55.11974 58.11631 60.08456 61.21352 61.71407 61.86782 61.87356 61.91799 62.00057 62.16217 62.50592 62.91315 63.32545 63.83353 64.41946 65.06355 65.52193 65.75014 65.86506 66.02451 66.08155 66.25404 66.65470 67.15174 67.64565 68.09643 68.35167 68.45745 68.50385 68.55185 68.59413 68.56442 68.50581 68.37522 68.16390 67.87042 67.45497 66.96241 66.43137 65.90508 65.40755 64.97607 64.66200 64.45584 64.28389 64.14246 63.98927 63.86028 63.78760 63.80667 63.90038 64.06748 64.28170 64.54267 64.85605 65.24787 65.72102 66.28445 66.92360 67.64196 68.44898 69.32113 70.20091 71.09001 71.99378 72.88975 73.78368 74.64405 75.42068 76.15146 76.91807 77.66046 78.26633 78.80154 79.20979 79.64735 80.21146 80.78565 81.31450 81.91101 82.57210 83.25714 83.88953 84.50004 85.22834 85.87230 86.56130 87.16758 87.56957 87.91671 88.30709 88.84701 89.37661 89.82822 
