Epson_XP-960/Moab/Chinle/Entrada Fine Art 190/Moab_Chinle_Entrada_Fine_Art_190_XP-960.ti2
CTI2   

DESCRIPTOR "Argyll Calibration Target chart information 2"
ORIGINATOR "Argyll printtarg"
CREATED "Sat Sep 12 11:03:09 2020"
TARGET_INSTRUMENT "X-Rite ColorMunki"
COMP_GREY_STEPS "16"
APPROX_WHITE_POINT "95.106486 100.000000 108.844025"
COLOR_REP "iRGB"
PAPER_SIZE "203.0x203.0"
RANDOM_START "99"
STEPS_IN_PASS "9"
PASSES_IN_STRIPS2 "13,13"
STRIP_INDEX_PATTERN "A-Z, A-Z"
PATCH_INDEX_PATTERN "0-9,@-9,@-9;1-999"
INDEX_ORDER "STRIP_THEN_PATCH"

NUMBER_OF_FIELDS 8
BEGIN_DATA_FORMAT
SAMPLE_ID SAMPLE_LOC RGB_R RGB_G RGB_B XYZ_X XYZ_Y XYZ_Z 
END_DATA_FORMAT

NUMBER_OF_SETS 234
BEGIN_DATA
1 "K5" 100.0000 100.0000 100.0000 95.10649 100.0000 108.8440 
2 "S8" 42.50553 55.02098 100.0000 34.37010 29.98419 98.52781 
3 "C6" 94.79057 78.16587 18.62211 57.96881 60.43219 12.18599 
4 "I5" 29.68948 33.39742 87.02525 20.19983 14.18298 70.91240 
5 "N1" 15.81750 86.76890 36.43854 29.49988 53.56309 19.88207 
6 "V9" 100.0000 0.00000 0.00000 41.83017 22.05217 2.913230 
7 "Q2" 47.97742 75.06523 0.00000 27.53040 42.18918 7.553403 
8 "H5" 63.81476 54.40604 100.0000 42.87340 34.03307 98.86151 
9 "E6" 46.66667 46.66667 46.66667 18.36029 19.26302 20.89453 
10 "Z8" 42.95720 28.45350 100.0000 27.51134 16.06030 96.20133 
11 "X7" 34.62119 7.180896 17.65621 5.699578 3.694102 3.733254 
12 "J8" 85.55734 51.59380 100.0000 55.65911 39.15321 99.17644 
13 "J9" 0.00000 0.00000 0.00000 1.000000 1.000000 1.000000 
14 "F3" 0.00000 63.51263 50.51499 17.69534 28.12938 25.86070 
15 "D6" 9.291218 40.09003 31.30388 7.519539 11.21120 10.10999 
16 "O3" 61.50912 89.66659 14.58152 42.71615 63.50003 12.61541 
17 "T2" 100.0000 100.0000 78.06058 87.44826 96.93719 68.50737 
18 "M5" 0.00000 100.0000 76.34089 46.12103 75.68623 63.97607 
19 "K9" 21.27718 50.59739 100.0000 28.16641 24.47953 97.79199 
20 "Q4" 55.48638 15.04692 88.78157 26.30053 13.50271 73.61442 
21 "Q3" 100.0000 77.53719 72.82521 70.50482 65.40501 55.61217 
22 "H2" 86.66667 86.66667 86.66667 69.04418 72.58246 78.97718 
23 "K3" 80.00000 80.00000 80.00000 57.82407 60.77891 66.11917 
24 "Z7" 73.33333 73.33333 73.33333 47.76462 50.19637 54.59125 
25 "U7" 66.66667 66.66667 66.66667 38.82872 40.79580 44.35090 
26 "R3" 60.00000 60.00000 60.00000 30.97732 32.53613 35.35337 
27 "C5" 53.33333 53.33333 53.33333 24.16914 25.37393 27.55134 
28 "T7" 100.0000 100.0000 100.0000 95.10649 100.0000 108.8440 
29 "P2" 40.00000 40.00000 40.00000 13.50377 14.15396 15.32905 
30 "P4" 33.33333 33.33333 33.33333 9.548794 9.993329 10.79674 
31 "L4" 26.66667 26.66667 26.66667 6.439866 6.722738 7.233970 
32 "I6" 20.00000 20.00000 20.00000 4.115373 4.277372 4.570151 
33 "G9" 13.33333 13.33333 13.33333 2.505355 2.583633 2.725105 
34 "Q7" 6.666667 6.666667 6.666667 1.527504 1.554934 1.604508 
35 "P9" 0.00000 100.0000 0.00000 36.40521 71.80052 12.80184 
36 "M6" 0.00000 0.00000 100.0000 18.87111 8.147314 95.12896 
37 "R8" 100.0000 0.00000 100.0000 59.70128 29.19948 97.04219 
38 "L1" 100.0000 100.0000 0.00000 77.23538 92.85269 14.71507 
39 "O4" 100.0000 100.0000 100.0000 95.10649 100.0000 108.8440 
40 "W1" 0.00000 100.0000 100.0000 54.27632 78.94783 106.9308 
41 "N9" 0.00000 48.48402 100.0000 25.96188 22.32688 97.49257 
42 "H3" 100.0000 0.00000 40.14496 44.22292 23.00912 15.51610 
43 "L3" 100.0000 28.31617 0.00000 44.13783 26.66684 3.682456 
44 "U8" 0.00000 100.0000 50.52262 40.31736 73.36513 33.40756 
45 "N3" 52.56733 100.0000 0.00000 46.14625 76.82303 13.25828 
46 "E4" 50.57755 0.00000 100.0000 27.83037 12.76674 95.54878 
47 "Y1" 0.00000 34.55100 0.00000 4.463757 7.926545 2.154595 
48 "X8" 0.00000 0.00000 70.47837 9.128148 4.250746 43.81179 
49 "U5" 100.0000 70.77134 100.0000 75.95398 61.70035 102.4598 
50 "Q1" 52.23621 0.00000 0.00000 10.60810 5.953967 1.450219 
51 "Y4" 100.0000 100.0000 100.0000 95.10649 100.0000 108.8440 
52 "F5" 74.68223 100.0000 100.0000 75.40921 89.84402 107.9210 
53 "D7" 0.00000 0.00000 36.57130 2.967411 1.786840 11.36256 
54 "C7" 100.0000 100.0000 53.21279 81.61371 94.60374 37.77618 
55 "Y7" 100.0000 35.17205 100.0000 63.29530 36.38653 98.24021 
56 "X1" 35.39635 0.00000 44.73640 8.211237 4.369791 17.05946 
57 "Z1" 74.07645 49.08675 0.00000 29.03414 26.26236 4.399865 
58 "Z9" 0.00000 32.80995 42.99840 6.880587 8.332245 16.61405 
59 "V6" 75.63134 100.0000 28.25208 59.30324 83.47269 19.92789 
60 "D4" 100.0000 100.0000 100.0000 95.10649 100.0000 108.8440 
61 "P3" 100.0000 79.32097 37.05959 64.82595 64.80146 20.55794 
62 "N6" 100.0000 51.97223 0.00000 50.07058 38.53069 5.660058 
63 "C1" 0.00000 70.22507 0.00000 16.97501 32.94556 6.325049 
64 "P1" 51.47936 100.0000 74.85313 55.01145 80.31858 62.20761 
65 "R5" 100.0000 0.00000 58.78538 47.27288 24.22891 31.58056 
66 "Z5" 100.0000 100.0000 100.0000 95.10649 100.0000 108.8440 
67 "N4" 50.19455 100.0000 100.0000 63.08938 83.49188 107.3438 
68 "O7" 100.0000 100.0000 100.0000 95.10649 100.0000 108.8440 
69 "F1" 26.80705 100.0000 0.00000 38.79028 73.03027 12.91360 
70 "T8" 27.52117 0.00000 0.00000 3.513372 2.295903 1.117772 
71 "K6" 0.00000 0.00000 0.00000 1.000000 1.000000 1.000000 
72 "F7" 78.47562 0.00000 55.52605 29.41670 15.09611 27.40810 
73 "X2" 100.0000 34.47623 52.19196 49.47610 30.62619 26.17328 
74 "N5" 0.00000 24.66621 100.0000 20.62544 11.65549 95.71374 
75 "Q9" 75.88464 0.00000 100.0000 40.77249 19.43974 96.15522 
76 "E7" 50.39750 100.0000 27.37469 46.38399 76.81972 18.95115 
77 "S3" 0.00000 73.51492 100.0000 36.56251 43.52516 101.0261 
78 "X9" 48.73426 25.36202 0.00000 11.12147 8.968685 2.005109 
79 "A5" 0.00000 47.88128 73.99100 16.96196 18.42631 51.01790 
80 "Q5" 100.0000 62.12558 53.27535 58.39616 48.15715 30.09240 
81 "R2" 100.0000 100.0000 25.74807 78.19902 93.23808 19.79064 
82 "V1" 27.47997 36.10742 0.00000 7.301485 9.881952 2.382588 
83 "J4" 100.0000 76.74067 0.00000 61.30486 60.99610 9.404847 
84 "A2" 73.57595 0.00000 26.12192 22.43196 11.93569 7.180697 
85 "L8" 0.00000 51.14214 22.11643 9.674039 17.19962 7.425762 
86 "W8" 76.37598 100.0000 73.68887 67.60269 86.84766 61.12755 
87 "P6" 0.00000 100.0000 23.49432 37.21040 72.12254 17.04286 
88 "T5" 100.0000 0.00000 79.43236 52.45006 26.29945 58.84927 
89 "M3" 32.65583 100.0000 50.75761 43.91244 75.21419 33.78246 
90 "D5" 75.33532 24.57771 0.00000 24.29095 15.59430 2.590432 
91 "B1" 0.00000 0.00000 0.00000 1.000000 1.000000 1.000000 
92 "C3" 26.25010 0.00000 100.0000 21.15872 9.326814 95.23615 
93 "Y5" 57.34340 0.00000 48.90211 16.42220 8.530025 20.75534 
94 "G4" 10.03128 76.10132 57.90036 25.78878 41.53800 35.11966 
95 "I8" 100.0000 100.0000 100.0000 95.10649 100.0000 108.8440 
96 "T4" 24.30610 78.01480 100.0000 41.04339 49.56835 101.9567 
97 "Y3" 48.14984 51.50988 0.00000 17.13888 21.31681 4.071731 
98 "J1" 100.0000 29.77951 27.85534 45.51194 27.61156 9.701332 
99 "Y2" 26.08072 100.0000 74.03830 47.73600 76.59334 60.69274 
100 "Z6" 26.30350 13.02205 62.82597 10.14092 5.791931 34.47223 
101 "X3" 45.01869 0.00000 72.04395 16.50951 8.009430 46.28651 
102 "O1" 61.17952 14.86687 66.94133 22.50884 12.26581 40.04894 
103 "V2" 37.93851 62.82597 13.56222 18.62933 28.57936 6.937863 
104 "U4" 78.41306 8.874647 14.48997 25.19660 13.87726 3.940559 
105 "W5" 47.20378 0.00000 23.97955 9.557713 5.315468 5.775039 
106 "B3" 18.13535 56.94820 0.00000 12.18412 21.69334 4.405371 
107 "U6" 75.87243 100.0000 0.00000 58.29928 83.08917 13.82775 
108 "E9" 72.43153 62.40177 19.02953 33.57208 35.98080 8.862702 
109 "D8" 0.00000 24.00549 65.39712 9.547737 7.079956 37.81399 
110 "O8" 100.0000 24.72419 77.42580 53.62041 29.58713 56.31791 
111 "B7" 85.34981 30.80186 40.79194 34.73061 22.16560 16.28344 
112 "J2" 0.00000 76.69947 71.55718 28.85976 43.26031 51.77109 
113 "A3" 24.08484 47.57763 76.72389 19.56469 19.54035 55.11064 
114 "N8" 64.51209 28.40467 100.0000 36.45480 20.65998 96.61817 
115 "V4" 85.57565 65.12245 38.06363 45.34181 43.66928 18.11528 
116 "K7" 76.15930 0.00000 0.00000 23.07992 12.38448 2.034626 
117 "C8" 100.0000 100.0000 100.0000 95.10649 100.0000 108.8440 
118 "G1" 24.39002 100.0000 27.15343 39.45498 73.24912 18.53513 
119 "T9" 67.06645 100.0000 51.37560 57.09370 81.99834 34.94852 
120 "T3" 16.41413 0.00000 20.59510 2.564798 1.734486 4.337667 
121 "Z2" 100.0000 100.0000 100.0000 95.10649 100.0000 108.8440 
122 "R1" 25.73129 72.12329 41.68612 22.74268 37.07083 20.40165 
123 "B2" 35.97314 68.94942 69.69253 28.60833 37.07965 48.07423 
124 "Q8" 100.0000 100.0000 100.0000 95.10649 100.0000 108.8440 
125 "K4" 40.67292 83.61639 33.76974 31.90000 51.78378 17.91728 
126 "D9" 72.75044 37.05653 11.40764 25.15873 19.37718 4.431842 
127 "B9" 88.65949 40.52338 86.88640 49.90936 31.89069 72.51885 
128 "W4" 25.53140 100.0000 100.0000 56.44160 80.06426 107.0323 
129 "M1" 0.00000 78.04379 31.05974 22.62846 42.00371 15.13986 
130 "I9" 22.72374 0.00000 75.62219 12.23659 5.693375 51.18279 
131 "H8" 66.34470 24.62348 51.96155 23.14346 14.53118 24.24210 
132 "G2" 74.35569 73.64309 0.00000 39.68796 47.30621 7.900824 
133 "D2" 93.33333 93.33333 93.33333 81.46035 85.64427 93.20584 
134 "S2" 9.921416 43.83154 10.42039 7.306727 12.70623 3.928755 
135 "V7" 84.82643 22.89616 100.0000 48.51546 25.68405 96.95275 
136 "A8" 78.22538 79.41253 100.0000 63.34266 62.28453 103.2368 
137 "U3" 23.88495 78.56565 0.00000 23.42759 43.02967 7.931732 
138 "R4" 100.0000 0.00000 20.28687 42.43789 22.29522 6.114168 
139 "X5" 76.10132 86.05020 64.92561 55.00748 65.44877 46.11342 
140 "I3" 17.36477 17.64096 0.00000 2.968837 3.393213 1.358265 
141 "B5" 89.37819 48.64271 43.48821 42.62590 32.73282 19.79571 
142 "O5" 45.55886 18.86015 50.83543 13.16900 8.374382 22.56810 
143 "C2" 49.22713 27.93927 30.44480 13.04484 10.38813 9.247435 
144 "Z3" 14.03067 0.00000 52.17060 5.906827 3.044862 23.12406 
145 "F2" 64.74250 53.61715 35.67102 27.06813 27.31147 14.49916 
146 "P7" 53.79416 36.87190 59.45983 20.78790 16.44171 32.19552 
147 "G5" 26.16922 77.53262 19.48882 23.76504 42.24771 10.71764 
148 "A7" 9.184405 14.78141 82.84733 13.70989 7.207071 62.73004 
149 "F9" 100.0000 57.28237 26.17075 53.01300 42.82260 11.55096 
150 "F8" 1.649500 16.27680 41.60678 4.435416 3.663811 14.86322 
151 "E5" 47.51202 94.23514 57.07179 44.86713 68.94359 38.54710 
152 "I4" 100.0000 100.0000 100.0000 95.10649 100.0000 108.8440 
153 "H9" 7.847715 47.46014 55.37652 12.83360 16.59988 28.42370 
154 "A1" 70.02365 0.00000 77.12520 29.24566 14.41374 54.21701 
155 "P8" 21.28023 22.52384 100.0000 21.86138 11.87069 95.69019 
156 "N7" 28.39857 56.43397 57.31899 18.68617 24.15691 31.53490 
157 "V5" 100.0000 100.0000 100.0000 95.10649 100.0000 108.8440 
158 "S5" 50.19913 78.43290 100.0000 48.13567 53.58624 102.3587 
159 "M4" 63.74609 36.51026 37.79965 21.85609 17.27420 14.09570 
160 "E8" 100.0000 100.0000 100.0000 95.10649 100.0000 108.8440 
161 "E2" 35.94110 20.01678 9.312581 6.669801 5.646982 2.440623 
162 "W7" 59.46441 54.26261 78.27115 33.07837 29.78401 58.73324 
163 "C4" 34.55406 14.16648 85.15297 18.04162 9.282883 66.80447 
164 "I2" 60.32349 48.13153 12.39338 21.39381 21.84505 5.274930 
165 "A6" 91.18944 38.84337 12.84657 38.81084 27.02743 5.440119 
166 "B4" 13.11971 79.06004 88.81666 36.11188 48.42227 79.90310 
167 "T1" 34.74632 37.71267 61.48318 15.20510 13.79836 34.21541 
168 "L6" 88.65644 86.91691 54.69444 62.49074 70.40902 35.52799 
169 "Z4" 0.00000 17.68063 20.20752 2.535519 3.105588 4.487990 
170 "S7" 100.0000 52.00885 79.89929 60.84364 42.85942 62.34057 
171 "V8" 42.17746 54.78752 74.23514 25.43837 26.26214 52.43573 
172 "L7" 21.50912 35.00267 47.70581 9.566579 10.29789 20.46554 
173 "G3" 40.14496 76.26001 54.56474 30.29346 44.06784 32.01287 
174 "J3" 84.81880 25.74655 64.27863 37.65712 21.96710 37.85606 
175 "L9" 91.57244 13.88418 30.06638 36.35754 19.97917 9.694106 
176 "S6" 36.08911 88.53895 86.25315 45.02159 62.09142 77.48984 
177 "X6" 18.34745 59.85046 19.58953 13.93613 24.25039 7.789595 
178 "Q6" 63.95209 90.11826 86.66209 56.85219 69.80124 79.07532 
179 "H1" 57.29305 31.33135 13.70718 15.88596 12.84446 4.073375 
180 "I1" 26.93065 41.26192 17.85306 8.909625 12.47845 5.310425 
181 "H7" 1.145953 63.06096 77.92630 23.79439 30.25318 58.78183 
182 "Y9" 79.98169 47.45708 26.71092 33.44944 27.66096 9.870955 
183 "P5" 81.89059 98.95323 46.16922 64.77193 84.81075 30.70958 
184 "A9" 90.29984 17.45937 7.621881 34.42394 19.57172 3.454191 
185 "G8" 100.0000 100.0000 100.0000 95.10649 100.0000 108.8440 
186 "E1" 7.234302 82.27512 13.67208 24.32321 46.78358 10.17352 
187 "N2" 82.28733 59.35760 64.11688 44.87101 39.20477 40.61125 
188 "E3" 10.97734 89.15541 78.73045 39.17537 59.98174 64.95352 
189 "H6" 29.40566 12.96407 35.70916 6.283592 4.309237 11.17484 
190 "S9" 42.59403 64.01007 40.20600 22.60469 31.16581 18.26932 
191 "D3" 54.59068 69.59182 27.81109 28.35529 38.20986 12.63179 
192 "F4" 71.23674 37.71420 68.30549 31.75746 22.15123 43.21013 
193 "S4" 56.49195 12.48798 34.31601 14.62805 8.580108 10.78231 
194 "O6" 87.69970 59.80316 12.00275 42.76023 39.12172 7.416076 
195 "K8" 58.13077 80.43030 60.56153 40.58168 52.84885 39.38695 
196 "K2" 66.65293 38.04532 85.64889 34.22067 22.95655 69.44994 
197 "M2" 72.89845 46.18143 51.90356 31.55617 25.75352 25.91288 
198 "O9" 23.88952 54.15427 39.94354 14.27904 20.94693 16.56193 
199 "B8" 18.30320 29.99619 66.03342 11.77144 9.587741 38.96291 
200 "V3" 100.0000 100.0000 100.0000 95.10649 100.0000 108.8440 
201 "Y6" 47.50134 40.68208 86.80552 26.66843 19.97020 71.29956 
202 "G7" 9.408713 36.50874 86.61784 18.16229 14.12048 70.28699 
203 "L2" 91.28557 68.00488 85.08431 61.46807 52.81826 72.80402 
204 "G6" 89.34157 43.47143 64.04669 44.80619 31.15524 38.97739 
205 "X4" 75.52911 11.36034 41.95468 25.73341 14.09323 15.99556 
206 "M9" 72.92287 19.81079 82.40940 33.72351 18.24690 63.08047 
207 "H4" 50.66911 78.89982 77.61044 40.79957 51.11159 61.42964 
208 "W9" 44.80964 50.92393 26.61631 16.81822 20.73855 9.372540 
209 "M8" 7.814145 62.12406 34.71885 15.22598 26.20110 14.37370 
210 "W2" 64.92103 69.27138 90.00229 46.04495 45.59522 81.01397 
211 "T6" 61.06050 70.80491 10.41428 30.97792 40.58106 8.061800 
212 "J6" 18.33219 64.40375 71.00633 23.59782 31.26256 48.97792 
213 "W3" 26.59342 82.84276 68.27497 34.04584 51.48167 48.71223 
214 "B6" 14.63798 91.67773 54.74632 35.49378 61.38799 35.25883 
215 "L5" 88.07660 9.437705 70.28611 40.02146 20.66712 45.09575 
216 "Y8" 17.44869 61.91653 89.54452 28.04770 31.27466 78.35200 
217 "I7" 93.01900 16.42939 50.87205 40.43056 22.08242 23.81088 
218 "O2" 42.54826 39.60632 11.07347 12.00023 13.48468 3.933222 
219 "K1" 58.63127 85.35592 43.11589 40.88171 57.95026 24.48607 
220 "J7" 0.00000 0.00000 0.00000 1.000000 1.000000 1.000000 
221 "S1" 45.28573 25.32845 72.75044 18.63477 11.82646 47.89744 
222 "A4" 87.31060 88.04456 35.08507 59.35191 70.24775 20.75527 
223 "F6" 40.64546 88.58473 13.30434 33.79353 57.79405 11.72894 
224 "M7" 93.42336 72.08820 61.12917 58.85096 55.27456 39.52501 
225 "J5" 70.27237 68.44434 49.52621 38.28571 42.18392 26.63143 
226 "W6" 72.97017 77.68826 35.52148 42.93535 52.11649 18.36569 
227 "C9" 58.95781 12.77790 13.49508 14.33390 8.623450 3.299175 
228 "U9" 74.56168 25.20333 25.64736 24.84310 15.89931 7.633103 
229 "R6" 76.69337 56.76051 85.06294 45.80178 37.48659 70.63096 
230 "D1" 91.58007 13.55917 87.34722 48.17662 24.66807 72.03426 
231 "U2" 37.51431 68.12085 88.05371 34.06414 38.65686 76.74327 
232 "R7" 80.68666 87.70733 12.95186 52.70326 66.65752 12.37745 
233 "U1" 6.511025 7.837034 25.41390 2.408435 1.984751 6.039443 
234 "R9" 18.17044 18.91814 46.98100 6.531425 5.032688 19.02226 
END_DATA
