Canon_Pro-300/Scandinavian-Photo/Matte/Pro-300-Scp-Matte.ti2
CTI2   

DESCRIPTOR "Argyll Calibration Target chart information 2"
ORIGINATOR "Argyll printtarg"
CREATED "Tue Dec 19 21:19:50 2023"
TARGET_INSTRUMENT "X-Rite ColorMunki"
COMP_GREY_STEPS "128"
APPROX_WHITE_POINT "95.106486 100.000000 108.844025"
COLOR_REP "iRGB"
PAPER_SIZE "297.0x210.0"
RANDOM_START "1064"
STEPS_IN_PASS "14"
PASSES_IN_STRIPS2 "29,29,29"
STRIP_INDEX_PATTERN "A-Z, A-Z"
PATCH_INDEX_PATTERN "0-9,@-9,@-9;1-999"
INDEX_ORDER "STRIP_THEN_PATCH"

NUMBER_OF_FIELDS 8
BEGIN_DATA_FORMAT
SAMPLE_ID SAMPLE_LOC RGB_R RGB_G RGB_B XYZ_X XYZ_Y XYZ_Z 
END_DATA_FORMAT

NUMBER_OF_SETS 1218
BEGIN_DATA
1 "AV2" 100.0000 100.0000 100.0000 95.10649 100.0000 108.8440 
2 "AN2" 67.71649 67.71649 67.71649 40.16297 42.19944 45.87993 
3 "V4" 0.00000 0.00000 0.00000 1.000000 1.000000 1.000000 
4 "BK3" 100.0000 67.27245 79.22484 66.90858 55.31160 63.36306 
5 "BN12" 54.41825 71.15740 79.40490 38.56530 43.55631 62.86798 
6 "BL5" 45.59701 20.09003 93.74990 24.78380 13.23208 83.02719 
7 "Y9" 53.11513 77.96445 20.40589 31.75449 46.73101 11.42895 
8 "BT6" 60.40742 60.51423 73.32265 34.57088 34.33755 52.20939 
9 "AZ12" 75.56420 7.214466 79.78790 33.64307 16.91755 58.58918 
10 "AI2" 98.42527 98.42527 98.42527 91.77029 96.49032 105.0208 
11 "AQ13" 97.63790 97.63790 97.63790 90.12848 94.76313 103.1393 
12 "M13" 96.85054 96.85054 96.85054 88.50412 93.05431 101.2779 
13 "Y2" 96.06317 96.06317 96.06317 86.89716 91.36379 99.43632 
14 "AO3" 95.27581 95.27581 95.27581 85.30756 89.69153 97.61466 
15 "O10" 94.48844 94.48844 94.48844 83.73524 88.03745 95.81282 
16 "D5" 93.70108 93.70108 93.70108 82.18017 86.40152 94.03074 
17 "B12" 92.91371 92.91371 92.91371 80.64228 84.78366 92.26835 
18 "AK7" 92.12634 92.12634 92.12634 79.12152 83.18382 90.52559 
19 "BR11" 91.33898 91.33898 91.33898 77.61783 81.60194 88.80240 
20 "CD6" 90.55161 90.55161 90.55161 76.13117 80.03797 87.09872 
21 "CF11" 89.76425 89.76425 89.76425 74.66147 78.49185 85.41448 
22 "D13" 88.97688 88.97688 88.97688 73.20868 76.96352 83.74961 
23 "AL11" 88.18952 88.18952 88.18952 71.77274 75.45291 82.10406 
24 "AE6" 87.40215 87.40215 87.40215 70.35360 73.95997 80.47775 
25 "AN12" 86.61479 86.61479 86.61479 68.95120 72.48465 78.87063 
26 "F5" 85.82742 85.82742 85.82742 67.56549 71.02687 77.28263 
27 "E10" 85.04005 85.04005 85.04005 66.19639 69.58659 75.71368 
28 "AJ5" 84.25269 84.25269 84.25269 64.84387 68.16374 74.16371 
29 "BH9" 83.46532 83.46532 83.46532 63.50786 66.75825 72.63267 
30 "H6" 82.67643 82.67643 82.67643 62.18830 65.37007 71.12048 
31 "AT13" 81.88907 81.88907 81.88907 60.88513 63.99914 69.62708 
32 "BH7" 81.10170 81.10170 81.10170 59.59830 62.64540 68.15240 
33 "BQ3" 80.31434 80.31434 80.31434 58.32775 61.30878 66.69637 
34 "AE4" 79.52697 79.52697 79.52697 57.07341 59.98921 65.25893 
35 "BS10" 78.73960 78.73960 78.73960 55.83523 58.68665 63.84000 
36 "BP7" 77.95224 77.95224 77.95224 54.61315 57.40102 62.43952 
37 "BL10" 77.16487 77.16487 77.16487 53.40710 56.13226 61.05742 
38 "BF9" 76.37751 76.37751 76.37751 52.21703 54.88030 59.69362 
39 "BL12" 75.59014 75.59014 75.59014 51.04288 53.64509 58.34807 
40 "BJ7" 74.80278 74.80278 74.80278 49.88458 52.42656 57.02068 
41 "AC10" 74.01541 74.01541 74.01541 48.74207 51.22464 55.71139 
42 "AG6" 73.22805 73.22805 73.22805 47.61529 50.03927 54.42012 
43 "BT3" 72.44068 72.44068 72.44068 46.50418 48.87038 53.14681 
44 "CE4" 71.65332 71.65332 71.65332 45.40867 47.71791 51.89139 
45 "CI9" 70.86595 70.86595 70.86595 44.32870 46.58179 50.65377 
46 "BN8" 70.07858 70.07858 70.07858 43.26422 45.46194 49.43389 
47 "CB11" 69.29122 69.29122 69.29122 42.21514 44.35832 48.23167 
48 "BI11" 68.50385 68.50385 68.50385 41.18142 43.27084 47.04705 
49 "AC13" 100.0000 100.0000 100.0000 95.10649 100.0000 108.8440 
50 "E12" 66.92912 66.92912 66.92912 39.15975 41.14405 44.73026 
51 "AG8" 66.14176 66.14176 66.14176 38.17168 40.10460 43.59796 
52 "B9" 65.35439 65.35439 65.35439 37.19870 39.08103 42.48294 
53 "BQ7" 64.56703 64.56703 64.56703 36.24074 38.07325 41.38514 
54 "BI3" 63.77966 63.77966 63.77966 35.29774 37.08121 40.30447 
55 "P13" 62.99229 62.99229 62.99229 34.36962 36.10483 39.24087 
56 "BI7" 62.20493 62.20493 62.20493 33.45631 35.14403 38.19424 
57 "S2" 61.41756 61.41756 61.41756 32.55776 34.19876 37.16452 
58 "P3" 60.63020 60.63020 60.63020 31.67389 33.26893 36.15162 
59 "AX7" 59.84283 59.84283 59.84283 30.80463 32.35447 35.15547 
60 "BQ9" 59.05547 59.05547 59.05547 29.94991 31.45530 34.17598 
61 "BM13" 58.26810 58.26810 58.26810 29.10967 30.57136 33.21308 
62 "BI5" 57.48074 57.48074 57.48074 28.28382 29.70258 32.26668 
63 "BJ4" 56.69337 56.69337 56.69337 27.47231 28.84886 31.33670 
64 "CB5" 55.90600 55.90600 55.90600 26.67505 28.01015 30.42306 
65 "BN2" 55.11864 55.11864 55.11864 25.89198 27.18635 29.52568 
66 "CI11" 54.33127 54.33127 54.33127 25.12302 26.37741 28.64446 
67 "AS2" 53.54391 53.54391 53.54391 24.36809 25.58323 27.77934 
68 "AM2" 52.75654 52.75654 52.75654 23.62713 24.80374 26.93021 
69 "BM5" 51.96918 51.96918 51.96918 22.90006 24.03886 26.09701 
70 "P5" 51.18181 51.18181 51.18181 22.18681 23.28852 25.27963 
71 "AX13" 50.39445 50.39445 50.39445 21.48729 22.55262 24.47800 
72 "B7" 49.60555 49.60555 49.60555 20.80143 21.83110 23.69202 
73 "B5" 48.81819 48.81819 48.81819 20.12916 21.12387 22.92161 
74 "CI5" 48.03082 48.03082 48.03082 19.47039 20.43085 22.16668 
75 "BL8" 47.24346 47.24346 47.24346 18.82505 19.75195 21.42713 
76 "AU11" 46.45609 46.45609 46.45609 18.19306 19.08710 20.70288 
77 "CB3" 45.66873 45.66873 45.66873 17.57434 18.43620 19.99384 
78 "AE10" 44.88136 44.88136 44.88136 16.96880 17.79918 19.29991 
79 "CB7" 44.09400 44.09400 44.09400 16.37637 17.17594 18.62099 
80 "J5" 43.30663 43.30663 43.30663 15.79696 16.56640 17.95700 
81 "BL6" 42.51926 42.51926 42.51926 15.23049 15.97048 17.30784 
82 "J7" 41.73190 41.73190 41.73190 14.67688 15.38808 16.67342 
83 "CB9" 40.94453 40.94453 40.94453 14.13604 14.81911 16.05362 
84 "BI13" 40.15717 40.15717 40.15717 13.60789 14.26349 15.44837 
85 "AA6" 39.36980 39.36980 39.36980 13.09233 13.72113 14.85755 
86 "G12" 38.58244 38.58244 38.58244 12.58929 13.19193 14.28108 
87 "C3" 37.79507 37.79507 37.79507 12.09867 12.67580 13.71884 
88 "I5" 37.00771 37.00771 37.00771 11.62038 12.17264 13.17073 
89 "BQ11" 36.22034 36.22034 36.22034 11.15434 11.68237 12.63666 
90 "AK12" 35.43297 35.43297 35.43297 10.70045 11.20487 12.11651 
91 "Q9" 34.64561 34.64561 34.64561 10.25863 10.74007 11.61019 
92 "O7" 33.85824 33.85824 33.85824 9.828766 10.28786 11.11758 
93 "BK11" 33.07088 33.07088 33.07088 9.410778 9.848137 10.63857 
94 "AT11" 32.28351 32.28351 32.28351 9.004568 9.420804 10.17306 
95 "I7" 31.49615 31.49615 31.49615 8.610039 9.005759 9.720942 
96 "BG12" 30.70878 30.70878 30.70878 8.227092 8.602899 9.282093 
97 "CA2" 29.92142 29.92142 29.92142 7.855628 8.212119 8.856404 
98 "Y4" 29.13405 29.13405 29.13405 7.495547 7.833314 8.443759 
99 "AN6" 28.34668 28.34668 28.34668 7.146747 7.466377 8.044041 
100 "A12" 27.55932 27.55932 27.55932 6.809125 7.111198 7.657133 
101 "J12" 26.77195 26.77195 26.77195 6.482575 6.767667 7.282914 
102 "BY3" 25.98459 25.98459 25.98459 6.166992 6.435674 6.921262 
103 "AT3" 25.19722 25.19722 25.19722 5.862267 6.115104 6.572054 
104 "BT8" 24.40986 24.40986 24.40986 5.568292 5.805842 6.235165 
105 "W2" 23.62249 23.62249 23.62249 5.284955 5.507771 5.910466 
106 "AB1" 22.83513 22.83513 22.83513 5.012142 5.220773 5.597830 
107 "AU14" 22.04776 22.04776 22.04776 4.749741 4.944726 5.297123 
108 "F14" 21.26040 21.26040 21.26040 4.497633 4.679509 5.008212 
109 "R14" 20.47303 20.47303 20.47303 4.255699 4.424995 4.730962 
110 "BC1" 19.68566 19.68566 19.68566 4.023820 4.181058 4.465234 
111 "BM1" 18.89830 18.89830 18.89830 3.801872 3.947569 4.210886 
112 "AD14" 18.11093 18.11093 18.11093 3.589730 3.724395 3.967775 
113 "B13" 17.32357 17.32357 17.32357 3.387265 3.511402 3.735755 
114 "B3" 16.53468 16.53468 16.53468 3.194348 3.308453 3.514676 
115 "AV1" 15.74731 15.74731 15.74731 3.010845 3.115408 3.304385 
116 "BD1" 14.95995 14.95995 14.95995 2.836620 2.932124 3.104727 
117 "B1" 14.17258 14.17258 14.17258 2.671534 2.758453 2.915542 
118 "AM14" 13.38521 13.38521 13.38521 2.515445 2.594247 2.736667 
119 "BK1" 12.59785 12.59785 12.59785 2.368206 2.439353 2.567935 
120 "O12" 11.81048 11.81048 11.81048 2.229669 2.293612 2.409175 
121 "P7" 11.02312 11.02312 11.02312 2.099680 2.156863 2.260210 
122 "D14" 10.23575 10.23575 10.23575 1.978081 2.028941 2.120860 
123 "BX14" 9.448386 9.448386 9.448386 1.864709 1.909674 1.990938 
124 "AQ14" 8.661021 8.661021 8.661021 1.759399 1.798887 1.870255 
125 "O2" 7.873655 7.873655 7.873655 1.661976 1.696398 1.758610 
126 "CA14" 7.086290 7.086290 7.086290 1.572262 1.602020 1.655800 
127 "AE13" 6.298924 6.298924 6.298924 1.490073 1.515557 1.561613 
128 "AM9" 5.511559 5.511559 5.511559 1.415217 1.436808 1.475829 
129 "BR9" 4.724193 4.724193 4.724193 1.347492 1.365562 1.398219 
130 "BO1" 3.936828 3.936828 3.936828 1.286692 1.301600 1.328543 
131 "AP5" 3.149462 3.149462 3.149462 1.229411 1.241340 1.262900 
132 "AE7" 2.362097 2.362097 2.362097 1.172058 1.181005 1.197175 
133 "BU9" 1.574731 1.574731 1.574731 1.114705 1.120670 1.131450 
134 "H7" 0.787366 0.787366 0.787366 1.057353 1.060335 1.065725 
135 "BJ5" 100.0000 0.00000 100.0000 59.70128 29.19948 97.04219 
136 "CH10" 100.0000 100.0000 0.00000 77.23538 92.85269 14.71507 
137 "BS7" 0.00000 100.0000 0.00000 36.40521 71.80052 12.80184 
138 "AC7" 0.00000 0.00000 100.0000 18.87111 8.147314 95.12896 
139 "BI6" 100.0000 0.00000 0.00000 41.83017 22.05217 2.913230 
140 "H13" 0.00000 100.0000 100.0000 54.27632 78.94783 106.9308 
141 "AA2" 0.00000 37.79660 100.0000 23.04718 16.49830 96.52100 
142 "K7" 100.0000 0.00000 28.36805 42.99926 22.51973 9.070922 
143 "AM1" 100.0000 40.23041 0.00000 46.59188 31.57427 4.500482 
144 "CA5" 0.00000 100.0000 30.19760 37.73163 72.33100 19.78821 
145 "P6" 49.16457 100.0000 0.00000 44.83235 76.14558 13.19672 
146 "G11" 50.69963 0.00000 100.0000 27.87728 12.79093 95.55097 
147 "AG9" 0.00000 67.64324 0.00000 15.69866 30.39322 5.899595 
148 "I10" 0.00000 0.00000 67.82177 8.463035 3.984743 40.30857 
149 "E6" 100.0000 66.86046 100.0000 74.02559 57.84410 101.8170 
150 "BS2" 47.70733 0.00000 0.00000 8.897976 5.072222 1.370085 
151 "O6" 100.0000 100.0000 49.87716 81.04030 94.37441 34.75597 
152 "BB7" 52.38727 100.0000 100.0000 63.94545 83.93327 107.3839 
153 "AU1" 100.0000 0.00000 56.64912 46.84877 24.05929 29.34670 
154 "BA5" 0.00000 63.09911 100.0000 31.47280 33.34718 99.32956 
155 "BG14" 0.00000 46.28214 0.00000 7.416240 13.83069 3.138765 
156 "BV9" 0.00000 100.0000 58.24826 41.73934 73.93383 40.89727 
157 "AJ4" 100.0000 18.09415 100.0000 60.67402 31.14470 97.36644 
158 "Q13" 65.32387 39.12718 0.00000 21.18043 18.06984 3.232110 
159 "E13" 41.16884 38.16587 100.0000 28.89890 19.64304 96.81982 
160 "AN1" 30.22812 0.00000 65.26589 10.89045 5.306809 37.24117 
161 "BT14" 70.19303 100.0000 60.97658 60.70756 83.64861 44.73337 
162 "AL9" 0.00000 36.02655 47.96063 8.274088 9.952669 20.67511 
163 "BR2" 100.0000 38.15824 47.83551 49.56720 31.96182 22.64634 
164 "AG5" 100.0000 64.65858 0.00000 55.13011 48.64832 7.346580 
165 "V14" 0.00000 0.00000 38.37186 3.175613 1.870108 12.45918 
166 "W13" 66.95201 100.0000 0.00000 52.97438 80.34363 13.57824 
167 "BR4" 41.37942 0.00000 55.39788 11.60767 5.916503 26.44814 
168 "BT7" 40.19379 69.19966 0.00000 21.94109 34.74214 6.410287 
169 "AL2" 13.29061 100.0000 100.0000 54.92588 79.28275 106.9612 
170 "AU7" 63.93378 0.00000 0.00000 15.96012 8.713486 1.701005 
171 "O13" 18.43442 0.00000 100.0000 20.03210 8.745928 95.18336 
172 "BB2" 100.0000 100.0000 75.31090 86.66017 96.62201 64.35641 
173 "AJ6" 67.99878 0.00000 100.0000 36.02006 16.98937 95.93253 
174 "C9" 30.95445 100.0000 71.24590 47.91893 76.77390 56.80894 
175 "E14" 0.00000 69.88632 49.61166 20.56482 34.10705 26.07859 
176 "BM6" 26.81926 100.0000 14.48539 39.12202 73.16319 14.64989 
177 "N11" 100.0000 87.70581 48.71748 71.74519 76.08830 30.72773 
178 "BG11" 63.44396 36.74830 100.0000 37.51711 23.60484 97.13066 
179 "BZ3" 32.18738 0.00000 0.00000 4.451638 2.779676 1.161738 
180 "AJ9" 31.43206 74.63645 100.0000 40.45934 46.43806 101.3832 
181 "BL3" 100.0000 100.0000 37.44869 79.30279 93.67952 25.60432 
182 "AN14" 0.00000 22.33768 0.00000 2.446728 3.893052 1.482247 
183 "BA4" 30.75456 53.33486 0.00000 12.86256 20.05393 4.053185 
184 "BX11" 45.51156 75.50927 100.0000 44.79182 49.38742 101.7243 
185 "AR13" 76.70558 0.00000 34.26871 25.15433 13.25524 11.10460 
186 "AD13" 100.0000 26.37064 0.00000 43.83187 26.05500 3.580469 
187 "K2" 100.0000 52.73671 100.0000 68.20753 46.20961 99.87763 
188 "AS1" 100.0000 0.00000 83.59197 53.74153 26.81596 65.65160 
189 "W5" 77.23201 100.0000 100.0000 77.05823 90.69426 107.9983 
190 "BT13" 100.0000 62.42161 55.93347 59.01655 48.61141 32.72432 
191 "BA7" 0.00000 51.94629 86.02731 21.93976 22.54391 70.67737 
192 "P10" 32.87098 100.0000 0.00000 40.00927 73.65879 12.97072 
193 "AH11" 75.65728 0.00000 73.00374 31.54692 15.73316 48.32758 
194 "B10" 66.10971 79.70397 0.00000 38.31157 51.70346 8.822113 
195 "BG8" 28.39704 0.00000 36.21118 5.603715 3.150762 11.27692 
196 "P1" 50.24033 34.16648 0.00000 13.21493 12.32070 2.541886 
197 "J3" 72.25910 48.85786 100.0000 45.71300 32.68640 98.45200 
198 "CA12" 0.00000 32.37964 82.73594 15.66809 11.71343 63.30971 
199 "AR1" 100.0000 47.72107 39.54223 51.00046 36.68257 17.40440 
200 "BC5" 100.0000 43.45922 74.01999 56.50635 36.89457 52.54170 
201 "L9" 0.00000 100.0000 87.12139 49.48061 77.02985 81.67133 
202 "E1" 0.00000 0.00000 83.79492 12.97657 5.789872 64.08183 
203 "AG2" 0.00000 54.03830 39.11955 12.23554 19.84317 15.92411 
204 "B4" 49.24697 100.0000 36.16846 46.78526 76.93013 23.32434 
205 "BN1" 67.68292 100.0000 11.59533 53.60481 80.64248 14.79068 
206 "AG4" 100.0000 78.09110 40.05188 64.46206 63.50065 22.20419 
207 "BP10" 39.22332 100.0000 100.0000 59.48188 81.63184 107.1747 
208 "AP1" 0.00000 0.00000 11.56786 1.225712 1.090271 2.188850 
209 "AE5" 82.81376 0.00000 0.00000 27.64636 14.73895 2.248602 
210 "AK10" 58.45731 0.00000 14.96300 13.63171 7.472599 3.412983 
211 "AH12" 0.00000 100.0000 14.59220 36.73910 71.93405 14.56048 
212 "AH2" 0.00000 74.01389 63.06554 25.31360 39.45659 40.45001 
213 "AE12" 70.34562 62.00809 100.0000 49.49039 41.93092 100.0375 
214 "CF4" 73.21584 0.00000 57.50057 26.40322 13.49820 29.25942 
215 "I3" 0.00000 29.81918 12.74281 3.826271 6.228119 3.248589 
216 "AK5" 73.26772 100.0000 74.82872 65.94491 85.95668 62.68477 
217 "BS14" 100.0000 38.09720 30.32883 47.41396 31.07751 11.37641 
218 "AC9" 36.14862 100.0000 36.07080 42.70459 74.82737 23.07712 
219 "Y5" 82.29953 100.0000 0.00000 62.68095 85.34838 14.03307 
220 "F11" 0.00000 75.67407 100.0000 37.74475 45.88933 101.4202 
221 "BK13" 100.0000 84.94697 100.0000 84.17006 78.13020 105.1985 
222 "AO14" 0.00000 86.97185 31.55261 28.25472 53.18128 17.24158 
223 "AQ1" 66.30045 56.32868 0.00000 27.03327 28.99663 5.033040 
224 "AP11" 25.35897 27.57305 0.00000 5.324176 6.476489 1.829375 
225 "I13" 100.0000 76.76967 0.00000 61.32170 61.02978 9.410463 
226 "BY1" 13.91775 53.60800 100.0000 28.38896 26.13728 98.10026 
227 "J13" 100.0000 11.24285 74.91264 51.57088 26.63099 52.11171 
228 "D3" 0.00000 44.65858 62.66575 13.20898 15.39219 35.97890 
229 "BT10" 43.13420 100.0000 63.98718 49.33078 77.70620 47.65308 
230 "BW13" 26.87877 34.69902 100.0000 24.76355 16.37184 96.40619 
231 "AS3" 0.00000 14.33890 100.0000 19.51272 9.430353 95.34283 
232 "D9" 100.0000 100.0000 100.0000 95.10649 100.0000 108.8440 
233 "AF4" 100.0000 54.28550 30.11978 52.20899 40.69596 12.88308 
234 "CG14" 0.00000 15.69848 37.22133 3.793611 3.320888 12.00225 
235 "U4" 84.87831 43.40429 60.97963 40.65950 29.06788 35.25567 
236 "T12" 32.69856 72.26825 62.99992 27.93252 39.42582 40.23041 
237 "Z13" 46.84672 59.04326 47.62188 22.92480 28.06354 23.12207 
238 "AY11" 61.19783 63.77813 40.33112 29.90402 34.77350 18.66417 
239 "E8" 52.35370 41.72274 72.48341 24.45118 19.72357 48.74204 
240 "C13" 62.98772 20.86519 30.91478 18.13687 11.55949 9.429517 
241 "AA9" 27.43572 88.73274 0.00000 30.49641 56.27729 10.11661 
242 "AX8" 0.00000 78.66178 0.00000 21.58404 42.16232 7.861404 
243 "X14" 100.0000 27.83246 39.03105 46.31424 27.41167 15.53320 
244 "AB11" 73.94064 100.0000 28.49470 58.25179 82.92824 19.98362 
245 "CI2" 70.79728 88.43366 100.0000 64.42324 71.39883 104.9392 
246 "AV6" 34.44419 35.14305 61.01015 14.46221 12.58259 33.48806 
247 "AQ7" 51.34508 0.00000 30.54551 11.61416 6.315655 8.584817 
248 "BZ5" 29.96414 0.00000 11.60449 4.210146 2.628916 2.334931 
249 "C1" 100.0000 0.00000 42.62455 44.54683 23.13866 17.22217 
250 "BQ6" 9.852750 81.95926 35.60693 25.83393 47.09003 18.34534 
251 "BQ4" 85.44594 0.00000 100.0000 47.46355 22.88967 96.46875 
252 "AV13" 100.0000 34.94774 63.14031 51.74648 31.69175 37.64568 
253 "BU8" 100.0000 88.94179 74.12070 78.06782 79.96721 59.86549 
254 "BM2" 100.0000 100.0000 24.75624 78.12727 93.20939 19.41275 
255 "CE14" 0.00000 31.18486 60.47913 9.598883 8.927257 32.44935 
256 "D11" 0.00000 54.63951 73.36690 19.07819 22.92939 50.88685 
257 "AK13" 53.60952 0.00000 76.58503 20.95135 10.15516 53.01615 
258 "U11" 32.63294 0.00000 100.0000 22.42153 9.977926 95.29533 
259 "X8" 74.02152 24.10773 0.00000 23.39525 15.03657 2.529950 
260 "AZ14" 54.83177 46.99321 0.00000 18.30806 19.76361 3.710340 
261 "T2" 64.22675 100.0000 86.88029 64.51128 84.78918 81.94832 
262 "R5" 16.29816 100.0000 0.00000 37.33282 72.27880 12.84530 
263 "BA12" 0.00000 73.88418 24.99580 19.79985 37.14029 11.75127 
264 "BN7" 14.01846 0.00000 55.56420 6.522546 3.290974 26.37328 
265 "R1" 37.84543 24.50599 100.0000 25.43202 14.10078 95.93260 
266 "CE11" 28.03998 64.72724 0.00000 16.94078 29.00478 5.566167 
267 "CI4" 27.38079 100.0000 44.81422 41.91586 74.29220 28.83950 
268 "BP8" 100.0000 36.24933 100.0000 63.52779 36.85143 98.31770 
269 "AG14" 100.0000 23.89715 12.08820 43.72174 25.44665 4.740771 
270 "BW9" 91.44579 75.88159 100.0000 71.19222 63.30804 103.0209 
271 "J6" 100.0000 70.38529 12.48798 58.14222 54.26213 9.613757 
272 "BE2" 100.0000 100.0000 62.12558 83.38164 95.31080 47.08803 
273 "L4" 65.32387 24.73945 66.93980 25.70327 15.51737 40.50566 
274 "AQ10" 63.45922 74.21225 33.93149 35.46888 45.39289 16.58287 
275 "R13" 47.05577 85.37118 16.09979 33.80927 54.59433 11.69972 
276 "AM3" 26.97032 0.00000 83.42870 15.27272 6.987398 63.57457 
277 "F7" 72.64057 54.03220 34.25193 31.54924 29.86151 13.96395 
278 "AA5" 100.0000 0.00000 13.87655 42.13625 22.17458 4.525373 
279 "BE1" 48.12238 18.12467 0.00000 10.02228 7.100015 1.702293 
280 "BI2" 79.13787 22.29191 100.0000 44.37378 23.43514 96.73677 
281 "CF14" 100.0000 13.59884 45.81674 45.58520 24.49101 19.80144 
282 "L1" 28.22614 48.48402 30.47990 12.08709 17.08416 10.60758 
283 "BU5" 0.00000 12.32929 75.47417 10.96731 5.780693 51.04889 
284 "BL14" 14.29465 0.00000 12.11872 1.979667 1.476943 2.317562 
285 "BO10" 72.07294 0.00000 45.27962 23.61060 12.30066 18.19143 
286 "BF1" 0.00000 54.08560 25.48562 10.93106 19.34868 8.969311 
287 "L5" 42.95262 62.47501 100.0000 37.50824 36.05327 99.53404 
288 "BN10" 56.06622 74.23056 40.79500 32.76355 43.92197 20.58913 
289 "AD2" 0.00000 50.67826 100.0000 26.67356 23.75005 97.72980 
290 "AV11" 28.60914 45.06600 83.21813 21.56927 19.23678 65.25496 
291 "AI13" 87.80499 73.62936 0.00000 49.15853 52.17837 8.342494 
292 "B8" 100.0000 85.38338 15.75341 66.96531 71.70412 13.17693 
293 "CE1" 0.00000 34.87907 0.00000 4.532081 8.063175 2.177370 
294 "CD8" 39.67803 92.58106 82.90837 47.74777 67.86125 72.74479 
295 "S1" 39.50256 0.00000 73.78958 15.28859 7.325701 48.67641 
296 "BH13" 0.00000 69.51858 74.70665 25.87578 35.93602 54.96198 
297 "AN4" 63.56298 77.14961 100.0000 53.34799 55.17232 102.3903 
298 "BN14" 0.00000 22.40482 23.22728 3.242538 4.224601 5.632917 
299 "C2" 85.26436 100.0000 54.10849 69.40084 88.28801 38.04946 
300 "C4" 22.80461 22.23087 100.0000 22.04088 11.90901 95.68813 
301 "CH4" 55.74884 100.0000 60.66377 53.30915 79.84165 44.03990 
302 "H12" 38.57633 10.62791 0.00000 6.416991 4.372282 1.365646 
303 "H5" 63.43481 0.00000 64.61280 22.40651 11.26198 36.99322 
304 "BJ1" 10.27543 100.0000 78.82048 47.26927 76.19484 67.79525 
305 "CE3" 42.33463 100.0000 24.43580 43.39197 75.30235 17.66778 
306 "AM11" 0.00000 88.89143 85.51156 40.64504 60.22300 76.06823 
307 "AG12" 53.40505 61.48623 0.00000 22.98399 29.99893 5.439782 
308 "AB4" 22.51164 61.49691 46.18601 17.82421 26.97231 22.03056 
309 "AC2" 13.48592 28.92042 0.00000 4.073745 6.158307 1.833815 
310 "AH5" 75.47723 49.49874 0.00000 30.05424 26.98533 4.485692 
311 "L13" 43.40429 78.21317 71.88830 36.26754 48.36140 52.82072 
312 "V7" 78.08499 53.14565 85.88540 45.66100 35.40083 71.66213 
313 "Y3" 100.0000 12.04395 15.50164 42.67915 23.15588 5.028145 
314 "BU10" 84.25269 76.24323 51.75860 52.01533 55.31131 30.40881 
315 "BT9" 87.49218 27.20226 0.00000 33.29014 20.80906 3.123063 
316 "BK6" 28.53590 100.0000 58.03769 44.40007 75.31058 40.80244 
317 "AM8" 37.11299 12.29877 72.27283 14.72672 7.817074 46.66271 
318 "BA13" 0.00000 24.31525 49.02266 6.371248 5.876860 20.87555 
319 "S10" 100.0000 75.55200 91.18639 75.13101 65.45528 85.52973 
320 "AV9" 26.52628 100.0000 100.0000 56.61194 80.15209 107.0402 
321 "BE5" 57.65316 14.63798 37.49447 15.65361 9.302897 12.69705 
322 "BB14" 29.10048 70.25559 40.12207 22.19220 35.38216 19.04988 
323 "AW12" 0.00000 88.12696 100.0000 45.45515 61.30796 103.9904 
324 "O14" 25.66720 13.55001 0.00000 3.770151 3.292149 1.296553 
325 "AZ11" 37.61654 43.23796 29.55673 12.58572 15.06069 9.761549 
326 "AH14" 0.00000 11.16960 88.06744 14.82080 7.203410 71.71090 
327 "BY8" 0.00000 89.19203 60.90639 34.19932 57.97692 41.09468 
328 "AQ3" 88.60304 100.0000 83.36767 79.27832 92.53659 76.61636 
329 "AG1" 23.87884 6.999313 42.07980 5.753917 3.459615 15.08297 
330 "BW5" 74.75242 14.40604 49.16609 26.51299 14.68796 21.63653 
331 "BZ1" 87.68902 39.85504 100.0000 53.85349 33.11272 98.10555 
332 "BS8" 39.23705 0.00000 26.67887 7.243202 4.099414 6.690386 
333 "CI6" 18.13687 73.22805 9.671168 19.83465 36.71985 7.794901 
334 "AT12" 93.28450 44.49683 10.00992 41.94533 30.84445 5.544779 
335 "AB6" 100.0000 47.62951 61.79141 54.72851 38.12867 37.17882 
336 "CF5" 29.10506 54.03067 62.40177 18.98601 22.86331 36.81210 
337 "AI4" 100.0000 0.00000 70.15183 49.87486 25.26954 45.28546 
338 "N14" 71.40917 0.00000 22.18051 20.84160 11.14707 5.690343 
339 "AF1" 100.0000 31.99207 78.99290 55.27455 32.15802 59.14196 
340 "G7" 12.20111 100.0000 27.91180 38.09965 72.54328 18.78872 
341 "AF12" 88.11322 52.31403 100.0000 57.87597 40.66334 99.35118 
342 "CA3" 58.26963 100.0000 73.83841 57.62006 81.69587 60.87261 
343 "CD10" 67.21599 23.35393 42.33921 21.96949 13.84224 16.41449 
344 "BP6" 56.48890 12.23926 100.0000 30.75670 15.00359 95.82643 
345 "BF6" 42.05997 86.14328 0.00000 32.28615 54.60942 9.700396 
346 "CD5" 0.00000 27.08171 100.0000 20.98161 12.36774 95.83247 
347 "X7" 0.00000 42.51011 35.88769 8.243008 12.45782 12.74713 
348 "BA9" 92.05615 19.40642 26.08835 36.93308 21.05670 8.163836 
349 "BB12" 24.34424 54.79820 93.21279 27.45358 26.60060 84.42008 
350 "N5" 66.85893 63.85138 27.13054 31.52358 35.81300 11.71771 
351 "AH1" 0.00000 0.00000 24.06806 1.843948 1.337526 5.445160 
352 "M11" 0.00000 59.75738 48.14221 15.70282 24.76243 23.29207 
353 "AZ9" 23.07317 32.87861 53.83688 10.39357 9.964050 25.77925 
354 "D7" 100.0000 13.28450 0.00000 42.39295 23.17757 3.100826 
355 "CH11" 39.58038 17.92630 21.51369 7.941297 5.919552 5.146172 
356 "Q8" 100.0000 52.51698 0.00000 50.25962 38.90872 5.723072 
357 "CC13" 28.99519 91.92950 76.23255 42.72597 64.80381 61.89253 
358 "BC4" 0.00000 60.09308 61.81735 18.39568 26.06105 36.79206 
359 "BE12" 0.00000 12.02564 48.52674 5.062559 3.387083 20.04692 
360 "E5" 87.45708 100.0000 25.09651 67.45527 87.70407 19.03912 
361 "AY8" 13.68582 40.63172 100.0000 24.41651 18.22322 96.78184 
362 "L11" 55.83581 68.93111 10.72099 27.63643 37.45819 7.681911 
363 "T8" 87.66918 0.00000 69.44991 39.16647 19.76881 43.85581 
