Canon_Pro-300/Scandinavian-Photo/Matte/Pro-300-Scp-Matte.ti1
CTI1   

DESCRIPTOR "Argyll Calibration Target chart information 1"
ORIGINATOR "Argyll targen"
CREATED "Tue Dec 19 21:18:25 2023"
APPROX_WHITE_POINT "95.106486 100.000000 108.844025"
COLOR_REP "iRGB"
WHITE_COLOR_PATCHES "4"
BLACK_COLOR_PATCHES "4"
COMP_GREY_STEPS "128"
OFPS_PATCHES "1084"

NUMBER_OF_FIELDS 7
BEGIN_DATA_FORMAT
SAMPLE_ID RGB_R RGB_G RGB_B XYZ_X XYZ_Y XYZ_Z 
END_DATA_FORMAT

NUMBER_OF_SETS 1218
BEGIN_DATA
1 100.0000 100.0000 100.0000 95.10649 100.0000 108.8440 
2 67.71654 67.71654 67.71654 40.16297 42.19944 45.87993 
3 0.00000 0.00000 0.00000 1.000000 1.000000 1.000000 
4 100.0000 67.27241 79.22539 66.90858 55.31160 63.36306 
5 54.41786 71.15712 79.40450 38.56530 43.55631 62.86798 
6 45.59697 20.09059 93.75054 24.78380 13.23208 83.02719 
7 53.11484 77.96371 20.40558 31.75449 46.73101 11.42895 
8 60.40741 60.51398 73.32237 34.57088 34.33755 52.20939 
9 75.56484 7.215057 79.78739 33.64307 16.91755 58.58918 
10 98.42520 98.42520 98.42520 91.77029 96.49032 105.0208 
11 97.63780 97.63780 97.63780 90.12848 94.76313 103.1393 
12 96.85039 96.85039 96.85039 88.50412 93.05431 101.2779 
13 96.06299 96.06299 96.06299 86.89716 91.36379 99.43632 
14 95.27559 95.27559 95.27559 85.30756 89.69153 97.61466 
15 94.48819 94.48819 94.48819 83.73524 88.03745 95.81282 
16 93.70079 93.70079 93.70079 82.18017 86.40152 94.03074 
17 92.91339 92.91339 92.91339 80.64228 84.78366 92.26835 
18 92.12598 92.12598 92.12598 79.12152 83.18382 90.52559 
19 91.33858 91.33858 91.33858 77.61783 81.60194 88.80240 
20 90.55118 90.55118 90.55118 76.13117 80.03797 87.09872 
21 89.76378 89.76378 89.76378 74.66147 78.49185 85.41448 
22 88.97638 88.97638 88.97638 73.20868 76.96352 83.74961 
23 88.18898 88.18898 88.18898 71.77274 75.45291 82.10406 
24 87.40157 87.40157 87.40157 70.35360 73.95997 80.47775 
25 86.61417 86.61417 86.61417 68.95120 72.48465 78.87063 
26 85.82677 85.82677 85.82677 67.56549 71.02687 77.28263 
27 85.03937 85.03937 85.03937 66.19639 69.58659 75.71368 
28 84.25197 84.25197 84.25197 64.84387 68.16374 74.16371 
29 83.46457 83.46457 83.46457 63.50786 66.75825 72.63267 
30 82.67717 82.67717 82.67717 62.18830 65.37007 71.12048 
31 81.88976 81.88976 81.88976 60.88513 63.99914 69.62708 
32 81.10236 81.10236 81.10236 59.59830 62.64540 68.15240 
33 80.31496 80.31496 80.31496 58.32775 61.30878 66.69637 
34 79.52756 79.52756 79.52756 57.07341 59.98921 65.25893 
35 78.74016 78.74016 78.74016 55.83523 58.68665 63.84000 
36 77.95276 77.95276 77.95276 54.61315 57.40102 62.43952 
37 77.16535 77.16535 77.16535 53.40710 56.13226 61.05742 
38 76.37795 76.37795 76.37795 52.21703 54.88030 59.69362 
39 75.59055 75.59055 75.59055 51.04288 53.64509 58.34807 
40 74.80315 74.80315 74.80315 49.88458 52.42656 57.02068 
41 74.01575 74.01575 74.01575 48.74207 51.22464 55.71139 
42 73.22835 73.22835 73.22835 47.61529 50.03927 54.42012 
43 72.44094 72.44094 72.44094 46.50418 48.87038 53.14681 
44 71.65354 71.65354 71.65354 45.40867 47.71791 51.89139 
45 70.86614 70.86614 70.86614 44.32870 46.58179 50.65377 
46 70.07874 70.07874 70.07874 43.26422 45.46194 49.43389 
47 69.29134 69.29134 69.29134 42.21514 44.35832 48.23167 
48 68.50394 68.50394 68.50394 41.18142 43.27084 47.04705 
49 100.0000 100.0000 100.0000 95.10649 100.0000 108.8440 
50 66.92913 66.92913 66.92913 39.15975 41.14405 44.73026 
51 66.14173 66.14173 66.14173 38.17168 40.10460 43.59796 
52 65.35433 65.35433 65.35433 37.19870 39.08103 42.48294 
53 64.56693 64.56693 64.56693 36.24074 38.07325 41.38514 
54 63.77953 63.77953 63.77953 35.29774 37.08121 40.30447 
55 62.99213 62.99213 62.99213 34.36962 36.10483 39.24087 
56 62.20472 62.20472 62.20472 33.45631 35.14403 38.19424 
57 61.41732 61.41732 61.41732 32.55776 34.19876 37.16452 
58 60.62992 60.62992 60.62992 31.67389 33.26893 36.15162 
59 59.84252 59.84252 59.84252 30.80463 32.35447 35.15547 
60 59.05512 59.05512 59.05512 29.94991 31.45530 34.17598 
61 58.26772 58.26772 58.26772 29.10967 30.57136 33.21308 
62 57.48031 57.48031 57.48031 28.28382 29.70258 32.26668 
63 56.69291 56.69291 56.69291 27.47231 28.84886 31.33670 
64 55.90551 55.90551 55.90551 26.67505 28.01015 30.42306 
65 55.11811 55.11811 55.11811 25.89198 27.18635 29.52568 
66 54.33071 54.33071 54.33071 25.12302 26.37741 28.64446 
67 53.54331 53.54331 53.54331 24.36809 25.58323 27.77934 
68 52.75591 52.75591 52.75591 23.62713 24.80374 26.93021 
69 51.96850 51.96850 51.96850 22.90006 24.03886 26.09701 
70 51.18110 51.18110 51.18110 22.18681 23.28852 25.27963 
71 50.39370 50.39370 50.39370 21.48729 22.55262 24.47800 
72 49.60630 49.60630 49.60630 20.80143 21.83110 23.69202 
73 48.81890 48.81890 48.81890 20.12916 21.12387 22.92161 
74 48.03150 48.03150 48.03150 19.47039 20.43085 22.16668 
75 47.24409 47.24409 47.24409 18.82505 19.75195 21.42713 
76 46.45669 46.45669 46.45669 18.19306 19.08710 20.70288 
77 45.66929 45.66929 45.66929 17.57434 18.43620 19.99384 
78 44.88189 44.88189 44.88189 16.96880 17.79918 19.29991 
79 44.09449 44.09449 44.09449 16.37637 17.17594 18.62099 
80 43.30709 43.30709 43.30709 15.79696 16.56640 17.95700 
81 42.51969 42.51969 42.51969 15.23049 15.97048 17.30784 
82 41.73228 41.73228 41.73228 14.67688 15.38808 16.67342 
83 40.94488 40.94488 40.94488 14.13604 14.81911 16.05362 
84 40.15748 40.15748 40.15748 13.60789 14.26349 15.44837 
85 39.37008 39.37008 39.37008 13.09233 13.72113 14.85755 
86 38.58268 38.58268 38.58268 12.58929 13.19193 14.28108 
87 37.79528 37.79528 37.79528 12.09867 12.67580 13.71884 
88 37.00787 37.00787 37.00787 11.62038 12.17264 13.17073 
89 36.22047 36.22047 36.22047 11.15434 11.68237 12.63666 
90 35.43307 35.43307 35.43307 10.70045 11.20487 12.11651 
91 34.64567 34.64567 34.64567 10.25863 10.74007 11.61019 
92 33.85827 33.85827 33.85827 9.828766 10.28786 11.11758 
93 33.07087 33.07087 33.07087 9.410778 9.848137 10.63857 
94 32.28346 32.28346 32.28346 9.004568 9.420804 10.17306 
95 31.49606 31.49606 31.49606 8.610039 9.005759 9.720942 
96 30.70866 30.70866 30.70866 8.227092 8.602899 9.282093 
97 29.92126 29.92126 29.92126 7.855628 8.212119 8.856404 
98 29.13386 29.13386 29.13386 7.495547 7.833314 8.443759 
99 28.34646 28.34646 28.34646 7.146747 7.466377 8.044041 
100 27.55906 27.55906 27.55906 6.809125 7.111198 7.657133 
101 26.77165 26.77165 26.77165 6.482575 6.767667 7.282914 
102 25.98425 25.98425 25.98425 6.166992 6.435674 6.921262 
103 25.19685 25.19685 25.19685 5.862267 6.115104 6.572054 
104 24.40945 24.40945 24.40945 5.568292 5.805842 6.235165 
105 23.62205 23.62205 23.62205 5.284955 5.507771 5.910466 
106 22.83465 22.83465 22.83465 5.012142 5.220773 5.597830 
107 22.04724 22.04724 22.04724 4.749741 4.944726 5.297123 
108 21.25984 21.25984 21.25984 4.497633 4.679509 5.008212 
109 20.47244 20.47244 20.47244 4.255699 4.424995 4.730962 
110 19.68504 19.68504 19.68504 4.023820 4.181058 4.465234 
111 18.89764 18.89764 18.89764 3.801872 3.947569 4.210886 
112 18.11024 18.11024 18.11024 3.589730 3.724395 3.967775 
113 17.32283 17.32283 17.32283 3.387265 3.511402 3.735755 
114 16.53543 16.53543 16.53543 3.194348 3.308453 3.514676 
115 15.74803 15.74803 15.74803 3.010845 3.115408 3.304385 
116 14.96063 14.96063 14.96063 2.836620 2.932124 3.104727 
117 14.17323 14.17323 14.17323 2.671534 2.758453 2.915542 
118 13.38583 13.38583 13.38583 2.515445 2.594247 2.736667 
119 12.59843 12.59843 12.59843 2.368206 2.439353 2.567935 
120 11.81102 11.81102 11.81102 2.229669 2.293612 2.409175 
121 11.02362 11.02362 11.02362 2.099680 2.156863 2.260210 
122 10.23622 10.23622 10.23622 1.978081 2.028941 2.120860 
123 9.448819 9.448819 9.448819 1.864709 1.909674 1.990938 
124 8.661417 8.661417 8.661417 1.759399 1.798887 1.870255 
125 7.874016 7.874016 7.874016 1.661976 1.696398 1.758610 
126 7.086614 7.086614 7.086614 1.572262 1.602020 1.655800 
127 6.299213 6.299213 6.299213 1.490073 1.515557 1.561613 
128 5.511811 5.511811 5.511811 1.415217 1.436808 1.475829 
129 4.724409 4.724409 4.724409 1.347492 1.365562 1.398219 
130 3.937008 3.937008 3.937008 1.286692 1.301600 1.328543 
131 3.149606 3.149606 3.149606 1.229411 1.241340 1.262900 
132 2.362205 2.362205 2.362205 1.172058 1.181005 1.197175 
133 1.574803 1.574803 1.574803 1.114705 1.120670 1.131450 
134 0.787402 0.787402 0.787402 1.057353 1.060335 1.065725 
135 100.0000 0.00000 100.0000 59.70128 29.19948 97.04219 
136 100.0000 100.0000 0.00000 77.23538 92.85269 14.71507 
137 0.00000 100.0000 0.00000 36.40521 71.80052 12.80184 
138 0.00000 0.00000 100.0000 18.87111 8.147314 95.12896 
139 100.0000 0.00000 0.00000 41.83017 22.05217 2.913230 
140 0.00000 100.0000 100.0000 54.27632 78.94783 106.9308 
141 0.00000 37.79735 100.0000 23.04718 16.49830 96.52100 
142 100.0000 0.00000 28.36818 42.99926 22.51973 9.070922 
143 100.0000 40.23084 0.00000 46.59188 31.57427 4.500482 
144 0.00000 100.0000 30.19764 37.73163 72.33100 19.78821 
145 49.16513 100.0000 0.00000 44.83235 76.14558 13.19672 
146 50.69990 0.00000 100.0000 27.87728 12.79093 95.55097 
147 0.00000 67.64313 0.00000 15.69866 30.39322 5.899595 
148 0.00000 0.00000 67.82253 8.463035 3.984743 40.30857 
149 100.0000 66.86111 100.0000 74.02559 57.84410 101.8170 
150 47.70779 0.00000 0.00000 8.897976 5.072222 1.370085 
151 100.0000 100.0000 49.87750 81.04030 94.37441 34.75597 
152 52.38800 100.0000 100.0000 63.94545 83.93327 107.3839 
153 100.0000 0.00000 56.64870 46.84877 24.05929 29.34670 
154 0.00000 63.09933 100.0000 31.47280 33.34718 99.32956 
155 0.00000 46.28151 0.00000 7.416240 13.83069 3.138765 
156 0.00000 100.0000 58.24792 41.73934 73.93383 40.89727 
157 100.0000 18.09433 100.0000 60.67402 31.14470 97.36644 
158 65.32445 39.12785 0.00000 21.18043 18.06984 3.232110 
159 41.16958 38.16648 100.0000 28.89890 19.64304 96.81982 
160 30.22868 0.00000 65.26580 10.89045 5.306809 37.24117 
161 70.19261 100.0000 60.97706 60.70756 83.64861 44.73337 
162 0.00000 36.02589 47.96027 8.274088 9.952669 20.67511 
163 100.0000 38.15847 47.83570 49.56720 31.96182 22.64634 
164 100.0000 64.65820 0.00000 55.13011 48.64832 7.346580 
165 0.00000 0.00000 38.37142 3.175613 1.870108 12.45918 
166 66.95231 100.0000 0.00000 52.97438 80.34363 13.57824 
167 41.37882 0.00000 55.39833 11.60767 5.916503 26.44814 
168 40.19439 69.19901 0.00000 21.94109 34.74214 6.410287 
169 13.29045 100.0000 100.0000 54.92588 79.28275 106.9612 
170 63.93310 0.00000 0.00000 15.96012 8.713486 1.701005 
171 18.43444 0.00000 100.0000 20.03210 8.745928 95.18336 
172 100.0000 100.0000 75.31077 86.66017 96.62201 64.35641 
173 67.99808 0.00000 100.0000 36.02006 16.98937 95.93253 
174 30.95457 100.0000 71.24566 47.91893 76.77390 56.80894 
175 0.00000 69.88582 49.61153 20.56482 34.10705 26.07859 
176 26.81935 100.0000 14.48483 39.12202 73.16319 14.64989 
177 100.0000 87.70649 48.71764 71.74519 76.08830 30.72773 
178 63.44428 36.74861 100.0000 37.51711 23.60484 97.13066 
179 32.18665 0.00000 0.00000 4.451638 2.779676 1.161738 
180 31.43132 74.63681 100.0000 40.45934 46.43806 101.3832 
181 100.0000 100.0000 37.44874 79.30279 93.67952 25.60432 
182 0.00000 22.33785 0.00000 2.446728 3.893052 1.482247 
183 30.75470 53.33484 0.00000 12.86256 20.05393 4.053185 
184 45.51228 75.50980 100.0000 44.79182 49.38742 101.7243 
185 76.70535 0.00000 34.26835 25.15433 13.25524 11.10460 
186 100.0000 26.37062 0.00000 43.83187 26.05500 3.580469 
187 100.0000 52.73696 100.0000 68.20753 46.20961 99.87763 
188 100.0000 0.00000 83.59225 53.74153 26.81596 65.65160 
189 77.23188 100.0000 100.0000 77.05823 90.69426 107.9983 
190 100.0000 62.42231 55.93351 59.01655 48.61141 32.72432 
191 0.00000 51.94697 86.02763 21.93976 22.54391 70.67737 
192 32.87137 100.0000 0.00000 40.00927 73.65879 12.97072 
193 75.65704 0.00000 73.00401 31.54692 15.73316 48.32758 
194 66.10900 79.70410 0.00000 38.31157 51.70346 8.822113 
195 28.39649 0.00000 36.21147 5.603715 3.150762 11.27692 
196 50.24096 34.16593 0.00000 13.21493 12.32070 2.541886 
197 72.25921 48.85770 100.0000 45.71300 32.68640 98.45200 
198 0.00000 32.37918 82.73527 15.66809 11.71343 63.30971 
199 100.0000 47.72111 39.54226 51.00046 36.68257 17.40440 
200 100.0000 43.45947 74.01948 56.50635 36.89457 52.54170 
201 0.00000 100.0000 87.12160 49.48061 77.02985 81.67133 
202 0.00000 0.00000 83.79515 12.97657 5.789872 64.08183 
203 0.00000 54.03874 39.12016 12.23554 19.84317 15.92411 
204 49.24714 100.0000 36.16811 46.78526 76.93013 23.32434 
205 67.68292 100.0000 11.59540 53.60481 80.64248 14.79068 
206 100.0000 78.09112 40.05124 64.46206 63.50065 22.20419 
207 39.22378 100.0000 100.0000 59.48188 81.63184 107.1747 
208 0.00000 0.00000 11.56753 1.225712 1.090271 2.188850 
209 82.81329 0.00000 0.00000 27.64636 14.73895 2.248602 
210 58.45655 0.00000 14.96236 13.63171 7.472599 3.412983 
211 0.00000 100.0000 14.59212 36.73910 71.93405 14.56048 
212 0.00000 74.01317 63.06525 25.31360 39.45659 40.45001 
213 70.34624 62.00793 100.0000 49.49039 41.93092 100.0375 
214 73.21658 0.00000 57.50119 26.40322 13.49820 29.25942 
215 0.00000 29.81924 12.74215 3.826271 6.228119 3.248589 
216 73.26746 100.0000 74.82904 65.94491 85.95668 62.68477 
217 100.0000 38.09660 30.32836 47.41396 31.07751 11.37641 
218 36.14892 100.0000 36.07106 42.70459 74.82737 23.07712 
219 82.29940 100.0000 0.00000 62.68095 85.34838 14.03307 
220 0.00000 75.67352 100.0000 37.74475 45.88933 101.4202 
221 100.0000 84.94744 100.0000 84.17006 78.13020 105.1985 
222 0.00000 86.97239 31.55321 28.25472 53.18128 17.24158 
223 66.30007 56.32792 0.00000 27.03327 28.99663 5.033040 
224 25.35867 27.57322 0.00000 5.324176 6.476489 1.829375 
225 100.0000 76.77041 0.00000 61.32170 61.02978 9.410463 
226 13.91763 53.60864 100.0000 28.38896 26.13728 98.10026 
227 100.0000 11.24288 74.91245 51.57088 26.63099 52.11171 
228 0.00000 44.65860 62.66606 13.20898 15.39219 35.97890 
229 43.13382 100.0000 63.98697 49.33078 77.70620 47.65308 
230 26.87950 34.69966 100.0000 24.76355 16.37184 96.40619 
231 0.00000 14.33827 100.0000 19.51272 9.430353 95.34283 
232 100.0000 100.0000 100.0000 95.10649 100.0000 108.8440 
233 100.0000 54.28569 30.12019 52.20899 40.69596 12.88308 
234 0.00000 15.69920 37.22144 3.793611 3.320888 12.00225 
235 84.87892 43.40438 60.97892 40.65950 29.06788 35.25567 
236 32.69783 72.26776 63.00025 27.93252 39.42582 40.23041 
237 46.84611 59.04314 47.62175 22.92480 28.06354 23.12207 
238 61.19788 63.77866 40.33140 29.90402 34.77350 18.66417 
239 52.35349 41.72262 72.48388 24.45118 19.72357 48.74204 
240 62.98745 20.86551 30.91468 18.13687 11.55949 9.429517 
241 27.43604 88.73211 0.00000 30.49641 56.27729 10.11661 
242 0.00000 78.66126 0.00000 21.58404 42.16232 7.861404 
243 100.0000 27.83233 39.03085 46.31424 27.41167 15.53320 
244 73.94049 100.0000 28.49545 58.25179 82.92824 19.98362 
245 70.79759 88.43341 100.0000 64.42324 71.39883 104.9392 
246 34.44393 35.14245 61.01005 14.46221 12.58259 33.48806 
247 51.34547 0.00000 30.54590 11.61416 6.315655 8.584817 
248 29.96476 0.00000 11.60511 4.210146 2.628916 2.334931 
249 100.0000 0.00000 42.62502 44.54683 23.13866 17.22217 
250 9.853343 81.95861 35.60738 25.83393 47.09003 18.34534 
251 85.44559 0.00000 100.0000 47.46355 22.88967 96.46875 
252 100.0000 34.94761 63.13955 51.74648 31.69175 37.64568 
253 100.0000 88.94142 74.12054 78.06782 79.96721 59.86549 
254 100.0000 100.0000 24.75654 78.12727 93.20939 19.41275 
255 0.00000 31.18436 60.47965 9.598883 8.927257 32.44935 
256 0.00000 54.63888 73.36723 19.07819 22.92939 50.88685 
257 53.60965 0.00000 76.58438 20.95135 10.15516 53.01615 
258 32.63237 0.00000 100.0000 22.42153 9.977926 95.29533 
259 74.02194 24.10807 0.00000 23.39525 15.03657 2.529950 
260 54.83242 46.99306 0.00000 18.30806 19.76361 3.710340 
261 64.22697 100.0000 86.87956 64.51128 84.78918 81.94832 
262 16.29785 100.0000 0.00000 37.33282 72.27880 12.84530 
263 0.00000 73.88487 24.99650 19.79985 37.14029 11.75127 
264 14.01789 0.00000 55.56421 6.522546 3.290974 26.37328 
265 37.84548 24.50634 100.0000 25.43202 14.10078 95.93260 
266 28.03923 64.72777 0.00000 16.94078 29.00478 5.566167 
267 27.38074 100.0000 44.81410 41.91586 74.29220 28.83950 
268 100.0000 36.24864 100.0000 63.52779 36.85143 98.31770 
269 100.0000 23.89758 12.08892 43.72174 25.44665 4.740771 
270 91.44592 75.88215 100.0000 71.19222 63.30804 103.0209 
271 100.0000 70.38520 12.48740 58.14222 54.26213 9.613757 
272 100.0000 100.0000 62.12550 83.38164 95.31080 47.08803 
273 65.32411 24.73920 66.93975 25.70327 15.51737 40.50566 
274 63.45970 74.21187 33.93171 35.46888 45.39289 16.58287 
275 47.05544 85.37068 16.09993 33.80927 54.59433 11.69972 
276 26.96977 0.00000 83.42820 15.27272 6.987398 63.57457 
277 72.64075 54.03253 34.25118 31.54924 29.86151 13.96395 
278 100.0000 0.00000 13.87697 42.13625 22.17458 4.525373 
279 48.12257 18.12446 0.00000 10.02228 7.100015 1.702293 
280 79.13754 22.29158 100.0000 44.37378 23.43514 96.73677 
281 100.0000 13.59942 45.81646 45.58520 24.49101 19.80144 
282 28.22636 48.48473 30.48047 12.08709 17.08416 10.60758 
283 0.00000 12.32919 75.47470 10.96731 5.780693 51.04889 
284 14.29515 0.00000 12.11864 1.979667 1.476943 2.317562 
285 72.07349 0.00000 45.27940 23.61060 12.30066 18.19143 
286 0.00000 54.08578 25.48495 10.93106 19.34868 8.969311 
287 42.95331 62.47516 100.0000 37.50824 36.05327 99.53404 
288 56.06573 74.23103 40.79491 32.76355 43.92197 20.58913 
289 0.00000 50.67860 100.0000 26.67356 23.75005 97.72980 
290 28.60901 45.06672 83.21778 21.56927 19.23678 65.25496 
291 87.80537 73.62955 0.00000 49.15853 52.17837 8.342494 
292 100.0000 85.38376 15.75373 66.96531 71.70412 13.17693 
293 0.00000 34.87885 0.00000 4.532081 8.063175 2.177370 
294 39.67762 92.58176 82.90766 47.74777 67.86125 72.74479 
295 39.50288 0.00000 73.79005 15.28859 7.325701 48.67641 
296 0.00000 69.51795 74.70679 25.87578 35.93602 54.96198 
297 63.56238 77.14945 100.0000 53.34799 55.17232 102.3903 
298 0.00000 22.40427 23.22741 3.242538 4.224601 5.632917 
299 85.26362 100.0000 54.10849 69.40084 88.28801 38.04946 
300 22.80481 22.23080 100.0000 22.04088 11.90901 95.68813 
301 55.74898 100.0000 60.66409 53.30915 79.84165 44.03990 
302 38.57688 10.62729 0.00000 6.416991 4.372282 1.365646 
303 63.43479 0.00000 64.61252 22.40651 11.26198 36.99322 
304 10.27596 100.0000 78.82016 47.26927 76.19484 67.79525 
305 42.33489 100.0000 24.43648 43.39197 75.30235 17.66778 
306 0.00000 88.89176 85.51205 40.64504 60.22300 76.06823 
307 53.40541 61.48573 0.00000 22.98399 29.99893 5.439782 
308 22.51154 61.49633 46.18526 17.82421 26.97231 22.03056 
309 13.48628 28.92050 0.00000 4.073745 6.158307 1.833815 
310 75.47675 49.49921 0.00000 30.05424 26.98533 4.485692 
311 43.40410 78.21284 71.88839 36.26754 48.36140 52.82072 
312 78.08565 53.14553 85.88571 45.66100 35.40083 71.66213 
313 100.0000 12.04338 15.50113 42.67915 23.15588 5.028145 
314 84.25195 76.24278 51.75793 52.01533 55.31131 30.40881 
315 87.49186 27.20206 0.00000 33.29014 20.80906 3.123063 
316 28.53544 100.0000 58.03805 44.40007 75.31058 40.80244 
317 37.11316 12.29834 72.27347 14.72672 7.817074 46.66271 
318 0.00000 24.31471 49.02330 6.371248 5.876860 20.87555 
319 100.0000 75.55145 91.18667 75.13101 65.45528 85.52973 
320 26.52667 100.0000 100.0000 56.61194 80.15209 107.0402 
321 57.65309 14.63857 37.49425 15.65361 9.302897 12.69705 
322 29.10067 70.25606 40.12277 22.19220 35.38216 19.04988 
323 0.00000 88.12674 100.0000 45.45515 61.30796 103.9904 
324 25.66764 13.54928 0.00000 3.770151 3.292149 1.296553 
325 37.61631 43.23780 29.55599 12.58572 15.06069 9.761549 
326 0.00000 11.16928 88.06777 14.82080 7.203410 71.71090 
327 0.00000 89.19200 60.90585 34.19932 57.97692 41.09468 
328 88.60367 100.0000 83.36819 79.27832 92.53659 76.61636 
329 23.87887 6.999387 42.08045 5.753917 3.459615 15.08297 
330 74.75234 14.40591 49.16610 26.51299 14.68796 21.63653 
331 87.68840 39.85507 100.0000 53.85349 33.11272 98.10555 
332 39.23673 0.00000 26.67929 7.243202 4.099414 6.690386 
333 18.13647 73.22850 9.670996 19.83465 36.71985 7.794901 
334 93.28404 44.49674 10.00965 41.94533 30.84445 5.544779 
335 100.0000 47.63023 61.79160 54.72851 38.12867 37.17882 
336 29.10517 54.03019 62.40187 18.98601 22.86331 36.81210 
337 100.0000 0.00000 70.15164 49.87486 25.26954 45.28546 
338 71.40862 0.00000 22.18059 20.84160 11.14707 5.690343 
339 100.0000 31.99163 78.99245 55.27455 32.15802 59.14196 
340 12.20058 100.0000 27.91202 38.09965 72.54328 18.78872 
341 88.11272 52.31332 100.0000 57.87597 40.66334 99.35118 
342 58.26935 100.0000 73.83910 57.62006 81.69587 60.87261 
343 67.21674 23.35414 42.33899 21.96949 13.84224 16.41449 
344 56.48814 12.23878 100.0000 30.75670 15.00359 95.82643 
345 42.05999 86.14394 0.00000 32.28615 54.60942 9.700396 
346 0.00000 27.08134 100.0000 20.98161 12.36774 95.83247 
347 0.00000 42.51045 35.88751 8.243008 12.45782 12.74713 
348 92.05599 19.40626 26.08776 36.93308 21.05670 8.163836 
349 24.34379 54.79804 93.21342 27.45358 26.60060 84.42008 
350 66.85959 63.85192 27.13113 31.52358 35.81300 11.71771 
351 0.00000 0.00000 24.06793 1.843948 1.337526 5.445160 
352 0.00000 59.75663 48.14152 15.70282 24.76243 23.29207 
353 23.07349 32.87813 53.83716 10.39357 9.964050 25.77925 
354 100.0000 13.28377 0.00000 42.39295 23.17757 3.100826 
355 39.57984 17.92678 21.51420 7.941297 5.919552 5.146172 
356 100.0000 52.51731 0.00000 50.25962 38.90872 5.723072 
357 28.99551 91.92979 76.23292 42.72597 64.80381 61.89253 
358 0.00000 60.09244 61.81719 18.39568 26.06105 36.79206 
359 0.00000 12.02555 48.52723 5.062559 3.387083 20.04692 
360 87.45733 100.0000 25.09625 67.45527 87.70407 19.03912 
361 13.68520 40.63210 100.0000 24.41651 18.22322 96.78184 
362 55.83585 68.93060 10.72098 27.63643 37.45819 7.681911 
363 87.66980 0.00000 69.45064 39.16647 19.76881 43.85581 
364 87.26411 88.36481 100.0000 75.60152 77.09273 105.4495 
365 100.0000 100.0000 88.18530 90.67407 98.22731 85.49804 
366 42.48065 100.0000 76.45602 52.31592 78.87656 64.43715 
367 50.26139 36.23621 81.33218 24.86122 17.68251 61.67505 
368 100.0000 64.36593 40.58939 57.44651 49.36263 20.20149 
369 57.51795 36.19775 21.42342 17.34399 15.01144 6.377288 
370 92.03360 84.00847 7.309006 58.79471 66.20235 11.13620 
371 56.39961 58.10979 83.60143 34.78314 32.64285 67.79030 
372 54.13915 44.04489 100.0000 35.02826 25.04298 97.53935 
373 25.07331 42.43120 0.00000 8.419503 12.73619 2.874655 
374 28.01677 0.00000 50.13289 7.452151 3.881762 21.38551 
375 100.0000 85.43446 61.18159 72.55872 73.99417 42.47444 
376 19.60058 9.899873 77.07920 12.57819 6.340014 53.46604 
377 40.57980 88.02129 100.0000 50.97578 64.04786 104.2285 
378 62.75873 83.94520 67.79657 46.63981 59.02581 48.88916 
379 74.71257 21.00521 15.56529 23.81235 14.62750 4.389903 
380 82.26131 14.47220 81.27956 39.08316 20.31006 61.34784 
381 87.19953 12.37985 0.00000 31.43372 17.43372 2.569298 
382 11.92488 100.0000 62.22900 43.11605 74.54712 45.31924 
383 34.77030 67.11869 16.64324 19.91567 32.14524 8.226074 
384 51.09582 80.22499 47.98617 35.17356 50.14426 27.03783 
385 0.00000 88.73971 16.85313 28.43494 55.17226 12.27288 
386 15.33574 61.97891 88.46057 27.47938 31.06511 76.35997 
387 73.93298 42.20759 71.69095 35.37613 25.57024 48.19610 
388 100.0000 88.38310 0.00000 68.58924 75.56283 11.83300 
389 89.58606 72.97789 27.30903 51.30423 52.64164 13.99794 
390 13.47715 0.00000 26.06893 2.652738 1.737928 6.232818 
391 59.39213 100.0000 23.47787 49.92781 78.67981 17.63303 
392 88.92500 33.78415 28.47669 36.77315 24.21588 9.773479 
393 61.07182 24.83386 0.00000 16.30079 11.52763 2.226274 
394 15.41319 0.00000 0.00000 1.839815 1.433012 1.039352 
395 59.56499 100.0000 48.60978 52.80439 79.83968 32.35904 
396 46.45041 24.24731 46.17709 13.37686 9.526456 18.89082 
397 64.81479 100.0000 100.0000 69.69642 86.89849 107.6534 
398 13.81883 100.0000 50.95789 41.08500 73.75244 33.82650 
399 13.46994 87.30566 0.00000 27.69251 53.39127 9.707197 
400 57.59783 0.00000 47.83146 16.36698 8.521184 19.86673 
401 19.89458 30.06009 72.55148 13.61271 10.36426 47.60070 
402 84.39261 58.74755 0.00000 39.57191 36.86811 5.892078 
403 12.26798 86.49130 100.0000 44.92223 59.39937 103.6500 
