Canon_Pro-300/Scandinavian-Photo/Matte/Pro-300-Scp-Matte.ti3
CTI3   

DESCRIPTOR "Argyll Calibration Target chart information 3"
ORIGINATOR "Argyll chartread"
CREATED "Tue Dec 19 21:32:06 2023"
DEVICE_CLASS "OUTPUT"
COMP_GREY_STEPS "128"
COLOR_REP "iRGB_XYZ"
TARGET_INSTRUMENT "X-Rite ColorMunki"
DEVCALSTD "XRGA"
SPECTRAL_BANDS "106"
SPECTRAL_START_NM "380.000000"
SPECTRAL_END_NM "730.000000"

NUMBER_OF_FIELDS 114
BEGIN_DATA_FORMAT
SAMPLE_ID SAMPLE_LOC RGB_R RGB_G RGB_B XYZ_X XYZ_Y XYZ_Z SPEC_380 SPEC_383 SPEC_387 SPEC_390 SPEC_393 SPEC_397 SPEC_400 SPEC_403 SPEC_407 SPEC_410 SPEC_413 SPEC_417 SPEC_420 SPEC_423 SPEC_427 SPEC_430 SPEC_433 SPEC_437 SPEC_440 SPEC_443 SPEC_447 SPEC_450 SPEC_453 SPEC_457 SPEC_460 SPEC_463 SPEC_467 SPEC_470 SPEC_473 SPEC_477 SPEC_480 SPEC_483 SPEC_487 SPEC_490 SPEC_493 SPEC_497 SPEC_500 SPEC_503 SPEC_507 SPEC_510 SPEC_513 SPEC_517 SPEC_520 SPEC_523 SPEC_527 SPEC_530 SPEC_533 SPEC_537 SPEC_540 SPEC_543 SPEC_547 SPEC_550 SPEC_553 SPEC_557 SPEC_560 SPEC_563 SPEC_567 SPEC_570 SPEC_573 SPEC_577 SPEC_580 SPEC_583 SPEC_587 SPEC_590 SPEC_593 SPEC_597 SPEC_600 SPEC_603 SPEC_607 SPEC_610 SPEC_613 SPEC_617 SPEC_620 SPEC_623 SPEC_627 SPEC_630 SPEC_633 SPEC_637 SPEC_640 SPEC_643 SPEC_647 SPEC_650 SPEC_653 SPEC_657 SPEC_660 SPEC_663 SPEC_667 SPEC_670 SPEC_673 SPEC_677 SPEC_680 SPEC_683 SPEC_687 SPEC_690 SPEC_693 SPEC_697 SPEC_700 SPEC_703 SPEC_707 SPEC_710 SPEC_713 SPEC_717 SPEC_720 SPEC_723 SPEC_727 SPEC_730 
END_DATA_FORMAT

NUMBER_OF_SETS 1218
BEGIN_DATA
1 "AV2" 100.0000 100.0000 100.0000 87.40920 90.64428 77.36812 81.24553 81.24553 81.24553 81.24553 81.24553 81.24553 81.24553 81.27258 81.27835 81.22402 81.07080 81.02080 81.27637 84.68941 87.50145 89.60098 90.83780 91.45864 91.72284 91.91702 92.18673 92.66573 93.47201 94.48956 95.53665 96.62564 97.85155 99.08360 99.86322 100.0973 99.84713 99.13727 98.03355 96.81735 95.63289 94.65498 93.90009 93.33678 92.94679 92.61749 92.32914 92.03186 91.71167 91.40411 91.13710 90.85939 90.63994 90.46739 90.33841 90.19819 90.03386 89.83356 89.56480 89.27500 89.02959 88.93621 88.91913 88.93577 88.91950 88.89478 88.92333 89.02155 89.15659 89.29943 89.41038 89.49796 89.58116 89.68216 89.81537 89.96677 90.14121 90.34714 90.55416 90.83398 91.14377 91.49099 91.90049 92.33617 92.75907 93.15119 93.50769 93.80709 94.15952 94.55649 94.80086 94.92634 95.04505 95.14331 95.18533 95.19882 95.17255 95.14162 95.15699 95.10722 95.15332 95.22537 95.35034 95.70989 95.78391 95.94404 96.09984 96.09796 95.92930 96.02519 96.39769 96.63468 
2 "AN2" 67.71649 67.71649 67.71649 42.41219 44.01496 33.75000 35.20585 35.20585 35.20585 35.20585 35.20585 35.20585 35.20585 35.21727 35.21945 35.19559 35.12888 35.10689 35.21727 36.23717 37.18663 37.96425 38.49055 38.86385 39.14181 39.39972 39.64891 39.94415 40.34058 40.74511 41.17272 41.65249 42.16872 42.71685 43.17528 43.48184 43.78766 44.08452 44.46260 44.98508 45.51011 45.98234 46.35697 46.47661 46.36701 46.06308 45.53460 44.91501 44.32393 43.87583 43.65256 43.64611 43.80420 43.99296 44.05332 43.87884 43.46416 42.87625 42.26203 41.78363 41.56714 41.70572 42.10831 42.65013 43.19500 43.66567 44.05876 44.39169 44.62418 44.75037 44.78973 44.73317 44.62099 44.51816 44.45483 44.44323 44.50472 44.64874 44.85335 45.11404 45.39941 45.70605 46.05445 46.45599 46.90850 47.39002 47.84960 48.28850 48.79506 49.33663 49.78947 50.12769 50.38843 50.51764 50.59730 50.61763 50.52801 50.34842 50.24763 50.06380 49.96446 49.78652 49.55401 49.54620 49.60614 49.91370 50.24732 50.53364 50.94502 51.72452 52.72515 53.68709 
3 "V4" 0.00000 0.00000 0.00000 2.038534 2.071951 1.609572 1.947512 1.947512 1.947512 1.947512 1.947512 1.947512 1.947512 1.948171 1.948321 1.947030 1.943369 1.942182 1.948312 1.919534 1.923046 1.927518 1.937626 1.944239 1.951973 1.957816 1.957376 1.959877 1.981119 2.011454 1.991199 1.927303 1.929620 1.955088 1.946381 1.963786 1.882197 1.826706 1.838652 1.908393 1.986327 1.997496 2.001882 1.985858 1.981057 2.000545 2.002634 1.997589 1.995627 2.001861 2.012645 2.020350 2.024333 2.030285 2.034189 2.037719 2.043272 2.047190 2.045993 2.050534 2.055787 2.061295 2.071159 2.079471 2.079144 2.087557 2.093641 2.103645 2.113970 2.127480 2.142463 2.153354 2.155691 2.157991 2.154872 2.153172 2.160981 2.176439 2.182143 2.180134 2.194512 2.201923 2.202020 2.213038 2.230340 2.234876 2.246076 2.261146 2.288468 2.320087 2.325061 2.338317 2.363775 2.358617 2.381713 2.427919 2.416326 2.428895 2.470188 2.518996 2.521468 2.562481 2.564238 2.546537 2.552749 2.636642 2.627678 2.650198 2.767516 2.831082 2.866593 2.916653 
4 "BK3" 100.0000 67.27245 79.22484 70.92597 62.40266 43.72827 48.75694 48.75694 48.75694 48.75694 48.75694 48.75694 48.75694 48.77254 48.77535 48.74209 48.64949 48.61881 48.77144 50.02513 51.10525 51.86450 52.24807 52.43154 52.49928 52.54489 52.59714 52.71413 52.87200 52.95530 53.05661 53.23274 53.49126 53.70317 53.79571 53.88946 53.97980 54.30488 55.04536 56.18678 57.37129 58.36123 58.84531 58.51134 57.26122 55.23342 52.77871 50.28256 48.18467 46.79457 46.25518 46.53151 47.40305 48.41690 49.08651 49.03832 48.27307 47.14033 46.16372 45.88500 46.71688 48.92214 52.43019 56.97664 62.10796 67.31418 72.19329 76.44481 79.87328 82.51882 84.48602 85.90511 86.94567 87.75994 88.40438 88.92321 89.35966 89.76143 90.11874 90.52421 90.93575 91.33583 91.78185 92.25862 92.71504 93.11365 93.47924 93.77619 94.10504 94.46051 94.67378 94.79296 94.94220 95.04158 95.09143 95.16517 95.18507 95.12062 95.15156 95.11411 95.15880 95.23562 95.31196 95.66284 95.74157 95.89366 96.13041 96.10746 95.95445 96.11042 96.60663 96.83748 
5 "BN12" 54.41825 71.15740 79.40490 36.65110 40.64797 43.30727 45.46630 45.46630 45.46630 45.46630 45.46630 45.46630 45.46630 45.48213 45.48605 45.45635 45.37131 45.34404 45.48778 47.03361 48.43122 49.52297 50.32492 50.96367 51.45525 51.84137 52.14687 52.47032 52.87117 53.27521 53.67742 54.08942 54.52849 54.97705 55.21566 55.24569 55.14049 55.03936 54.97040 55.04582 55.13969 55.18375 55.08088 54.62780 53.84354 52.65277 51.20687 49.66427 48.23743 47.07989 46.27013 45.79985 45.53215 45.24587 44.71620 43.77896 42.43381 40.82961 39.17612 37.69857 36.57850 35.90203 35.58200 35.48943 35.47885 35.46125 35.43071 35.38234 35.27274 35.07709 34.77318 34.36529 33.91237 33.49326 33.15805 32.94255 32.86197 32.90411 33.04057 33.25119 33.50447 33.80174 34.13138 34.50851 34.98632 35.57107 36.22621 36.91718 37.67392 38.46271 39.16697 39.72394 40.05838 40.22336 40.16884 40.01299 39.74448 39.42737 39.12120 38.65888 38.19875 37.77233 37.33002 36.99390 36.77259 36.78781 37.09492 37.66317 38.44769 39.58646 41.22689 42.93536 
6 "BL5" 45.59701 20.09003 93.74990 23.09784 16.99006 32.29528 46.22203 46.22203 46.22203 46.22203 46.22203 46.22203 46.22203 46.23974 46.24537 46.21682 46.13204 46.10600 46.25384 47.32510 48.00856 48.23372 48.07628 47.65852 46.97969 46.11160 45.05699 43.85315 42.56152 41.23237 39.95202 38.74521 37.44251 35.86526 33.94257 31.83701 29.77268 27.77945 25.97287 24.47780 23.22015 22.04432 20.85483 19.42361 17.80776 16.06023 14.36393 12.91289 11.80122 11.09113 10.76935 10.77586 11.00728 11.28498 11.39812 11.20791 10.73004 10.11526 9.577817 9.289500 9.345379 9.827154 10.75637 12.12514 13.88797 15.92800 18.07451 20.15580 21.97476 23.37670 24.32511 24.87785 25.12614 25.18519 25.18415 25.19219 25.24388 25.37239 25.56842 25.79070 26.03364 26.29924 26.61216 27.00369 27.47521 28.03382 28.66548 29.33047 30.07949 30.90831 31.63650 32.19178 32.57044 32.68100 32.61744 32.40945 32.09149 31.77376 31.42160 30.96955 30.48225 29.93201 29.42818 29.15850 28.85309 28.84035 29.11694 29.64262 30.42571 31.47526 32.87766 34.64591 
7 "Y9" 53.11513 77.96445 20.40589 26.80741 34.78682 9.063198 7.263924 7.263924 7.263924 7.263924 7.263924 7.263924 7.263924 7.264659 7.263467 7.256884 7.241450 7.235216 7.256219 7.197395 7.191129 7.228477 7.284451 7.358438 7.449127 7.552363 7.664574 7.805955 7.980850 8.134313 8.279721 8.483962 8.753607 9.160594 9.728984 10.48357 11.64439 13.36950 15.88772 19.38117 23.80874 28.91831 34.20534 39.01152 42.78596 45.29062 46.60182 47.02968 46.91558 46.55399 46.09893 45.61926 45.11459 44.48735 43.63312 42.48603 41.05369 39.41124 37.69456 36.04806 34.59430 33.43589 32.53360 31.82945 31.25267 30.77877 30.41678 30.13469 29.85532 29.53093 29.14108 28.67785 28.18961 27.73561 27.37315 27.13318 27.02672 27.02876 27.11838 27.28680 27.47021 27.69471 27.97301 28.31572 28.74316 29.23760 29.78464 30.36481 31.01862 31.70076 32.29852 32.80669 33.14980 33.31818 33.35607 33.22783 32.95494 32.65638 32.32496 31.92119 31.53537 31.12571 30.72060 30.45205 30.24072 30.21542 30.47193 30.93764 31.64258 32.76030 34.24394 35.68610 
8 "BT6" 60.40742 60.51423 73.32265 37.10518 37.59025 35.82835 38.63092 38.63092 38.63092 38.63092 38.63092 38.63092 38.63092 38.64415 38.64725 38.62178 38.54929 38.52589 38.64777 39.85642 40.96237 41.83043 42.40795 42.79999 43.06302 43.27097 43.44095 43.63900 43.90795 44.18586 44.48626 44.75200 45.03538 45.32588 45.40852 45.24167 44.94215 44.61640 44.30224 44.11437 43.90142 43.64057 43.34666 42.86330 42.18874 41.29510 40.24073 39.13896 38.16352 37.44541 37.03411 36.93867 37.05438 37.19966 37.16747 36.81348 36.12756 35.23928 34.33909 33.63987 33.30625 33.42803 33.92669 34.67532 35.50554 36.30371 37.03190 37.64227 38.08435 38.34849 38.43430 38.36406 38.21151 38.04617 37.92107 37.86646 37.89157 37.99724 38.17882 38.42816 38.69952 38.99139 39.31879 39.71726 40.15203 40.60418 41.12461 41.67521 42.28310 42.90363 43.43154 43.83304 44.08167 44.22318 44.28675 44.21309 44.06186 43.84146 43.64116 43.35601 43.07836 42.80862 42.55231 42.41337 42.30682 42.47587 42.76052 43.09942 43.65932 44.57871 45.91924 47.02224 
9 "AZ12" 75.56420 7.214466 79.78790 28.19590 16.70820 16.84100 28.80782 28.80782 28.80782 28.80782 28.80782 28.80782 28.80782 28.81836 28.82137 28.80308 28.74973 28.73298 28.82453 28.76011 28.53342 28.11709 27.45282 26.61525 25.70133 24.77138 23.81678 22.80841 21.75393 20.73809 19.79019 18.94896 18.05126 17.00095 15.88442 14.71930 13.60175 12.62099 11.75740 11.01331 10.40045 9.840227 9.274495 8.604431 7.802621 7.004883 6.278577 5.691062 5.287852 5.061678 4.989274 5.047426 5.198244 5.367533 5.470914 5.430986 5.280074 5.096123 4.978172 4.987559 5.185113 5.629856 6.398872 7.606103 9.397683 11.91964 15.24264 19.28266 23.73223 28.17858 32.28553 35.82335 38.71741 41.02187 42.83982 44.27936 45.44108 46.40823 47.24053 47.98661 48.64655 49.23938 49.82260 50.41860 51.04948 51.70256 52.36672 53.00197 53.64566 54.33890 54.95508 55.44505 55.78011 55.99136 56.09560 56.08657 55.94430 55.67917 55.48958 55.22830 54.94135 54.63120 54.37392 54.28161 54.12358 54.24546 54.53762 54.87533 55.45192 56.37627 57.64176 58.87883 
10 "AI2" 98.42527 98.42527 98.42527 85.52508 88.61876 75.40474 78.56277 78.56277 78.56277 78.56277 78.56277 78.56277 78.56277 78.58885 78.59434 78.54173 78.39349 78.34506 78.59211 81.96793 84.75911 86.86368 88.15344 88.87790 89.28573 89.63835 90.04503 90.61772 91.43547 92.35320 93.29801 94.31875 95.49212 96.67614 97.39669 97.59391 97.26002 96.42582 95.35528 94.23317 93.20740 92.33596 91.66202 91.12112 90.75666 90.44382 90.15762 89.83915 89.50808 89.19248 88.94124 88.70026 88.50902 88.36949 88.27058 88.14181 87.96964 87.75034 87.47339 87.19085 86.95996 86.88561 86.90998 86.96669 86.99986 87.00315 87.05745 87.18404 87.32821 87.47013 87.57937 87.66485 87.73306 87.83926 87.97789 88.13106 88.29226 88.47081 88.69601 89.00684 89.34770 89.69220 90.09720 90.55417 90.98534 91.36645 91.71823 92.06786 92.45239 92.83801 93.09785 93.21662 93.34936 93.44039 93.46545 93.46784 93.45007 93.35229 93.37531 93.34749 93.35870 93.40668 93.50918 93.79082 93.89145 94.10706 94.29690 94.24918 94.13756 94.33459 94.73538 95.08654 
11 "AQ13" 97.63790 97.63790 97.63790 84.49727 87.54721 74.44514 77.63741 77.63741 77.63741 77.63741 77.63741 77.63741 77.63741 77.66319 77.66862 77.61663 77.47013 77.42228 77.66643 81.02306 83.76756 85.84263 87.15496 87.86416 88.20674 88.47796 88.80809 89.33016 90.14585 91.11057 92.07300 93.07195 94.22496 95.39231 96.14164 96.39076 96.08618 95.21154 94.17472 93.13204 92.09692 91.28172 90.60916 90.09238 89.71976 89.38327 89.08243 88.76095 88.41120 88.09953 87.84036 87.59996 87.41858 87.29025 87.19431 87.06871 86.89529 86.66558 86.37862 86.08229 85.82799 85.76365 85.81261 85.89506 85.94116 85.96152 86.02746 86.16791 86.32594 86.46929 86.57842 86.65666 86.72497 86.81459 86.94419 87.08804 87.24283 87.41041 87.64707 87.95894 88.30204 88.64084 89.02787 89.47764 89.91068 90.30628 90.67225 90.99076 91.35550 91.76329 92.01878 92.12642 92.30073 92.38187 92.44157 92.50086 92.46268 92.38076 92.36538 92.25703 92.27381 92.35249 92.45027 92.73599 92.76279 92.98626 93.18017 93.19783 93.11886 93.34048 93.89447 94.18357 
12 "M13" 96.85054 96.85054 96.85054 83.49743 86.52317 73.37493 76.33972 76.33972 76.33972 76.33972 76.33972 76.33972 76.33972 76.36504 76.37035 76.31919 76.17511 76.12802 76.36805 79.66678 82.39264 84.43781 85.74147 86.50135 86.92897 87.28708 87.67462 88.19781 88.96788 89.88517 90.80194 91.73690 92.81506 93.94034 94.65192 94.84810 94.55969 93.89717 92.87011 91.77205 90.82409 90.08773 89.48735 89.02297 88.68685 88.35118 88.04861 87.72884 87.37583 87.05001 86.78667 86.56127 86.40535 86.28938 86.19335 86.06791 85.88553 85.64260 85.34760 85.04736 84.80692 84.75168 84.81155 84.91847 84.98801 85.02156 85.09441 85.22690 85.37302 85.50925 85.61156 85.67761 85.74061 85.82052 85.93492 86.07778 86.22894 86.39279 86.62841 86.94304 87.26563 87.60844 88.00884 88.45751 88.88598 89.28645 89.66573 90.01611 90.39141 90.78721 91.04812 91.18058 91.30086 91.41362 91.43581 91.45916 91.42742 91.35700 91.35005 91.27370 91.30435 91.32596 91.37574 91.65886 91.69731 91.89629 92.10710 92.08076 92.07937 92.33291 92.93316 93.18426 
13 "Y2" 96.06317 96.06317 96.06317 82.50554 85.43782 72.31772 74.96626 74.96626 74.96626 74.96626 74.96626 74.96626 74.96626 74.99108 74.99626 74.94598 74.80446 74.75818 74.99385 78.26205 80.95366 83.01828 84.35924 85.14113 85.58655 85.97123 86.40757 86.97983 87.76223 88.65903 89.55995 90.51557 91.61715 92.70149 93.37162 93.56452 93.22888 92.53699 91.56208 90.53397 89.60930 88.87755 88.26368 87.81185 87.49014 87.17720 86.87435 86.51665 86.15680 85.83823 85.59006 85.37845 85.23366 85.13168 85.05338 84.93976 84.75551 84.50385 84.20721 83.90054 83.66864 83.63528 83.71325 83.84133 83.93409 83.98482 84.08379 84.24441 84.41480 84.56509 84.66604 84.72623 84.79475 84.87835 84.99434 85.13358 85.26699 85.44837 85.70361 86.01987 86.34979 86.70722 87.11295 87.56041 88.00464 88.40678 88.78854 89.12641 89.49924 89.93335 90.19052 90.35294 90.49178 90.58158 90.61499 90.66425 90.61883 90.49016 90.47122 90.39313 90.41048 90.46016 90.53702 90.90602 90.90602 91.09687 91.32793 91.27295 91.19689 91.51858 92.07481 92.42129 
14 "AO3" 95.27581 95.27581 95.27581 81.41051 84.30235 71.22016 74.12871 74.12871 74.12871 74.12871 74.12871 74.12871 74.12871 74.15328 74.15842 74.10872 73.96880 73.92305 74.15611 77.28979 79.88058 81.84242 83.10073 83.83209 84.22991 84.57597 84.98918 85.53425 86.29751 87.20225 88.10943 89.04805 90.09190 91.18652 91.97968 92.27724 91.99386 91.24788 90.30325 89.34386 88.42927 87.68337 87.14116 86.67905 86.34268 86.02474 85.71000 85.35455 84.99706 84.66912 84.42117 84.22248 84.09163 83.99974 83.92371 83.79847 83.61676 83.35696 83.04513 82.73567 82.51115 82.47423 82.57658 82.72056 82.82008 82.88687 82.99506 83.15813 83.32562 83.46830 83.57685 83.64316 83.70123 83.77833 83.88876 84.02907 84.16294 84.35136 84.60503 84.92901 85.27209 85.62167 86.01800 86.46904 86.90486 87.31946 87.70493 88.06771 88.47613 88.89225 89.16404 89.32846 89.42985 89.50015 89.58697 89.60152 89.62307 89.61007 89.62351 89.49615 89.47074 89.48037 89.50083 89.81885 89.88549 90.15456 90.46397 90.44361 90.28708 90.53914 91.14417 91.41206 
15 "O10" 94.48844 94.48844 94.48844 80.46017 83.33494 70.20834 73.24307 73.24307 73.24307 73.24307 73.24307 73.24307 73.24307 73.26734 73.27242 73.22332 73.08507 73.03987 73.27014 76.34729 78.89993 80.82455 82.03474 82.70888 83.06453 83.36495 83.71482 84.20059 84.91890 85.80968 86.74176 87.70230 88.77470 89.86770 90.56939 90.80335 90.58058 89.99876 89.13261 88.24443 87.39014 86.71219 86.20544 85.78555 85.44479 85.10214 84.77923 84.43206 84.05098 83.70931 83.44161 83.25942 83.13393 83.04166 82.96043 82.83043 82.62696 82.34559 82.02468 81.71474 81.49137 81.47777 81.59629 81.75912 81.88466 81.97878 82.10121 82.26518 82.44096 82.58688 82.68740 82.75439 82.80056 82.87000 82.97366 83.08829 83.21356 83.39866 83.65333 83.96481 84.29574 84.64799 85.03001 85.46552 85.90431 86.32859 86.71753 87.08315 87.47639 87.91826 88.21271 88.37288 88.48906 88.52853 88.59380 88.66216 88.64114 88.56169 88.55477 88.45655 88.44353 88.49863 88.58197 88.84354 88.91467 89.06078 89.25429 89.27875 89.29856 89.58640 90.18492 90.47838 
16 "D5" 93.70108 93.70108 93.70108 79.89541 82.69784 69.51161 72.09518 72.09518 72.09518 72.09518 72.09518 72.09518 72.09518 72.11902 72.12396 72.07558 71.93944 71.89490 72.12150 75.14222 77.59856 79.47133 80.70432 81.48092 81.99674 82.48367 83.00033 83.59951 84.38108 85.25517 86.09063 86.97583 88.04698 89.12267 89.79908 90.03698 89.80431 89.18713 88.32430 87.36371 86.50479 85.82559 85.38954 85.02132 84.70625 84.33914 83.99518 83.65421 83.29788 82.93341 82.66534 82.50731 82.41174 82.34857 82.28922 82.16174 81.96036 81.68595 81.35554 81.04142 80.83468 80.83190 80.95759 81.14222 81.29364 81.40990 81.53788 81.71401 81.89629 82.05127 82.15373 82.22284 82.28261 82.34865 82.45254 82.56183 82.69723 82.90535 83.16339 83.47866 83.82056 84.18690 84.59158 85.02429 85.46493 85.88434 86.30289 86.72008 87.13525 87.54790 87.84966 88.02027 88.14531 88.19256 88.29196 88.34116 88.30963 88.22481 88.16211 88.11046 88.14885 88.19011 88.29426 88.51563 88.60849 88.80447 88.97911 89.10140 89.20146 89.47879 89.93296 90.41447 
17 "B12" 92.91371 92.91371 92.91371 78.53940 81.31897 68.18846 70.99790 70.99790 70.99790 70.99790 70.99790 70.99790 70.99790 71.02139 71.02628 70.97864 70.84459 70.80074 71.02392 73.96315 76.36147 78.14819 79.30492 80.02302 80.46234 80.84900 81.26160 81.79333 82.55645 83.43125 84.34575 85.28999 86.27433 87.32107 88.07086 88.30726 88.12500 87.61238 86.74199 85.86271 85.03438 84.44871 84.07049 83.70456 83.37068 83.02245 82.66737 82.31425 81.94159 81.56678 81.29425 81.15103 81.06610 81.00252 80.93250 80.80507 80.58859 80.29966 79.96496 79.64979 79.44219 79.44395 79.57042 79.75598 79.92574 80.06323 80.20379 80.37659 80.55271 80.69927 80.79589 80.86654 80.93058 80.99593 81.07964 81.16479 81.29861 81.50576 81.77047 82.08795 82.41282 82.77635 83.18232 83.60644 84.06362 84.52755 84.93624 85.31824 85.75084 86.17257 86.50039 86.69705 86.79529 86.80950 86.89944 86.94742 86.93798 86.82404 86.77542 86.75714 86.77039 86.84431 86.94997 87.14419 87.22068 87.37148 87.61218 87.77843 87.86211 88.07343 88.49739 88.83706 
18 "AK7" 92.12634 92.12634 92.12634 77.07166 79.80253 66.63458 69.43909 69.43909 69.43909 69.43909 69.43909 69.43909 69.43909 69.46205 69.46681 69.42020 69.28908 69.24617 69.46443 72.30258 74.65439 76.44072 77.59771 78.28002 78.67286 79.02103 79.39459 79.88942 80.63311 81.48614 82.32247 83.18803 84.19295 85.25033 85.93874 86.21576 86.05153 85.48698 84.76659 84.07014 83.38424 82.78815 82.46602 82.13440 81.84125 81.50909 81.15137 80.77000 80.38475 80.03287 79.77029 79.62914 79.55476 79.50963 79.45267 79.31774 79.08824 78.77997 78.42018 78.09311 77.87739 77.88439 78.03853 78.25857 78.44917 78.59153 78.75167 78.95149 79.14599 79.30667 79.40259 79.45644 79.49671 79.52967 79.58961 79.70463 79.86821 80.07267 80.33135 80.63574 80.97037 81.33012 81.72196 82.15956 82.61690 83.04583 83.45559 83.84081 84.26309 84.70072 85.00354 85.19664 85.35107 85.40170 85.45406 85.49626 85.50067 85.42201 85.40785 85.29869 85.22975 85.24855 85.36002 85.63572 85.70670 85.93829 86.15410 86.21851 86.21168 86.53028 87.14855 87.59536 
19 "BR11" 91.33898 91.33898 91.33898 75.70221 78.42301 65.24085 68.25997 68.25997 68.25997 68.25997 68.25997 68.25997 68.25997 68.28255 68.28724 68.24143 68.11254 68.07037 68.28493 71.04020 73.33254 75.07309 76.18343 76.78616 77.06440 77.29067 77.55811 77.97538 78.70829 79.59398 80.42720 81.28206 82.29433 83.38647 84.10487 84.34294 84.22714 83.81396 83.16990 82.57283 81.94889 81.46977 81.17695 80.86171 80.56202 80.21746 79.85720 79.46665 79.03557 78.67235 78.41050 78.26325 78.18337 78.14869 78.10023 77.95689 77.72113 77.39517 77.02500 76.68705 76.45903 76.47547 76.65073 76.88450 77.09012 77.24979 77.43217 77.64236 77.83267 77.98252 78.07911 78.09762 78.09298 78.12911 78.21448 78.33378 78.48358 78.68475 78.93132 79.24321 79.57458 79.92186 80.31924 80.74915 81.21360 81.65256 82.05376 82.42107 82.84177 83.29562 83.59280 83.76542 83.91969 84.01585 84.08349 84.14087 84.10468 83.99823 83.98450 83.85892 83.84379 83.83287 83.81400 84.08841 84.07553 84.35060 84.67012 84.75860 84.72337 84.99048 85.62445 86.18387 
20 "CD6" 90.55161 90.55161 90.55161 74.65914 77.33768 64.01801 67.15189 67.15189 67.15189 67.15189 67.15189 67.15189 67.15189 67.17409 67.17870 67.13363 67.00683 66.96534 67.17639 69.80906 71.98140 73.64085 74.67757 75.24155 75.50745 75.73131 75.99603 76.40804 77.14324 77.99781 78.83335 79.74163 80.67392 81.73356 82.51218 82.80561 82.78420 82.41806 81.81784 81.27651 80.75225 80.29740 80.03677 79.74684 79.47563 79.13769 78.77034 78.34061 77.91017 77.53367 77.26355 77.13950 77.08946 77.05645 77.01013 76.87149 76.61539 76.27154 75.88078 75.53304 75.31555 75.33755 75.52530 75.79483 76.03538 76.20869 76.40276 76.63712 76.84449 76.98870 77.06210 77.09213 77.11684 77.15639 77.24444 77.37200 77.51594 77.70655 77.95343 78.27744 78.62348 78.97337 79.37124 79.81714 80.25834 80.67224 81.07927 81.46055 81.90304 82.37285 82.70543 82.88472 82.99682 83.07631 83.15865 83.23608 83.28138 83.17990 83.11387 82.95040 82.93813 82.93509 83.03027 83.27334 83.25429 83.55787 83.87029 83.95831 83.98265 84.40696 85.10499 85.55227 
21 "CF11" 89.76425 89.76425 89.76425 73.35369 76.02337 62.68484 65.78109 65.78109 65.78109 65.78109 65.78109 65.78109 65.78109 65.80283 65.80732 65.76316 65.63893 65.59827 65.80500 68.36778 70.46205 72.06468 73.08600 73.62691 73.86676 74.05856 74.28850 74.68308 75.40399 76.25712 77.12950 78.05861 79.01114 80.09557 80.84494 81.06444 81.06707 80.81604 80.35040 79.85989 79.37665 79.00019 78.77009 78.51097 78.24300 77.89655 77.50640 77.06749 76.62166 76.24358 75.97930 75.82615 75.78916 75.77500 75.73161 75.58891 75.32585 74.96348 74.56281 74.19704 73.96434 73.99842 74.20558 74.47993 74.72767 74.92045 75.12666 75.34822 75.53579 75.68319 75.77252 75.80448 75.81832 75.86209 75.94191 76.04636 76.18802 76.38469 76.63213 76.95867 77.29975 77.64560 78.03796 78.47676 78.93349 79.37239 79.78232 80.18101 80.62782 81.09071 81.41920 81.59413 81.69025 81.78836 81.89474 81.96076 81.97940 81.89649 81.81903 81.62492 81.57560 81.61032 81.69056 82.00059 81.93507 82.23094 82.61601 82.65045 82.76976 83.16143 83.78213 84.27631 
22 "D13" 88.97688 88.97688 88.97688 72.24965 74.87132 61.38677 63.69399 63.69399 63.69399 63.69399 63.69399 63.69399 63.69399 63.71494 63.71919 63.67633 63.55594 63.51646 63.71653 66.27450 68.35348 69.92791 70.98532 71.66786 72.13220 72.57194 73.02005 73.55132 74.27712 75.01995 75.72891 76.58556 77.54068 78.47940 79.12061 79.44492 79.42164 79.12677 78.62882 78.12440 77.73540 77.48421 77.34891 77.17169 76.94873 76.60484 76.23365 75.82510 75.40025 75.01420 74.74953 74.62053 74.61895 74.62173 74.60174 74.46557 74.19744 73.83028 73.41682 73.05499 72.84656 72.89448 73.11205 73.40441 73.67133 73.88888 74.08811 74.29123 74.46196 74.60870 74.70246 74.74119 74.76432 74.79894 74.85848 74.96153 75.11174 75.31472 75.56695 75.87564 76.21549 76.57295 76.97000 77.41398 77.87938 78.32661 78.77327 79.21127 79.66919 80.13486 80.47885 80.68119 80.78145 80.86772 80.98209 81.02538 80.97100 80.87963 80.83747 80.76916 80.75300 80.74519 80.78764 80.98332 81.03094 81.25219 81.50798 81.66665 81.87201 82.29560 82.89154 83.44449 
