Epson_XP-960/PermaJet/Matt_Plus_240/PermaJet_Matt_Plus_240_XP-960.ti3
CTI3   

DESCRIPTOR "Argyll Calibration Target chart information 3"
ORIGINATOR "Argyll chartread"
CREATED "Sat Sep 15 00:07:22 2018"
DEVICE_CLASS "OUTPUT"
COMP_GREY_STEPS "8"
COLOR_REP "iRGB_XYZ"
TARGET_INSTRUMENT "X-Rite ColorMunki"
DEVCALSTD "XRGA"
SPECTRAL_BANDS "106"
SPECTRAL_START_NM "380.000000"
SPECTRAL_END_NM "730.000000"

NUMBER_OF_FIELDS 114
BEGIN_DATA_FORMAT
SAMPLE_ID SAMPLE_LOC RGB_R RGB_G RGB_B XYZ_X XYZ_Y XYZ_Z SPEC_380 SPEC_383 SPEC_387 SPEC_390 SPEC_393 SPEC_397 SPEC_400 SPEC_403 SPEC_407 SPEC_410 SPEC_413 SPEC_417 SPEC_420 SPEC_423 SPEC_427 SPEC_430 SPEC_433 SPEC_437 SPEC_440 SPEC_443 SPEC_447 SPEC_450 SPEC_453 SPEC_457 SPEC_460 SPEC_463 SPEC_467 SPEC_470 SPEC_473 SPEC_477 SPEC_480 SPEC_483 SPEC_487 SPEC_490 SPEC_493 SPEC_497 SPEC_500 SPEC_503 SPEC_507 SPEC_510 SPEC_513 SPEC_517 SPEC_520 SPEC_523 SPEC_527 SPEC_530 SPEC_533 SPEC_537 SPEC_540 SPEC_543 SPEC_547 SPEC_550 SPEC_553 SPEC_557 SPEC_560 SPEC_563 SPEC_567 SPEC_570 SPEC_573 SPEC_577 SPEC_580 SPEC_583 SPEC_587 SPEC_590 SPEC_593 SPEC_597 SPEC_600 SPEC_603 SPEC_607 SPEC_610 SPEC_613 SPEC_617 SPEC_620 SPEC_623 SPEC_627 SPEC_630 SPEC_633 SPEC_637 SPEC_640 SPEC_643 SPEC_647 SPEC_650 SPEC_653 SPEC_657 SPEC_660 SPEC_663 SPEC_667 SPEC_670 SPEC_673 SPEC_677 SPEC_680 SPEC_683 SPEC_687 SPEC_690 SPEC_693 SPEC_697 SPEC_700 SPEC_703 SPEC_707 SPEC_710 SPEC_713 SPEC_717 SPEC_720 SPEC_723 SPEC_727 SPEC_730 
END_DATA_FORMAT

NUMBER_OF_SETS 210
BEGIN_DATA
1 "N2" 100.0000 100.0000 100.0000 86.12754 89.43681 75.40542 79.60037 79.60037 79.60037 79.60037 79.60037 79.60037 79.60037 79.62685 79.63248 79.57922 79.42908 79.38007 79.63043 82.83850 85.49332 87.43908 88.58580 89.23530 89.60378 89.91729 90.28521 90.79363 91.49399 92.31125 93.11426 93.96028 94.91575 95.82432 96.50789 96.78637 96.60774 96.09430 94.96818 93.85613 92.92084 92.14785 91.64322 91.24995 90.95031 90.72883 90.56159 90.37278 90.17308 89.93730 89.74957 89.56036 89.43248 89.34121 89.25899 89.16538 89.07918 88.94648 88.73650 88.51953 88.36095 88.32169 88.32970 88.36743 88.34108 88.29847 88.28971 88.33733 88.41918 88.50011 88.57016 88.61025 88.65461 88.71891 88.80873 88.89302 88.98529 89.10732 89.24872 89.43572 89.60452 89.79862 90.03542 90.28288 90.53525 90.73916 90.95481 91.16817 91.37301 91.60137 91.77955 91.80412 91.79409 91.79824 91.79163 91.68794 91.62162 91.63831 91.61583 91.55683 91.61420 91.73972 91.70744 91.77355 91.85821 91.86193 91.76049 91.77510 91.99630 91.92136 92.24021 92.56087 
2 "N15" 0.00000 31.54498 19.63836 3.322034 4.155431 3.906335 4.606699 4.606699 4.606699 4.606699 4.606699 4.606699 4.606699 4.608303 4.608700 4.605690 4.597073 4.594309 4.608857 4.548257 4.516339 4.486465 4.453764 4.426377 4.403014 4.388814 4.376444 4.374075 4.398757 4.444124 4.505002 4.513219 4.539531 4.628962 4.649146 4.773710 5.025101 5.258762 5.529558 5.907838 6.319827 6.691410 6.962062 7.074249 7.073245 6.956451 6.788176 6.593344 6.410299 6.229576 6.062949 5.892717 5.690113 5.443618 5.156876 4.834549 4.499715 4.174701 3.858354 3.569305 3.327443 3.126527 2.962255 2.826851 2.714870 2.624052 2.557047 2.504217 2.469437 2.455598 2.448818 2.455167 2.473142 2.499160 2.537898 2.591362 2.670065 2.763373 2.872589 3.007885 3.152547 3.314599 3.499365 3.695069 3.904016 4.131934 4.378619 4.623585 4.880083 5.152193 5.452258 5.753448 6.087790 6.461482 6.892316 7.350742 7.866207 8.469533 9.148526 9.967254 10.85843 11.81513 12.86801 14.06032 15.30892 16.58065 17.89879 19.34935 20.89389 22.39074 24.00045 25.53931 
3 "J1" 0.00000 19.55749 34.53422 3.558740 3.763161 4.999549 6.498374 6.498374 6.498374 6.498374 6.498374 6.498374 6.498374 6.500774 6.501473 6.497368 6.485355 6.481600 6.502273 6.457669 6.440444 6.421204 6.372903 6.318907 6.266808 6.220142 6.176715 6.140431 6.110546 6.065317 6.015082 5.951750 5.843913 5.755671 5.687135 5.644237 5.709150 5.814860 5.935225 6.105688 6.278149 6.328388 6.280577 6.141222 5.904395 5.654207 5.382160 5.140266 4.956286 4.805610 4.691876 4.578060 4.454925 4.309134 4.129660 3.921130 3.696051 3.469121 3.259184 3.079920 2.929470 2.810863 2.724029 2.653591 2.609573 2.573896 2.549810 2.539803 2.541924 2.556913 2.573299 2.594224 2.625014 2.669514 2.725803 2.803466 2.897892 3.017524 3.155510 3.310302 3.477011 3.673324 3.906536 4.150248 4.396247 4.669951 4.955545 5.254555 5.556030 5.859761 6.178392 6.482670 6.822632 7.245491 7.677566 8.173846 8.709609 9.324352 10.04355 10.83913 11.75917 12.77716 13.89626 15.07664 16.31924 17.61835 18.88880 20.24769 21.78606 23.23977 24.77988 26.21323 
4 "G2" 58.59770 86.10971 69.36141 31.42406 40.93562 28.57568 29.27888 29.27888 29.27888 29.27888 29.27888 29.27888 29.27888 29.28814 29.28972 29.26964 29.21392 29.19538 29.28689 29.67656 30.06250 30.35106 30.46200 30.51250 30.57473 30.69693 30.88097 31.13303 31.51281 32.02632 32.61875 33.29514 34.02233 34.84770 35.81787 37.02798 38.53502 40.50884 42.90572 45.65493 48.57557 51.39068 54.00070 56.14914 57.76300 58.78123 59.30071 59.41987 59.25536 58.79620 58.09040 57.14851 55.96324 54.50937 52.79631 50.85697 48.75251 46.51740 44.19058 41.84974 39.54232 37.31824 35.19691 33.20494 31.35935 29.71848 28.31973 27.18829 26.30599 25.64360 25.18171 24.89783 24.79172 24.86555 25.11257 25.53139 26.12230 26.88994 27.82313 28.88978 30.06662 31.33659 32.66349 34.01620 35.40801 36.80160 38.17083 39.49618 40.79411 42.04459 43.20588 44.30002 45.36992 46.49758 47.65616 48.84511 50.09387 51.47857 52.95101 54.45031 56.06549 57.74281 59.39711 61.03065 62.69945 64.26504 65.61733 67.01680 68.44302 69.61807 70.92252 72.15477 
5 "J6" 36.31952 9.677272 36.17609 8.024143 6.048016 5.017536 7.153051 7.153051 7.153051 7.153051 7.153051 7.153051 7.153051 7.155503 7.156081 7.151368 7.137949 7.133617 7.156164 7.044594 6.964771 6.879281 6.767915 6.650314 6.533594 6.428504 6.331059 6.241215 6.155281 6.058425 5.960069 5.852328 5.709371 5.533400 5.379533 5.353437 5.388706 5.463783 5.569484 5.683769 5.780942 5.801710 5.714815 5.535501 5.265230 5.007417 4.752216 4.550943 4.422322 4.347231 4.314629 4.300445 4.293292 4.270001 4.213828 4.125951 4.014660 3.902705 3.808648 3.750393 3.751980 3.825039 3.979706 4.208638 4.510015 4.864843 5.268847 5.704467 6.156694 6.612834 7.058038 7.491022 7.921569 8.352208 8.792087 9.266930 9.772537 10.33659 10.95621 11.62783 12.35924 13.15120 14.00153 14.89776 15.79635 16.70821 17.62295 18.52659 19.40796 20.24826 21.08564 21.87015 22.66720 23.55672 24.52458 25.60888 26.74120 28.00250 29.41696 30.92237 32.58969 34.41027 36.27679 38.17272 40.03831 41.97786 43.82777 45.70794 47.72547 49.55642 51.47072 53.17532 
6 "N9" 100.0000 100.0000 100.0000 85.95777 89.29996 75.06411 79.46405 79.46405 79.46405 79.46405 79.46405 79.46405 79.46405 79.49049 79.49611 79.44295 79.29308 79.24415 79.49409 82.65628 85.25451 87.14166 88.24147 88.84296 89.16719 89.44924 89.79007 90.27766 90.95893 91.75425 92.55930 93.41978 94.37677 95.28365 96.01202 96.35451 96.22619 95.76473 94.72185 93.65373 92.73708 92.01850 91.53772 91.13787 90.83122 90.60692 90.44211 90.24982 90.05701 89.82464 89.63783 89.44854 89.32167 89.23080 89.14585 89.05012 88.96182 88.83061 88.62060 88.40038 88.23723 88.19680 88.20817 88.24234 88.21356 88.16623 88.15709 88.20770 88.29092 88.37229 88.44544 88.48678 88.52586 88.58196 88.66381 88.75005 88.84334 88.97082 89.10177 89.28029 89.45091 89.64619 89.88456 90.13037 90.37622 90.58954 90.79978 91.00813 91.22897 91.45780 91.62350 91.63995 91.64222 91.66114 91.66194 91.55752 91.46356 91.47371 91.44841 91.40692 91.46590 91.58666 91.56268 91.62223 91.73259 91.78232 91.69199 91.70663 91.92125 91.82050 92.09944 92.39181 
7 "B10" 70.64317 82.40940 93.62173 45.96654 49.63496 58.32286 64.66726 64.66726 64.66726 64.66726 64.66726 64.66726 64.66726 64.69029 64.69640 64.65469 64.53427 64.49604 64.70106 67.14116 69.09405 70.46261 71.25490 71.66751 71.84503 71.97911 72.09253 72.21906 72.40478 72.52381 72.56659 72.66173 72.72454 72.63132 72.31613 71.73436 71.00991 70.21036 69.17807 68.14803 67.14385 66.13162 65.15795 64.16294 63.09136 62.02224 61.06051 60.23272 59.51639 58.85571 58.22365 57.54114 56.74964 55.80348 54.68088 53.40190 52.02191 50.58949 49.14105 47.73072 46.37079 45.09893 43.88298 42.70385 41.55816 40.51018 39.60344 38.87543 38.33587 37.96356 37.74036 37.66945 37.75511 38.00753 38.42269 39.00423 39.75813 40.68502 41.76816 42.99339 44.30815 45.68767 47.12215 48.58319 50.03859 51.46780 52.85407 54.17942 55.42186 56.60205 57.71995 58.71477 59.63274 60.55974 61.55247 62.54368 63.57323 64.68628 65.86422 67.09777 68.42075 69.74020 71.01303 72.28631 73.53047 74.68382 75.71131 76.71590 77.70373 78.42541 79.36369 80.36549 
8 "E5" 81.60983 36.98939 30.78050 31.92919 23.51064 6.350773 7.448281 7.448281 7.448281 7.448281 7.448281 7.448281 7.448281 7.449524 7.448801 7.442554 7.427234 7.421354 7.443415 7.305839 7.201846 7.101302 6.998561 6.910396 6.848135 6.813821 6.800221 6.814200 6.851219 6.908203 6.995646 7.091339 7.182507 7.272245 7.420148 7.675285 8.053480 8.642410 9.436320 10.33562 11.24507 12.11153 12.81689 13.25875 13.43878 13.44892 13.38508 13.32505 13.33100 13.40812 13.54563 13.71241 13.84323 13.89685 13.86514 13.76352 13.65767 13.61164 13.70015 13.98670 14.51847 15.34689 16.48540 17.95155 19.72566 21.77837 24.10008 26.67042 29.42561 32.27405 35.12232 37.87741 40.47272 42.87758 45.08587 47.10458 48.96422 50.72485 52.41161 54.04419 55.61265 57.14406 58.63913 60.09668 61.48898 62.78643 63.99861 65.11612 66.14109 67.08067 67.89401 68.62003 69.37403 70.22224 71.13173 71.98778 72.84894 73.76098 74.75531 75.74944 76.83952 78.03956 79.17896 80.24872 81.34589 82.36740 83.23013 84.10248 84.94278 85.46413 86.32002 87.21746 
9 "C6" 10.43259 50.62333 61.71969 6.788184 8.957863 13.01097 14.71652 14.71652 14.71652 14.71652 14.71652 14.71652 14.71652 14.72194 14.72351 14.71420 14.68698 14.67846 14.72528 14.86420 15.03531 15.17301 15.23634 15.28253 15.31828 15.34547 15.37236 15.41947 15.49648 15.57984 15.65267 15.73088 15.79084 15.83046 15.93093 16.10308 16.37355 16.81414 17.46024 18.14003 18.71004 19.03699 19.07805 18.78664 18.24714 17.57269 16.85832 16.16432 15.53705 14.95208 14.37528 13.76446 13.07842 12.30381 11.45037 10.55000 9.647019 8.778992 7.969693 7.234416 6.579036 6.008446 5.508232 5.072710 4.705890 4.405439 4.164714 3.977602 3.845014 3.760703 3.713801 3.697151 3.706096 3.745799 3.813778 3.918366 4.055404 4.232863 4.452739 4.716469 5.018085 5.357003 5.732142 6.140379 6.577613 7.027776 7.494311 7.988305 8.478686 8.958200 9.444737 9.932275 10.39569 10.90672 11.47645 12.09589 12.79102 13.58261 14.48863 15.50241 16.63279 17.83945 19.13938 20.47514 21.93298 23.45743 24.97561 26.54907 28.21541 29.76960 31.39818 33.07892 
10 "C10" 93.49660 21.73190 61.04677 37.15349 22.52095 11.18432 16.61639 16.61639 16.61639 16.61639 16.61639 16.61639 16.61639 16.62135 16.62196 16.61027 16.57836 16.56753 16.61914 16.53476 16.41382 16.21503 15.91493 15.58542 15.25788 14.94074 14.63299 14.33835 14.04814 13.72906 13.37571 13.03837 12.67948 12.24544 11.77137 11.34121 11.07347 10.93761 10.88951 10.86406 10.77994 10.57000 10.24524 9.795109 9.286429 8.785299 8.347606 8.027838 7.831314 7.743986 7.750071 7.818108 7.888222 7.929378 7.922166 7.877276 7.812279 7.778411 7.819262 7.988357 8.360308 8.997321 9.976090 11.37471 13.24659 15.65313 18.64598 22.24128 26.40572 31.08033 36.13519 41.39923 46.68065 51.77524 56.50186 60.75020 64.46956 67.68165 70.42938 72.76914 74.74050 76.43205 77.91151 79.19006 80.31322 81.27674 82.10418 82.84174 83.49647 84.07264 84.56499 84.95389 85.29992 85.64351 86.11776 86.53031 86.89172 87.28965 87.69924 88.09741 88.57544 89.12204 89.64061 90.11504 90.58684 91.01464 91.37854 91.80811 92.25474 92.44719 92.81301 93.15123 
11 "A4" 14.28550 14.28550 14.28550 3.364996 3.388692 2.903106 3.806900 3.806900 3.806900 3.806900 3.806900 3.806900 3.806900 3.808212 3.808527 3.806027 3.798892 3.796595 3.808601 3.725756 3.681070 3.644542 3.592898 3.541200 3.499478 3.467409 3.440851 3.417167 3.405164 3.385678 3.344171 3.328614 3.345271 3.353934 3.366707 3.385280 3.360049 3.504205 3.704529 3.891138 4.051022 4.170713 4.252691 4.268334 4.205133 4.103897 4.004582 3.914816 3.844515 3.792430 3.743486 3.706563 3.665021 3.598844 3.507583 3.396274 3.267564 3.134223 3.010445 2.904809 2.818646 2.763323 2.734569 2.728203 2.731118 2.742843 2.762460 2.787878 2.814639 2.841464 2.876431 2.911730 2.952044 3.007878 3.079733 3.159656 3.255560 3.378667 3.513943 3.672363 3.846254 4.037388 4.241285 4.454586 4.693321 4.939783 5.200951 5.485026 5.800289 6.144645 6.531212 6.936993 7.392247 7.924099 8.550690 9.253567 10.08834 11.07738 12.15182 13.39724 14.80108 16.32874 18.01036 19.82210 21.77606 23.83620 25.89852 27.95011 30.09987 32.30290 34.44781 36.55153 
12 "J4" 71.42901 71.42901 71.42901 38.79085 40.18758 29.07795 32.63707 32.63707 32.63707 32.63707 32.63707 32.63707 32.63707 32.64767 32.64971 32.62760 32.56577 32.54539 32.64770 33.17530 33.63064 33.89879 33.93613 33.88766 33.83258 33.82169 33.85717 33.94170 34.09375 34.29140 34.50530 34.76295 35.03267 35.28659 35.55519 35.95259 36.53193 37.40256 38.44677 39.66921 40.94877 42.08261 42.99685 43.56049 43.77565 43.78562 43.61212 43.40792 43.25002 43.10433 42.98082 42.79965 42.51385 42.06720 41.43587 40.65957 39.82347 38.98946 38.21781 37.57688 37.08357 36.74995 36.53073 36.38505 36.27306 36.20835 36.22540 36.34599 36.54847 36.82160 37.15513 37.52744 37.96553 38.49455 39.12135 39.86114 40.71414 41.70815 42.83267 44.05357 45.34212 46.69303 48.10261 49.52624 50.92663 52.28659 53.60946 54.88503 56.05122 57.13253 58.18665 59.11966 60.01515 60.98139 62.00074 63.01300 64.02740 65.12390 66.31809 67.51607 68.80003 70.12805 71.43819 72.71007 73.89254 75.01291 75.98713 76.95778 78.07852 78.89927 79.85166 80.59859 
13 "L1" 0.00000 57.14656 27.48608 4.669122 7.594022 6.108909 6.100297 6.100297 6.100297 6.100297 6.100297 6.100297 6.100297 6.102296 6.102694 6.098580 6.087040 6.083248 6.102378 6.025115 6.033880 6.066555 6.073825 6.079925 6.098313 6.132844 6.190491 6.273771 6.388177 6.535896 6.698315 6.879219 7.032117 7.166835 7.431474 7.842695 8.406229 9.083052 9.943985 11.10835 12.44774 13.72650 14.87193 15.70608 16.17956 16.32428 16.17732 15.81530 15.32935 14.76126 14.12323 13.40012 12.58655 11.69029 10.72043 9.724591 8.737717 7.790354 6.925951 6.153299 5.481390 4.915565 4.444021 4.047612 3.718072 3.459598 3.261240 3.114934 3.009904 2.941789 2.897547 2.871357 2.870364 2.897034 2.939557 3.006343 3.100545 3.216720 3.370467 3.536418 3.730307 3.956144 4.196417 4.474102 4.759918 5.055075 5.381428 5.713969 6.041823 6.382326 6.709981 7.049698 7.440998 7.812999 8.219799 8.674434 9.206905 9.777420 10.44725 11.19904 12.00340 12.96845 14.05974 15.16587 16.34132 17.58893 18.83891 20.20486 21.58456 22.90082 24.47873 25.97676 
14 "C1" 0.00000 0.00000 0.00000 1.895893 1.943469 1.877147 2.667100 2.667100 2.667100 2.667100 2.667100 2.667100 2.667100 2.668054 2.668309 2.666591 2.661628 2.660054 2.668503 2.632990 2.599696 2.560194 2.515815 2.469611 2.426071 2.390352 2.351907 2.313912 2.274420 2.221431 2.172828 2.129299 2.094606 2.065733 2.032899 2.025014 2.034790 2.044936 2.111104 2.144195 2.153549 2.176469 2.202949 2.212206 2.215682 2.227678 2.220213 2.206175 2.197468 2.178392 2.161204 2.144995 2.115974 2.084716 2.047252 2.008825 1.961401 1.915256 1.869872 1.825227 1.790320 1.757397 1.733846 1.716224 1.697814 1.682000 1.668816 1.661181 1.664504 1.669257 1.677002 1.685667 1.689507 1.702569 1.721513 1.745589 1.774465 1.809008 1.848111 1.891012 1.933321 1.977804 2.030332 2.081280 2.138205 2.200850 2.264830 2.337180 2.431876 2.557049 2.692618 2.854614 3.035363 3.263076 3.566325 3.932524 4.390966 4.972554 5.658418 6.509822 7.546381 8.796748 10.31922 12.02963 14.04398 16.30300 18.88224 21.81412 25.01404 28.30082 31.72323 35.35855 
15 "G10" 57.14351 57.14351 57.14351 20.89501 21.58920 13.09650 15.15158 15.15158 15.15158 15.15158 15.15158 15.15158 15.15158 15.15628 15.15700 15.14651 15.11758 15.10788 15.15512 15.06561 14.99930 14.90568 14.75620 14.61141 14.49499 14.40996 14.35996 14.36302 14.44298 14.57594 14.74537 14.97516 15.17552 15.36816 15.66567 16.18536 16.94195 17.98305 19.29481 20.79074 22.22046 23.40245 24.25751 24.66549 24.69995 24.49632 24.18603 23.88546 23.67318 23.54563 23.47568 23.37409 23.17525 22.83241 22.33591 21.72299 21.07054 20.44369 19.88873 19.45392 19.14269 18.94459 18.82416 18.74126 18.66671 18.62152 18.62033 18.68360 18.79804 18.96169 19.17721 19.43535 19.75614 20.15984 20.65623 21.25542 21.97060 22.81365 23.79723 24.89158 26.07816 27.34621 28.68066 30.06170 31.46173 32.83837 34.18230 35.49068 36.75810 37.97310 39.12688 40.21793 41.30810 42.48626 43.69905 44.93867 46.27277 47.74992 49.30695 50.90056 52.64851 54.48277 56.26674 58.06295 59.83944 61.54274 63.09844 64.64451 66.17237 67.43675 68.90125 70.25379 
16 "N4" 42.85649 42.85649 42.85649 12.68746 12.87984 7.742629 9.251929 9.251929 9.251929 9.251929 9.251929 9.251929 9.251929 9.254803 9.255250 9.248850 9.231187 9.225274 9.254110 9.043817 8.910356 8.800877 8.680265 8.568187 8.473434 8.410716 8.371750 8.364143 8.412451 8.493853 8.612545 8.739686 8.877094 9.026788 9.126528 9.462648 10.05083 10.76539 11.61592 12.66651 13.72717 14.56867 15.11222 15.32150 15.25316 14.99755 14.68657 14.39192 14.17585 14.03498 13.95390 13.87483 13.73831 13.50387 13.16563 12.74550 12.29365 11.85177 11.45610 11.14451 10.93201 10.80695 10.74558 10.72118 10.71958 10.73659 10.78431 10.86028 10.96875 11.11090 11.27729 11.47477 11.71320 11.99574 12.33922 12.75492 13.26188 13.86615 14.56594 15.36318 16.23769 17.18930 18.20490 19.26328 20.35211 21.46106 22.56360 23.63920 24.68970 25.73069 26.74705 27.68647 28.65923 29.70685 30.86971 32.06189 33.32475 34.76085 36.28288 37.93591 39.73375 41.62942 43.47614 45.43753 47.42772 49.35734 51.22675 53.05792 54.92044 56.53784 58.37694 60.10031 
17 "G5" 28.57099 28.57099 28.57099 7.674134 7.486464 5.342916 6.552264 6.552264 6.552264 6.552264 6.552264 6.552264 6.552264 6.554401 6.554819 6.550390 6.537986 6.533903 6.554438 6.461284 6.399392 6.338547 6.262314 6.193026 6.134049 6.089985 6.060114 6.039823 6.042583 6.060457 6.096753 6.147991 6.160548 6.182763 6.233682 6.422889 6.660190 6.944156 7.411727 7.969097 8.537844 8.980011 9.258728 9.330185 9.216279 8.996977 8.724177 8.463982 8.267694 8.125954 8.033347 7.961750 7.859194 7.696404 7.470849 7.185228 6.867927 6.547955 6.249070 6.004411 5.829553 5.724773 5.691447 5.721973 5.789775 5.888927 5.998158 6.127645 6.269495 6.417433 6.571482 6.733411 6.915403 7.125983 7.370026 7.655186 7.994903 8.393792 8.856877 9.384485 9.968376 10.60471 11.29767 12.03413 12.80190 13.58635 14.37201 15.14898 15.92531 16.69574 17.42768 18.15176 18.89004 19.70778 20.55727 21.45576 22.48930 23.66432 24.93643 26.30910 27.85960 29.52189 31.23027 33.03055 34.90207 36.77917 38.56868 40.42234 42.34074 44.11895 45.93118 47.69516 
18 "G1" 0.00000 0.00000 0.00000 1.882962 1.934528 1.883000 2.631687 2.631687 2.631687 2.631687 2.631687 2.631687 2.631687 2.632626 2.632875 2.631179 2.626280 2.624724 2.633060 2.607129 2.587365 2.557946 2.515774 2.467946 2.422674 2.388207 2.353316 2.313778 2.272359 2.216217 2.179798 2.167331 2.137377 2.092709 2.046738 2.082658 2.106709 2.062257 2.084587 2.110271 2.166042 2.190641 2.200060 2.211110 2.219391 2.233436 2.229253 2.209983 2.201026 2.184865 2.159496 2.138435 2.112843 2.081523 2.043215 2.001265 1.956358 1.910873 1.862652 1.819337 1.781890 1.747288 1.720803 1.701475 1.680100 1.663070 1.649613 1.646563 1.647368 1.647289 1.650716 1.657415 1.668994 1.685964 1.705440 1.730075 1.760374 1.790937 1.829312 1.873619 1.915349 1.954836 2.004324 2.063490 2.120037 2.185559 2.252635 2.320562 2.415532 2.541064 2.668357 2.822160 3.007265 3.263751 3.542943 3.903962 4.372103 4.946465 5.610155 6.450483 7.514119 8.777532 10.26813 12.02920 14.06824 16.35730 18.85896 21.75180 24.92338 28.20359 31.72524 35.41411 
19 "J2" 0.00000 0.00000 100.0000 5.591932 3.490467 15.87156 25.98957 25.98957 25.98957 25.98957 25.98957 25.98957 25.98957 25.99996 26.00355 25.98794 25.94071 25.92652 26.01013 27.06095 27.92658 28.42774 28.44106 28.04122 27.32612 26.39102 25.25720 23.89178 22.25661 20.42956 18.62181 16.92114 15.21600 13.53953 12.01514 10.66804 9.493286 8.500373 7.633992 6.911612 6.279179 5.735002 5.238298 4.764919 4.330699 3.989446 3.691928 3.476809 3.333126 3.234751 3.170765 3.112214 3.054976 2.986830 2.904745 2.806064 2.692822 2.583152 2.480772 2.391530 2.327637 2.291060 2.280855 2.287659 2.314535 2.348400 2.388707 2.439518 2.495304 2.555435 2.611762 2.668147 2.734315 2.813176 2.898105 3.005454 3.130261 3.281097 3.451544 3.638449 3.856665 4.106276 4.390430 4.689738 4.993861 5.332691 5.685709 6.053428 6.416722 6.759441 7.117035 7.438359 7.767595 8.128355 8.491313 8.960324 9.503353 10.10077 10.79170 11.55409 12.43893 13.44276 14.52287 15.64469 16.79256 18.01929 19.20056 20.50604 22.02877 23.46255 24.92665 26.24995 
20 "J5" 0.00000 100.0000 0.00000 5.331283 11.90916 3.686303 2.735275 2.735275 2.735275 2.735275 2.735275 2.735275 2.735275 2.735634 2.735269 2.732875 2.727146 2.724884 2.732881 2.718064 2.709293 2.704366 2.700602 2.703565 2.715200 2.733333 2.761819 2.813964 2.884638 2.934699 2.997585 3.112502 3.225115 3.398092 3.629732 3.949846 4.419456 5.113518 6.092319 7.496689 9.401836 11.91415 15.02619 18.54873 22.18471 25.57712 28.28361 30.03313 30.73757 30.39801 29.22427 27.44072 25.28309 22.91577 20.47373 18.04993 15.72550 13.57440 11.62490 9.896248 8.405393 7.154742 6.126482 5.293308 4.636982 4.122198 3.739384 3.459661 3.258704 3.122670 3.026312 2.960905 2.927935 2.926906 2.951017 3.006775 3.087737 3.192307 3.326778 3.478847 3.655825 3.862841 4.108771 4.379359 4.652175 4.941337 5.243527 5.566625 5.894292 6.205069 6.541163 6.860695 7.177692 7.556290 7.973784 8.455309 8.932707 9.481277 10.12248 10.84801 11.68302 12.64918 13.70031 14.77608 15.91524 17.10943 18.32900 19.67299 21.16837 22.60639 24.14696 25.47425 
21 "G6" 100.0000 0.00000 100.0000 36.49540 18.32264 19.98768 40.21904 40.21904 40.21904 40.21904 40.21904 40.21904 40.21904 40.23398 40.23841 40.21311 40.13885 40.11571 40.24383 40.97701 41.12796 40.52705 39.16341 37.33216 35.27235 33.15323 30.99133 28.72442 26.30517 23.81329 21.47392 19.38725 17.34899 15.31591 13.47231 11.90871 10.55190 9.363380 8.338727 7.460896 6.750792 6.120403 5.551510 5.037774 4.582072 4.193432 3.892316 3.676613 3.548303 3.489147 3.476652 3.498461 3.528009 3.550333 3.557856 3.542341 3.511824 3.485624 3.481451 3.537677 3.685190 3.962244 4.428055 5.151368 6.208822 7.692870 9.707266 12.37318 15.79040 20.03919 25.13434 30.99583 37.48421 44.36891 51.33041 58.03202 64.20454 69.68402 74.39975 78.33510 81.51918 84.07916 86.14233 87.78743 89.09814 90.12447 90.94993 91.62021 92.17608 92.66629 93.04279 93.25714 93.44277 93.67206 93.85073 93.92465 94.00458 94.13898 94.26270 94.32859 94.51319 94.72379 94.83679 94.97551 95.13729 95.26716 95.24768 95.32853 95.53344 95.42765 95.69768 96.01709 
22 "G15" 100.0000 0.00000 0.00000 32.57423 17.36796 2.275071 2.799045 2.799045 2.799045 2.799045 2.799045 2.799045 2.799045 2.798596 2.797397 2.794114 2.787413 2.784245 2.791546 2.789740 2.784964 2.766804 2.738417 2.709937 2.686158 2.669041 2.653465 2.637764 2.626288 2.613856 2.609988 2.621005 2.593382 2.555198 2.577369 2.646839 2.710600 2.757288 2.880741 3.079465 3.323941 3.537105 3.670902 3.729274 3.716265 3.654952 3.571130 3.497357 3.460505 3.454885 3.481525 3.529383 3.576699 3.611199 3.623840 3.611559 3.587058 3.564163 3.563482 3.614634 3.751568 4.012175 4.447616 5.116507 6.092619 7.466520 9.344721 11.84852 15.08000 19.12726 24.01818 29.69165 36.03205 42.82129 49.75550 56.49121 62.75110 68.35398 73.20848 77.27955 80.58064 83.24694 85.38323 87.08722 88.43791 89.48057 90.30391 90.94735 91.49709 91.97308 92.33023 92.55743 92.76442 93.01192 93.18164 93.26640 93.37918 93.51733 93.63635 93.67266 93.83712 94.08181 94.22444 94.34536 94.50184 94.62466 94.56644 94.60927 94.86678 94.79074 95.02783 95.24455 
