Canon_Pro-300/Scandinavian-Photo/Satin/Pro-300-ScP-Satin.ti3
CTI3   

DESCRIPTOR "Argyll Calibration Target chart information 3"
ORIGINATOR "Argyll chartread"
CREATED "Fri Dec 15 23:35:02 2023"
DEVICE_CLASS "OUTPUT"
COMP_GREY_STEPS "128"
COLOR_REP "iRGB_XYZ"
TARGET_INSTRUMENT "X-Rite ColorMunki"
DEVCALSTD "XRGA"
SPECTRAL_BANDS "106"
SPECTRAL_START_NM "380.000000"
SPECTRAL_END_NM "730.000000"

NUMBER_OF_FIELDS 114
BEGIN_DATA_FORMAT
SAMPLE_ID SAMPLE_LOC RGB_R RGB_G RGB_B XYZ_X XYZ_Y XYZ_Z SPEC_380 SPEC_383 SPEC_387 SPEC_390 SPEC_393 SPEC_397 SPEC_400 SPEC_403 SPEC_407 SPEC_410 SPEC_413 SPEC_417 SPEC_420 SPEC_423 SPEC_427 SPEC_430 SPEC_433 SPEC_437 SPEC_440 SPEC_443 SPEC_447 SPEC_450 SPEC_453 SPEC_457 SPEC_460 SPEC_463 SPEC_467 SPEC_470 SPEC_473 SPEC_477 SPEC_480 SPEC_483 SPEC_487 SPEC_490 SPEC_493 SPEC_497 SPEC_500 SPEC_503 SPEC_507 SPEC_510 SPEC_513 SPEC_517 SPEC_520 SPEC_523 SPEC_527 SPEC_530 SPEC_533 SPEC_537 SPEC_540 SPEC_543 SPEC_547 SPEC_550 SPEC_553 SPEC_557 SPEC_560 SPEC_563 SPEC_567 SPEC_570 SPEC_573 SPEC_577 SPEC_580 SPEC_583 SPEC_587 SPEC_590 SPEC_593 SPEC_597 SPEC_600 SPEC_603 SPEC_607 SPEC_610 SPEC_613 SPEC_617 SPEC_620 SPEC_623 SPEC_627 SPEC_630 SPEC_633 SPEC_637 SPEC_640 SPEC_643 SPEC_647 SPEC_650 SPEC_653 SPEC_657 SPEC_660 SPEC_663 SPEC_667 SPEC_670 SPEC_673 SPEC_677 SPEC_680 SPEC_683 SPEC_687 SPEC_690 SPEC_693 SPEC_697 SPEC_700 SPEC_703 SPEC_707 SPEC_710 SPEC_713 SPEC_717 SPEC_720 SPEC_723 SPEC_727 SPEC_730 
END_DATA_FORMAT

NUMBER_OF_SETS 1120
BEGIN_DATA
1 "AY15" 100.0000 100.0000 100.0000 86.75628 90.17908 78.15581 82.73338 82.73338 82.73338 82.73338 82.73338 82.73338 82.73338 82.76110 82.76713 82.71198 82.55612 82.50538 82.76578 85.86338 88.65367 90.86130 92.16682 92.79447 92.96620 93.00624 93.15117 93.62495 94.54125 95.64507 96.71953 97.66861 98.64983 99.92478 100.9144 101.1737 101.0060 99.98280 98.56972 97.01825 95.45889 94.41937 93.55992 92.86787 92.30960 91.86883 91.48878 91.27826 91.07007 90.81601 90.64728 90.49582 90.39814 90.29795 90.23368 90.13167 90.00485 89.84007 89.63273 89.41589 89.22126 89.13462 89.09118 89.04524 88.90384 88.74903 88.60823 88.50161 88.46083 88.46759 88.47288 88.46480 88.48956 88.52898 88.58367 88.67572 88.76869 88.85487 88.97884 89.17427 89.35152 89.55736 89.79539 90.01809 90.28743 90.57873 90.90868 91.25877 91.62445 92.08384 92.40940 92.67715 92.96963 93.15733 93.45311 93.77984 94.09543 94.33249 94.59611 94.84917 95.14996 95.47489 95.87048 96.03051 96.24154 96.52208 96.71914 96.56468 96.73720 96.58920 96.99349 97.38399 
2 "C7" 14.64408 100.0000 68.21088 11.26215 24.17479 30.00142 25.20095 25.20095 25.20095 25.20095 25.20095 25.20095 25.20095 25.20967 25.21178 25.19526 25.14807 25.13289 25.21251 26.17192 27.02513 27.74470 28.54709 29.53530 30.55081 31.49211 32.32851 33.10251 33.89590 34.61541 35.21097 35.79501 36.53687 37.67616 39.13984 41.01740 43.45104 46.44796 50.04118 53.84645 57.45779 60.54764 62.83800 64.08312 64.25261 63.51592 62.06523 60.06837 57.60358 54.74823 51.63994 48.33534 44.86327 41.24525 37.51341 33.67117 29.75280 25.82753 21.98277 18.35618 15.11208 12.38115 10.16479 8.417059 7.056266 6.018728 5.242213 4.660122 4.215315 3.848760 3.524097 3.215764 2.931560 2.698659 2.520316 2.399366 2.332898 2.308163 2.323969 2.371199 2.433900 2.509636 2.604617 2.724593 2.901304 3.117591 3.374884 3.679799 4.030695 4.424128 4.794182 5.106829 5.294510 5.344393 5.287362 5.157461 5.006951 4.856008 4.650588 4.418964 4.145227 3.913272 3.691438 3.527349 3.460077 3.425718 3.540792 3.833302 4.257087 4.818547 5.599007 6.725921 
3 "BN9" 65.48409 19.86114 58.19181 20.46228 13.24650 10.71113 14.83517 14.83517 14.83517 14.83517 14.83517 14.83517 14.83517 14.84024 14.84142 14.83163 14.80379 14.79479 14.84157 14.99435 15.10092 15.13100 15.03369 14.86448 14.65232 14.41004 14.15785 13.91958 13.68072 13.43587 13.17340 12.84691 12.50812 12.21773 11.85647 11.41851 11.05833 10.75209 10.47323 10.24093 9.997791 9.701379 9.291452 8.718480 7.944986 7.095941 6.267047 5.546823 5.004040 4.677691 4.567723 4.624226 4.797659 4.979665 5.046430 4.917102 4.614409 4.257502 3.975369 3.869720 4.040404 4.573810 5.581768 7.204636 9.557675 12.62570 16.16716 19.71924 22.83622 25.28980 27.08351 28.32765 29.17543 29.74929 30.15677 30.49014 30.80289 31.14006 31.48057 31.84855 32.21145 32.57042 32.92684 33.31417 33.77821 34.27802 34.80809 35.35359 35.91328 36.49253 37.00454 37.47091 37.84606 38.10919 38.31846 38.45913 38.52997 38.52166 38.50926 38.45048 38.38989 38.27157 38.16850 38.07889 38.18072 38.36695 38.64900 39.02091 39.69119 40.37743 41.28746 42.28156 
4 "BD11" 44.64027 49.39803 0.00000 11.93297 12.67414 2.260254 2.057025 2.057025 2.057025 2.057025 2.057025 2.057025 2.057025 2.057034 2.056495 2.054428 2.049853 2.047880 2.053617 2.096390 2.127032 2.154262 2.171385 2.182249 2.180957 2.172117 2.158650 2.147647 2.141670 2.124282 2.124555 2.130611 2.136081 2.231457 2.340945 2.412501 2.518275 2.678297 2.976697 3.442317 4.252059 5.387605 6.768487 8.202572 9.510130 10.60035 11.41252 12.01856 12.46908 12.80975 13.08632 13.32657 13.51979 13.65054 13.70370 13.66262 13.52801 13.33434 13.11601 12.92159 12.79311 12.77325 12.84344 12.99037 13.18569 13.42811 13.67159 13.86867 14.00694 14.07366 14.06862 14.00495 13.91452 13.82283 13.75354 13.72864 13.76222 13.84584 13.96067 14.12307 14.30084 14.48934 14.70687 14.95058 15.23574 15.54497 15.88273 16.22920 16.58530 16.98462 17.34898 17.65079 17.88282 18.07161 18.20998 18.28431 18.34034 18.31329 18.30156 18.26977 18.18000 18.08958 18.05713 17.95095 17.90869 18.04674 18.34606 18.60754 19.03030 19.56345 20.30080 21.17350 
5 "AJ10" 0.00000 0.00000 0.00000 0.764708 0.770110 0.589480 0.732456 0.732456 0.732456 0.732456 0.732456 0.732456 0.732456 0.732704 0.732760 0.732275 0.730897 0.730451 0.732757 0.731540 0.731782 0.735518 0.733743 0.731851 0.731043 0.721719 0.715331 0.719553 0.707745 0.704993 0.732304 0.699257 0.637800 0.696429 0.775503 0.748318 0.735374 0.646322 0.593976 0.672076 0.729108 0.684039 0.678079 0.708418 0.730649 0.743847 0.744087 0.747133 0.743798 0.756156 0.759210 0.749619 0.753396 0.764822 0.776817 0.778657 0.770870 0.767656 0.760896 0.753487 0.749852 0.752709 0.758283 0.762077 0.762897 0.763603 0.771996 0.772683 0.778428 0.781671 0.779206 0.782834 0.781915 0.783398 0.785293 0.778470 0.768863 0.778557 0.793206 0.816300 0.821360 0.835463 0.854101 0.865535 0.895275 0.929354 0.947183 0.967978 1.002399 1.054072 1.067366 1.099770 1.115230 1.157471 1.184330 1.179930 1.208538 1.247269 1.296957 1.313187 1.287146 1.276573 1.308981 1.358821 1.422234 1.493895 1.512055 1.515153 1.580925 1.766677 1.975073 1.944157 
6 "B9" 56.74983 67.45708 72.88624 28.69184 31.61858 31.65899 31.95016 31.95016 31.95016 31.95016 31.95016 31.95016 31.95016 31.96105 31.96358 31.94248 31.88249 31.86309 31.96386 33.14216 34.27528 35.19887 35.89019 36.47487 36.96478 37.38378 37.74622 38.12362 38.57790 39.02852 39.47786 39.95045 40.39303 40.85541 41.21416 41.32000 41.30233 41.26565 41.13196 41.02668 40.93928 40.81544 40.64672 40.32508 39.79865 39.10622 38.30436 37.38485 36.51279 35.79116 35.31553 35.07744 34.99732 34.91453 34.63660 34.04623 33.11974 31.95328 30.71276 29.59772 28.75429 28.27589 28.11098 28.13428 28.23304 28.31379 28.33439 28.30427 28.22405 28.06778 27.81631 27.48964 27.11689 26.75675 26.46192 26.26643 26.19066 26.22322 26.34445 26.52743 26.72945 26.98656 27.29892 27.67179 28.12568 28.67429 29.26270 29.88516 30.56479 31.25867 31.93952 32.48255 32.85677 33.06560 33.19071 33.13996 32.99902 32.86126 32.63714 32.39894 32.09850 31.78498 31.45728 31.20572 31.07764 31.06622 31.26092 31.78303 32.37764 33.29878 34.60835 35.97457 
7 "P5" 51.56023 0.00000 45.93118 9.926809 5.291513 4.773776 8.756729 8.756729 8.756729 8.756729 8.756729 8.756729 8.756729 8.759890 8.760759 8.755153 8.738890 8.733754 8.761537 8.775521 8.742477 8.636572 8.441061 8.173963 7.858780 7.522549 7.166891 6.791022 6.393405 5.986054 5.598914 5.219906 4.825536 4.389913 3.929835 3.475704 3.037756 2.648152 2.351936 2.115871 1.906331 1.736556 1.587920 1.394950 1.207673 1.054529 0.924224 0.845778 0.799283 0.785659 0.778107 0.774841 0.773370 0.780010 0.789479 0.788004 0.775924 0.772608 0.785015 0.809433 0.848480 0.920977 1.057892 1.334190 1.901652 2.927592 4.479475 6.448563 8.573903 10.57098 12.25426 13.57606 14.56353 15.28739 15.82880 16.25928 16.63727 16.97851 17.29662 17.62297 17.93885 18.24649 18.55496 18.88233 19.23778 19.60952 20.01918 20.42524 20.81386 21.24214 21.63486 21.96983 22.27858 22.47087 22.62347 22.70938 22.73829 22.70574 22.68465 22.65966 22.58849 22.54347 22.45975 22.36345 22.42900 22.60386 22.82109 23.11607 23.61497 24.10799 24.94839 25.89628 
8 "AL9" 92.91371 92.91371 92.91371 72.45664 75.17097 64.03259 67.55051 67.55051 67.55051 67.55051 67.55051 67.55051 67.55051 67.57303 67.57786 67.53271 67.40535 67.36381 67.57631 70.03978 72.23540 73.94314 75.01788 75.60491 75.83613 75.97281 76.16692 76.58529 77.35785 78.23834 79.09861 79.92202 80.73680 81.79248 82.58624 82.86733 82.87749 82.24903 81.37847 80.43625 79.53258 78.93260 78.48136 78.00683 77.52828 77.06095 76.55474 76.15032 75.75410 75.38156 75.16510 75.08409 75.12565 75.14847 75.12623 74.98827 74.73177 74.37702 73.98832 73.65014 73.45378 73.48531 73.65662 73.88990 74.04900 74.15791 74.21856 74.25053 74.31651 74.37307 74.37779 74.35599 74.34850 74.33972 74.34632 74.40192 74.50981 74.65305 74.81220 75.03283 75.25267 75.48942 75.75418 76.04628 76.39298 76.76085 77.15467 77.59459 78.05390 78.57060 78.97313 79.27873 79.53807 79.77778 80.11948 80.37365 80.60762 80.80199 81.02474 81.20396 81.38628 81.56841 81.84625 82.03368 82.25316 82.49882 82.72989 82.74601 83.02622 83.17328 83.79794 84.45341 
9 "AB13" 5.888457 52.37201 57.01686 4.061641 6.511002 14.43894 12.80767 12.80767 12.80767 12.80767 12.80767 12.80767 12.80767 12.81241 12.81381 12.80574 12.78208 12.77470 12.81552 13.49385 14.14405 14.71614 15.31647 15.98838 16.59282 17.07232 17.43001 17.72729 18.04224 18.30446 18.49569 18.65262 18.81031 19.03673 19.27366 19.44631 19.59155 19.58453 19.68208 19.82444 19.89464 19.90030 19.72240 19.30317 18.66948 17.81953 16.79168 15.70889 14.62634 13.59614 12.65410 11.77805 10.93068 10.03367 9.038119 7.924588 6.738986 5.566101 4.493994 3.597548 2.893982 2.384084 2.027568 1.773843 1.593009 1.466468 1.375247 1.304627 1.249926 1.203532 1.157309 1.105259 1.061251 1.031727 1.010469 0.991954 0.987341 0.985095 0.991607 0.993731 0.990879 1.008114 1.034477 1.058652 1.091602 1.142810 1.196460 1.268955 1.364186 1.461551 1.529803 1.586901 1.609649 1.652392 1.634849 1.594145 1.568419 1.512648 1.461354 1.411784 1.346985 1.304639 1.314993 1.268583 1.327279 1.432071 1.411288 1.459217 1.627500 1.735131 1.932003 2.215195 
10 "BB13" 98.42527 98.42527 98.42527 82.61548 85.85190 74.18817 79.06258 79.06258 79.06258 79.06258 79.06258 79.06258 79.06258 79.08910 79.09491 79.04223 78.89332 78.84487 79.09375 81.93767 84.47329 86.41974 87.56756 88.10014 88.19005 88.15920 88.23267 88.63543 89.49806 90.56876 91.62448 92.54663 93.48628 94.76125 95.76312 95.97483 95.84045 94.96862 93.77757 92.43400 91.10150 90.14889 89.36286 88.70785 88.16941 87.71862 87.29237 87.00717 86.72706 86.42589 86.25255 86.11684 86.03460 85.95121 85.88901 85.77465 85.60566 85.37729 85.09717 84.83572 84.63980 84.58299 84.59349 84.62496 84.57412 84.48734 84.40430 84.35210 84.34977 84.36465 84.36028 84.35830 84.37304 84.40060 84.44106 84.48669 84.56835 84.70344 84.84345 85.03763 85.22906 85.43438 85.67063 85.92203 86.21522 86.52967 86.87085 87.24342 87.64367 88.09994 88.45580 88.76824 89.08656 89.26013 89.58383 89.92726 90.21952 90.42364 90.67944 90.94160 91.21800 91.45299 91.81752 92.05073 92.28788 92.58318 92.83638 92.64532 92.83884 92.92558 93.31416 93.72627 
11 "AR2" 97.63790 97.63790 97.63790 81.48475 84.63369 72.87793 77.57739 77.57739 77.57739 77.57739 77.57739 77.57739 77.57739 77.60338 77.60905 77.55733 77.41119 77.36361 77.60779 80.40934 82.90507 84.83273 85.99605 86.54633 86.66038 86.65573 86.73262 87.10240 87.92888 88.98947 90.00886 90.88043 91.79581 92.99324 93.92791 94.18271 94.12532 93.30896 92.07921 90.79853 89.59598 88.71916 88.02618 87.42084 86.89680 86.42562 85.99921 85.71124 85.41534 85.10385 84.91054 84.80740 84.74304 84.68557 84.62958 84.51321 84.33593 84.08723 83.78927 83.52703 83.34054 83.30641 83.34972 83.41784 83.40691 83.36845 83.32110 83.28934 83.30874 83.34559 83.35547 83.34255 83.35583 83.38225 83.41245 83.44731 83.52827 83.65920 83.79746 83.99108 84.18068 84.38825 84.61907 84.85547 85.14308 85.46661 85.82120 86.18322 86.58447 87.04160 87.38799 87.68953 87.97555 88.14398 88.45521 88.77613 89.03252 89.20423 89.45162 89.66399 89.89013 90.14550 90.53294 90.72999 90.91437 91.18465 91.40218 91.31474 91.53355 91.53534 92.05773 92.40290 
12 "I9" 96.85054 96.85054 96.85054 80.59954 83.70317 71.61927 75.30491 75.30491 75.30491 75.30491 75.30491 75.30491 75.30491 75.33003 75.33540 75.28508 75.14310 75.09679 75.33369 78.13870 80.62350 82.56964 83.81170 84.53804 84.92311 85.22722 85.58043 86.09768 86.87768 87.79572 88.70199 89.56219 90.47644 91.53151 92.30683 92.49766 92.39717 91.60188 90.45053 89.29703 88.19580 87.40859 86.76974 86.23196 85.78143 85.34435 84.95427 84.65605 84.35029 84.06246 83.88702 83.79823 83.75953 83.72380 83.69339 83.59130 83.41299 83.16190 82.86164 82.59125 82.41452 82.40270 82.48056 82.57112 82.59235 82.57381 82.54161 82.52492 82.54307 82.56282 82.55813 82.53607 82.53376 82.54756 82.58470 82.62218 82.69971 82.84031 82.99743 83.19730 83.40039 83.61695 83.86209 84.12018 84.41484 84.77345 85.14946 85.53226 85.94322 86.37280 86.76190 87.10379 87.37343 87.53298 87.84547 88.11414 88.36556 88.56445 88.78017 88.93780 89.21409 89.47233 89.70824 89.95407 90.17612 90.43135 90.62678 90.61965 90.78696 90.87052 91.28533 91.82903 
13 "AQ2" 96.06317 96.06317 96.06317 78.22460 81.20082 69.63939 73.98968 73.98968 73.98968 73.98968 73.98968 73.98968 73.98968 74.01443 74.01980 73.97044 73.83103 73.78562 74.01846 76.65508 79.01269 80.86406 81.98996 82.54949 82.69710 82.73303 82.83162 83.19885 84.02471 85.06150 86.05016 86.87094 87.74240 88.93251 89.77796 89.98174 90.00214 89.30485 88.19016 87.00753 85.86400 85.06694 84.48975 83.94227 83.43074 82.95653 82.50539 82.17395 81.85470 81.53833 81.34043 81.26297 81.23564 81.20347 81.16309 81.04418 80.83429 80.54519 80.22240 79.94290 79.76010 79.75562 79.85346 79.98487 80.04477 80.06787 80.06642 80.06955 80.10721 80.15373 80.17036 80.15011 80.12693 80.11621 80.12960 80.19338 80.29605 80.42770 80.57554 80.77166 80.97280 81.18168 81.42334 81.66130 81.97025 82.30381 82.66712 83.05593 83.46962 83.95970 84.31771 84.61488 84.86150 85.07968 85.42210 85.69478 85.92541 86.10685 86.30746 86.51363 86.70524 86.90549 87.28634 87.49155 87.69447 87.95096 88.19167 88.12420 88.37656 88.30744 88.83657 89.34694 
14 "L2" 95.27581 95.27581 95.27581 77.64212 80.56308 69.02835 72.36328 72.36328 72.36328 72.36328 72.36328 72.36328 72.36328 72.38739 72.39255 72.34417 72.20773 72.16321 72.39084 75.08779 77.53611 79.46304 80.70358 81.43262 81.81616 82.12003 82.45490 82.96375 83.78650 84.71630 85.60254 86.42711 87.29350 88.33158 89.03753 89.22336 89.11380 88.27831 87.14097 85.99923 84.92450 84.19682 83.69281 83.22746 82.77051 82.30951 81.85675 81.50846 81.16164 80.82715 80.63794 80.57278 80.56470 80.55911 80.53023 80.41147 80.19446 79.89386 79.55525 79.25869 79.06862 79.07493 79.19643 79.35642 79.44288 79.48238 79.49118 79.50542 79.54044 79.57668 79.58698 79.56734 79.53816 79.51331 79.52164 79.59314 79.69238 79.83724 79.99533 80.20122 80.42027 80.64826 80.90651 81.17832 81.50263 81.85352 82.22914 82.62993 83.05205 83.54114 83.94818 84.28628 84.55827 84.72487 85.06448 85.37680 85.60545 85.76165 85.97246 86.14875 86.34919 86.62018 86.89085 87.04563 87.24473 87.45251 87.67891 87.70705 87.95928 88.06115 88.58326 89.05076 
15 "BG2" 94.48844 94.48844 94.48844 75.30070 78.15997 66.43155 70.56609 70.56609 70.56609 70.56609 70.56609 70.56609 70.56609 70.58966 70.59473 70.54761 70.41460 70.37124 70.59326 73.09364 75.34524 77.09825 78.16206 78.66879 78.77628 78.77478 78.84482 79.21076 80.01767 80.97890 81.89378 82.72936 83.63952 84.78653 85.65056 85.98297 86.02772 85.33701 84.39291 83.44070 82.48634 81.83736 81.35678 80.87645 80.41910 79.93407 79.43360 79.07844 78.72981 78.38592 78.18460 78.11171 78.13329 78.13733 78.11845 77.98457 77.74924 77.41817 77.05093 76.74828 76.57092 76.59159 76.73967 76.94418 77.08595 77.17310 77.22433 77.26849 77.31150 77.34005 77.35087 77.32676 77.31857 77.31505 77.32649 77.38588 77.48173 77.61744 77.76307 77.96234 78.15573 78.37622 78.61827 78.86558 79.17010 79.51941 79.90501 80.30789 80.72911 81.18831 81.56903 81.88381 82.13500 82.34790 82.68870 82.95573 83.13989 83.26642 83.48614 83.61331 83.81446 84.06119 84.35801 84.52787 84.74722 84.96432 85.22371 85.24295 85.58185 85.57466 86.08837 86.56170 
16 "C10" 93.70108 93.70108 93.70108 74.86189 77.69924 65.79332 69.14611 69.14611 69.14611 69.14611 69.14611 69.14611 69.14611 69.16911 69.17400 69.12774 68.99731 68.95474 69.17220 71.75886 74.01042 75.73220 76.83379 77.49344 77.85276 78.13554 78.42642 78.85228 79.58290 80.47318 81.34442 82.19902 83.07929 84.08376 84.83863 85.06849 84.98731 84.41459 83.52274 82.58979 81.73039 81.11049 80.71076 80.27939 79.83108 79.38354 78.94574 78.57358 78.20284 77.87527 77.67909 77.62880 77.63749 77.65323 77.64169 77.52212 77.28627 76.95792 76.58817 76.27603 76.10401 76.13484 76.30656 76.53022 76.68783 76.79425 76.86434 76.92669 76.98523 77.02803 77.00178 76.94067 76.90767 76.90414 76.92865 76.98148 77.06935 77.19578 77.35515 77.55943 77.75738 77.97110 78.22261 78.48935 78.81585 79.17211 79.53317 79.92730 80.36666 80.83488 81.23129 81.55186 81.78560 81.96720 82.26710 82.53876 82.73795 82.87768 83.02812 83.18125 83.36161 83.53892 83.75946 83.95673 84.13919 84.35494 84.50878 84.59155 84.86176 85.15984 85.54757 86.02851 
17 "AT14" 0.00000 0.00000 0.00000 0.767439 0.772916 0.601716 0.759874 0.759874 0.759874 0.759874 0.759874 0.759874 0.759874 0.760133 0.760193 0.759691 0.758265 0.757803 0.760195 0.713145 0.733088 0.752977 0.756697 0.751538 0.747510 0.742960 0.739428 0.742587 0.740850 0.737317 0.722154 0.681223 0.670326 0.718080 0.740749 0.772612 0.781470 0.670246 0.612006 0.655576 0.711194 0.716175 0.727247 0.725262 0.724917 0.720888 0.727495 0.730119 0.745696 0.756347 0.757354 0.761180 0.769813 0.771460 0.771702 0.773423 0.770505 0.772866 0.768519 0.763218 0.761379 0.756388 0.762521 0.770932 0.767429 0.766236 0.776338 0.777447 0.777895 0.780984 0.791039 0.791829 0.781366 0.780661 0.781200 0.774966 0.773741 0.781605 0.790230 0.807430 0.817386 0.835511 0.849312 0.870583 0.891117 0.914206 0.946581 0.975019 0.993494 1.028297 1.056755 1.077268 1.118953 1.160950 1.184246 1.195457 1.136562 1.156286 1.217124 1.212893 1.256027 1.290017 1.266870 1.259447 1.318168 1.438786 1.499435 1.448769 1.537082 1.574537 1.686416 1.778905 
18 "Q8" 92.12634 92.12634 92.12634 71.89145 74.62928 62.79030 65.75425 65.75425 65.75425 65.75425 65.75425 65.75425 65.75425 65.77607 65.78066 65.73661 65.61253 65.57198 65.77872 68.14761 70.24338 71.86166 72.92909 73.60333 74.02812 74.41690 74.82212 75.31669 76.03745 76.83792 77.62549 78.53175 79.52567 80.50447 81.04448 81.22870 81.17417 80.71474 79.89603 79.05854 78.37815 77.80233 77.49162 77.14319 76.72456 76.30508 75.87928 75.48044 75.09273 74.75113 74.54328 74.48276 74.54871 74.59405 74.59129 74.47828 74.23459 73.89402 73.50437 73.16346 72.98408 73.03001 73.22509 73.47625 73.68265 73.82435 73.90989 73.97330 74.01042 74.04118 74.02977 73.99111 73.95444 73.94040 73.94241 73.98135 74.08015 74.21239 74.38409 74.59548 74.80870 75.02871 75.28467 75.57212 75.91626 76.27556 76.62931 77.05513 77.52710 77.98334 78.40329 78.73196 78.93964 79.19260 79.49359 79.74191 79.90983 80.03174 80.14582 80.33480 80.57054 80.71161 80.83301 81.00293 81.19315 81.42716 81.58492 81.72402 81.87552 82.15408 82.61324 83.19004 
19 "E3" 91.33898 91.33898 91.33898 69.94648 72.62822 60.96056 63.54154 63.54154 63.54154 63.54154 63.54154 63.54154 63.54154 63.56259 63.56699 63.52439 63.40444 63.36522 63.56496 65.96583 68.09024 69.73923 70.83726 71.53666 71.96705 72.34344 72.72693 73.20581 73.91313 74.67688 75.42367 76.18769 76.96800 77.91806 78.53317 78.75486 78.79667 78.33720 77.63699 76.88043 76.19600 75.74396 75.43719 75.11706 74.75499 74.34700 73.90702 73.50570 73.10514 72.76023 72.56602 72.50575 72.58282 72.64943 72.65238 72.53098 72.28157 71.92019 71.50763 71.16694 70.99004 71.03051 71.22872 71.48122 71.67183 71.80278 71.87836 71.94822 72.01527 72.06399 72.05251 72.00403 71.96360 71.94403 71.94665 71.99048 72.07595 72.20855 72.37358 72.59345 72.81800 73.05336 73.30705 73.59967 73.96144 74.34925 74.73313 75.14306 75.60007 76.08613 76.50318 76.82819 77.03711 77.28311 77.60568 77.81895 78.01853 78.16302 78.30526 78.46335 78.61178 78.70671 78.92231 79.09943 79.29396 79.44125 79.51072 79.75559 80.09081 80.26051 80.76555 81.23353 
20 "BI4" 90.55161 90.55161 90.55161 67.96327 70.57537 59.09247 62.25608 62.25608 62.25608 62.25608 62.25608 62.25608 62.25608 62.27675 62.28112 62.23943 62.12196 62.08359 62.27935 64.49311 66.49368 68.05920 69.03759 69.55682 69.74365 69.85737 70.03389 70.43817 71.20011 72.03718 72.83740 73.61425 74.39624 75.43668 76.24967 76.52380 76.69855 76.30094 75.63189 74.93128 74.28442 73.91427 73.61896 73.24956 72.84433 72.37580 71.88700 71.48199 71.08112 70.71077 70.50956 70.44666 70.50992 70.59196 70.60691 70.46969 70.18483 69.79315 69.35970 69.00419 68.81332 68.86113 69.06789 69.33105 69.53844 69.71112 69.83818 69.93281 70.02251 70.08670 70.09511 70.06211 70.02939 69.98994 69.97295 70.01259 70.09891 70.23676 70.40012 70.61652 70.83168 71.06547 71.32768 71.59848 71.93978 72.32878 72.74660 73.17851 73.62904 74.13619 74.52340 74.79566 75.10859 75.37416 75.69336 75.90849 76.09745 76.23734 76.39559 76.53449 76.74798 76.89218 77.08964 77.15539 77.41009 77.72372 77.96161 78.01387 78.34047 78.53350 79.22546 79.87239 
21 "G15" 89.76425 89.76425 89.76425 67.13340 69.72348 58.18229 60.68911 60.68911 60.68911 60.68911 60.68911 60.68911 60.68911 60.70920 60.71337 60.67266 60.55808 60.52060 60.71135 62.99699 65.00981 66.57532 67.60803 68.24649 68.62608 68.94316 69.26417 69.69402 70.37136 71.13535 71.86565 72.62029 73.40948 74.31851 74.99763 75.26522 75.30093 74.92812 74.32454 73.69662 73.13502 72.77167 72.54302 72.26690 71.91367 71.48935 71.01546 70.59981 70.21030 69.85693 69.64923 69.58906 69.65871 69.75806 69.78061 69.65158 69.36495 68.96750 68.52579 68.15996 67.96907 68.02399 68.24776 68.53748 68.76287 68.94787 69.07778 69.17936 69.26090 69.31437 69.31298 69.26188 69.20699 69.16593 69.14999 69.18027 69.25522 69.38439 69.54296 69.75207 69.97228 70.20011 70.46880 70.75418 71.10190 71.49799 71.90237 72.33410 72.80320 73.29955 73.70973 73.99232 74.25288 74.48705 74.79138 75.02019 75.15108 75.28822 75.41786 75.52981 75.68190 75.83605 75.94733 76.03030 76.14136 76.35714 76.55180 76.64746 76.99310 77.23413 77.92604 78.46046 
22 "AZ10" 88.97688 88.97688 88.97688 65.13347 67.67789 56.38971 59.24097 59.24097 59.24097 59.24097 59.24097 59.24097 59.24097 59.26060 59.26472 59.22501 59.11320 59.07665 59.26288 61.37781 63.30005 64.81580 65.77445 66.29867 66.50859 66.63319 66.78889 67.15099 67.88618 68.71853 69.47712 70.18903 70.96541 71.97919 72.73826 73.10361 73.26914 72.89779 72.36395 71.78551 71.22499 70.89356 70.62707 70.37633 70.02994 69.58599 69.08359 68.66803 68.25076 67.87087 67.65277 67.58945 67.65112 67.72810 67.77145 67.63616 67.33608 66.91677 66.45487 66.07882 65.87291 65.90304 66.09639 66.39946 66.64458 66.84444 66.98803 67.08452 67.17087 67.22445 67.22996 67.18468 67.13648 67.09058 67.06725 67.10577 67.18052 67.32071 67.48199 67.70898 67.92947 68.16333 68.44641 68.76028 69.12692 69.51697 69.94499 70.41315 70.89804 71.42585 71.78766 72.08227 72.44175 72.69919 72.97353 73.21672 73.44741 73.53766 73.67145 73.83627 74.01984 74.15177 74.36314 74.48562 74.63138 74.84258 75.19436 75.32012 75.65723 75.80156 76.43231 77.14269 
