Epson_XP-960/PermaJet/Oyster_271/PermaJet_Oyster_271_XP-960.ti3
CTI3   

DESCRIPTOR "Argyll Calibration Target chart information 3"
ORIGINATOR "Argyll chartread"
CREATED "Fri Sep 14 23:01:44 2018"
DEVICE_CLASS "OUTPUT"
COMP_GREY_STEPS "8"
COLOR_REP "iRGB_XYZ"
TARGET_INSTRUMENT "X-Rite ColorMunki"
DEVCALSTD "XRGA"
SPECTRAL_BANDS "106"
SPECTRAL_START_NM "380.000000"
SPECTRAL_END_NM "730.000000"

NUMBER_OF_FIELDS 114
BEGIN_DATA_FORMAT
SAMPLE_ID SAMPLE_LOC RGB_R RGB_G RGB_B XYZ_X XYZ_Y XYZ_Z SPEC_380 SPEC_383 SPEC_387 SPEC_390 SPEC_393 SPEC_397 SPEC_400 SPEC_403 SPEC_407 SPEC_410 SPEC_413 SPEC_417 SPEC_420 SPEC_423 SPEC_427 SPEC_430 SPEC_433 SPEC_437 SPEC_440 SPEC_443 SPEC_447 SPEC_450 SPEC_453 SPEC_457 SPEC_460 SPEC_463 SPEC_467 SPEC_470 SPEC_473 SPEC_477 SPEC_480 SPEC_483 SPEC_487 SPEC_490 SPEC_493 SPEC_497 SPEC_500 SPEC_503 SPEC_507 SPEC_510 SPEC_513 SPEC_517 SPEC_520 SPEC_523 SPEC_527 SPEC_530 SPEC_533 SPEC_537 SPEC_540 SPEC_543 SPEC_547 SPEC_550 SPEC_553 SPEC_557 SPEC_560 SPEC_563 SPEC_567 SPEC_570 SPEC_573 SPEC_577 SPEC_580 SPEC_583 SPEC_587 SPEC_590 SPEC_593 SPEC_597 SPEC_600 SPEC_603 SPEC_607 SPEC_610 SPEC_613 SPEC_617 SPEC_620 SPEC_623 SPEC_627 SPEC_630 SPEC_633 SPEC_637 SPEC_640 SPEC_643 SPEC_647 SPEC_650 SPEC_653 SPEC_657 SPEC_660 SPEC_663 SPEC_667 SPEC_670 SPEC_673 SPEC_677 SPEC_680 SPEC_683 SPEC_687 SPEC_690 SPEC_693 SPEC_697 SPEC_700 SPEC_703 SPEC_707 SPEC_710 SPEC_713 SPEC_717 SPEC_720 SPEC_723 SPEC_727 SPEC_730 
END_DATA_FORMAT

NUMBER_OF_SETS 210
BEGIN_DATA
1 "C6" 100.0000 100.0000 100.0000 82.48347 86.19547 74.93842 65.92407 65.92407 65.92407 65.92407 65.92407 65.92407 65.92407 65.94484 65.94833 65.90305 65.77753 65.73576 65.94232 75.34820 81.50926 85.03854 86.82511 87.72994 88.27061 88.77107 89.34255 90.07010 90.97990 92.02182 93.22351 94.83143 97.08191 99.49801 101.1716 101.7660 101.0810 99.17506 96.55529 94.13626 92.26418 90.92240 89.97471 89.28032 88.74126 88.31538 87.99655 87.74470 87.48226 87.20882 86.98619 86.78417 86.60508 86.44881 86.31341 86.18847 86.04415 85.87154 85.64236 85.40223 85.19646 85.09009 85.02568 84.97031 84.83571 84.64491 84.48316 84.38209 84.31976 84.27865 84.22226 84.18057 84.16719 84.17222 84.19142 84.22042 84.25697 84.29348 84.35607 84.46551 84.56317 84.66118 84.78496 84.92936 85.10642 85.29660 85.46965 85.68347 85.94597 86.20551 86.42072 86.57872 86.74373 86.82939 86.87272 87.00261 87.10330 87.19574 87.30274 87.43456 87.52479 87.57170 87.82776 87.96094 88.02409 88.02303 88.04265 88.17869 88.23795 88.24581 88.31225 88.52116 
2 "F15" 0.00000 31.54498 19.63836 2.326328 3.853232 3.692003 3.411035 3.411035 3.411035 3.411035 3.411035 3.411035 3.411035 3.412144 3.412359 3.410050 3.403590 3.401463 3.412173 3.702725 3.883485 3.953266 3.941496 3.902720 3.863310 3.832578 3.812917 3.812094 3.839515 3.884101 3.957364 4.056065 4.163243 4.329255 4.496498 4.662046 4.924003 5.385338 6.011886 6.766749 7.637068 8.456177 9.113325 9.520825 9.650968 9.523911 9.205613 8.818771 8.421924 8.047019 7.686269 7.302091 6.859159 6.330972 5.716273 5.041627 4.349858 3.689026 3.093909 2.579257 2.156548 1.817081 1.542650 1.324539 1.154880 1.018756 0.915400 0.849165 0.809608 0.789575 0.780201 0.781967 0.795721 0.823049 0.865515 0.925247 1.010650 1.127294 1.281382 1.472572 1.706762 1.991979 2.331381 2.719344 3.160399 3.630054 4.131520 4.671986 5.234029 5.802296 6.369963 6.945628 7.544552 8.191798 8.901965 9.690926 10.59583 11.63907 12.82319 14.13637 15.59595 17.13611 18.77666 20.49182 22.24372 24.06746 25.89500 27.80316 29.62156 31.42550 33.26534 35.10780 
3 "A10" 0.00000 19.55749 34.53422 2.306035 2.791875 4.729190 4.948994 4.948994 4.948994 4.948994 4.948994 4.948994 4.948994 4.950794 4.951300 4.948147 4.938971 4.936086 4.951836 5.419354 5.732582 5.871850 5.881489 5.827897 5.754716 5.689610 5.639169 5.607799 5.603096 5.608924 5.631055 5.647343 5.674563 5.718115 5.718389 5.797513 5.821604 5.937894 6.170623 6.470339 6.832174 7.079338 7.131157 6.993224 6.660732 6.225798 5.774684 5.372925 5.041322 4.769553 4.545353 4.338558 4.110104 3.827011 3.491419 3.115583 2.716949 2.342210 2.013026 1.741145 1.521492 1.337528 1.189371 1.077301 0.979184 0.903896 0.853324 0.816004 0.790373 0.776344 0.776153 0.788220 0.806281 0.828869 0.874037 0.938846 1.020977 1.141058 1.298610 1.493182 1.732494 2.015135 2.359725 2.760589 3.202192 3.688608 4.213722 4.760150 5.332227 5.910515 6.485920 7.077596 7.683677 8.335304 9.060064 9.866742 10.77706 11.83166 12.99675 14.33724 15.81414 17.35606 19.06632 20.82242 22.66645 24.52112 26.35021 28.17157 30.05568 31.91408 33.71694 35.48642 
4 "B6" 58.59770 86.10971 69.36141 36.75942 45.93229 34.37419 27.77453 27.77453 27.77453 27.77453 27.77453 27.77453 27.77453 27.78260 27.78339 27.76362 27.71004 27.69174 27.77805 32.00417 34.76404 36.23093 36.84999 37.12094 37.29757 37.51311 37.80550 38.24410 38.87318 39.62492 40.54102 41.73595 43.24573 44.96014 46.53606 47.86778 48.96431 49.93016 50.96252 52.28257 53.93082 55.80443 57.76826 59.55142 60.94593 61.91924 62.46958 62.68405 62.61051 62.27587 61.75153 61.04859 60.13562 58.98337 57.58293 55.94444 54.07949 52.03131 49.84557 47.58061 45.28618 43.01490 40.76887 38.59711 36.51719 34.61433 32.97447 31.64063 30.60125 29.84831 29.35831 29.11183 29.10508 29.32659 29.76661 30.42721 31.30050 32.36562 33.59513 34.95744 36.40920 37.91667 39.46000 41.01358 42.56024 44.05950 45.48346 46.83151 48.13748 49.40454 50.57560 51.66404 52.70724 53.73302 54.83916 56.01124 57.19678 58.38921 59.66123 61.00711 62.38488 63.72918 65.14195 66.49136 67.71941 68.87039 69.97301 71.07332 72.14053 73.05742 73.90114 74.82189 
5 "I12" 36.31952 9.677272 36.17609 8.974997 5.971610 4.650606 5.473243 5.473243 5.473243 5.473243 5.473243 5.473243 5.473243 5.474934 5.475189 5.471395 5.460939 5.457434 5.474529 6.027141 6.354048 6.460482 6.412193 6.291910 6.152899 6.028829 5.920763 5.822765 5.742561 5.683285 5.618180 5.542538 5.457661 5.310341 5.198901 5.125505 5.040038 5.013824 5.066216 5.227814 5.345743 5.391304 5.320070 5.136375 4.843235 4.494676 4.169070 3.911414 3.739174 3.634562 3.588081 3.578482 3.559327 3.504993 3.399845 3.245468 3.062415 2.883477 2.730865 2.642587 2.637925 2.729064 2.919965 3.206027 3.571257 4.004264 4.487474 5.012664 5.576650 6.167221 6.779329 7.417287 8.083994 8.796430 9.562154 10.40996 11.35443 12.39451 13.53720 14.78340 16.10608 17.49026 18.91979 20.36770 21.82159 23.27114 24.67195 26.01908 27.31153 28.54216 29.69809 30.81667 31.94365 33.07677 34.29587 35.59407 36.95836 38.43150 40.01962 41.70697 43.45828 45.21629 47.09391 48.92114 50.69594 52.48637 54.19128 55.95525 57.65830 59.12376 60.55328 62.09917 
6 "N11" 100.0000 100.0000 100.0000 82.24839 85.91849 74.79182 63.90556 63.90556 63.90556 63.90556 63.90556 63.90556 63.90556 63.92548 63.92865 63.88453 63.76263 63.72192 63.92198 73.83646 80.44481 84.25820 86.23520 87.28471 87.91004 88.49399 89.18527 90.04912 91.06214 92.14808 93.34715 94.94990 97.30855 99.82584 101.5465 102.2661 101.6294 99.48080 96.62912 94.03351 92.00829 90.60420 89.65090 88.92212 88.35037 87.91411 87.59244 87.36018 87.10030 86.81952 86.60167 86.39934 86.24299 86.10374 85.98606 85.87369 85.73520 85.57836 85.35432 85.11710 84.91086 84.79969 84.72436 84.68693 84.55885 84.35414 84.18805 84.09484 84.02918 83.99112 83.94464 83.91340 83.90662 83.92278 83.94879 83.98998 84.02441 84.07695 84.14735 84.26609 84.37093 84.48707 84.61868 84.77435 84.96970 85.17610 85.37134 85.57488 85.81347 86.10408 86.33995 86.51936 86.67127 86.74085 86.81312 86.93820 87.07421 87.18669 87.31219 87.43688 87.52396 87.45837 87.65344 87.85049 87.91272 87.99200 87.96551 88.11293 88.26199 88.32711 88.45409 88.68931 
7 "L5" 70.64317 82.40940 93.62173 50.63189 54.19114 60.65134 52.53529 52.53529 52.53529 52.53529 52.53529 52.53529 52.53529 52.55273 52.55640 52.52122 52.42210 52.38973 52.55539 61.31951 67.19654 70.57653 72.29450 73.15496 73.61104 73.98497 74.37542 74.84703 75.38516 75.86665 76.38932 77.17595 78.45724 79.87420 80.58166 80.48729 79.37983 77.21095 74.65841 72.36797 70.50396 69.04047 67.86406 66.79967 65.71379 64.66540 63.70907 62.92310 62.25041 61.66792 61.16132 60.67948 60.16083 59.50171 58.67882 57.67223 56.50646 55.24018 53.90057 52.56088 51.26834 50.06202 48.89500 47.77433 46.65616 45.58480 44.67243 43.96716 43.45630 43.13589 42.98520 43.01195 43.21337 43.58745 44.12202 44.83413 45.70777 46.72175 47.85276 49.09473 50.38683 51.71306 53.03278 54.35445 55.68194 56.98141 58.17367 59.32602 60.44123 61.46243 62.38934 63.27686 64.08821 64.86514 65.67272 66.52027 67.39946 68.30193 69.30044 70.34226 71.32803 72.21069 73.25337 74.13449 75.00956 75.93678 76.59577 77.43912 78.24837 78.75573 79.35368 80.19267 
8 "K12" 81.60983 36.98939 30.78050 35.37496 27.21086 6.279118 5.593889 5.593889 5.593889 5.593889 5.593889 5.593889 5.593889 5.594049 5.592723 5.587241 5.574941 5.569721 5.585508 6.280222 6.647957 6.748574 6.684743 6.563047 6.441910 6.355717 6.311390 6.320262 6.384823 6.492562 6.656457 6.870616 7.133591 7.427746 7.757055 8.129990 8.587086 9.178769 10.07505 11.14798 12.25235 13.38296 14.44360 15.26413 15.77097 16.03271 16.12903 16.16412 16.22052 16.36528 16.61791 16.92759 17.22257 17.42574 17.49585 17.41584 17.26366 17.15390 17.19907 17.51609 18.18838 19.26518 20.72346 22.53009 24.61828 26.94283 29.46776 32.16057 34.93547 37.72540 40.44064 43.01626 45.41216 47.62904 49.66015 51.52596 53.26651 54.90567 56.44446 57.93724 59.35126 60.69233 61.97642 63.21463 64.40820 65.53243 66.54041 67.45728 68.31668 69.15719 69.89773 70.53621 71.22460 71.95035 72.66548 73.43641 74.18073 74.95279 75.83294 76.73162 77.58370 78.29149 79.24887 80.09463 80.82478 81.70014 82.35252 83.07663 83.83720 84.31164 84.77260 85.50346 
9 "E6" 10.43259 50.62333 61.71969 7.117085 10.40206 18.74255 15.29268 15.29268 15.29268 15.29268 15.29268 15.29268 15.29268 15.29810 15.29952 15.28964 15.26115 15.25209 15.30070 18.01274 19.95504 21.08279 21.63408 21.89913 22.03993 22.16019 22.27454 22.42587 22.66187 22.93836 23.25993 23.63239 24.06889 24.50147 24.82349 25.07917 25.20429 25.25854 25.41221 25.67739 26.01120 26.21749 26.17978 25.77661 25.04488 24.09838 23.04629 22.02345 21.05885 20.14754 19.27214 18.35563 17.32959 16.14888 14.80699 13.34432 11.82153 10.30883 8.863231 7.536780 6.352345 5.311166 4.416937 3.671585 3.066362 2.588434 2.235096 1.985801 1.818465 1.713987 1.664040 1.658912 1.689626 1.758670 1.877418 2.048042 2.279516 2.568360 2.930633 3.381185 3.913586 4.516822 5.190151 5.923190 6.732739 7.589349 8.463440 9.345344 10.24216 11.14042 12.02600 12.90316 13.74802 14.62816 15.57863 16.62146 17.81844 19.14281 20.59121 22.19147 23.93178 25.72474 27.63007 29.54063 31.53488 33.46534 35.39064 37.34906 39.23471 41.06016 42.85618 44.73929 
10 "L14" 93.49660 21.73190 61.04677 40.14366 24.96536 14.94985 16.82820 16.82820 16.82820 16.82820 16.82820 16.82820 16.82820 16.83297 16.83333 16.82122 16.78864 16.77742 16.82958 19.40326 20.89282 21.47596 21.46376 21.16201 20.75485 20.35294 19.96341 19.59347 19.23379 18.85649 18.51689 18.18877 17.87608 17.53752 16.99307 16.35384 15.64097 14.94628 14.36267 13.87258 13.42802 12.91514 12.32313 11.58183 10.74342 9.902804 9.166055 8.625145 8.299142 8.190193 8.254168 8.420382 8.605725 8.737558 8.777434 8.711902 8.590698 8.505855 8.571892 8.909755 9.626175 10.81962 12.54616 14.83639 17.67186 21.02674 24.86118 29.12803 33.72996 38.55568 43.42374 48.19783 52.73325 56.90837 60.64657 63.93319 66.77582 69.21227 71.26771 73.03877 74.52132 75.79097 76.88678 77.84683 78.74454 79.55190 80.21991 80.81044 81.36767 81.92905 82.42812 82.87983 83.30302 83.63870 84.06671 84.52903 84.95814 85.34760 85.82291 86.29071 86.67755 86.96649 87.45787 87.85218 88.20976 88.66638 88.96339 89.42536 89.76174 89.89713 90.18526 90.63561 
11 "A1" 14.28550 14.28550 14.28550 3.284409 3.142842 2.474927 2.953581 2.953581 2.953581 2.953581 2.953581 2.953581 2.953581 2.954523 2.954690 2.952672 2.947058 2.945196 2.954440 3.068400 3.140848 3.124236 3.060627 2.981258 2.903121 2.839088 2.783700 2.737188 2.711666 2.692900 2.690259 2.712791 2.730448 2.804293 2.869576 2.890440 2.995571 3.197916 3.430387 3.742871 4.082033 4.390443 4.644694 4.776484 4.774015 4.662162 4.500018 4.332127 4.190585 4.077897 3.988570 3.915358 3.818293 3.666533 3.452076 3.188038 2.885297 2.589294 2.328322 2.115309 1.957306 1.840758 1.758531 1.708231 1.667665 1.635033 1.622162 1.623096 1.635456 1.665927 1.715284 1.784914 1.877115 1.997245 2.163973 2.376617 2.642602 2.977660 3.392783 3.893594 4.468222 5.117240 5.846801 6.628689 7.461135 8.331503 9.222863 10.12392 11.02561 11.89863 12.75082 13.58342 14.43153 15.34873 16.36138 17.44016 18.60569 19.91239 21.36178 22.96606 24.72148 26.52312 28.40868 30.34727 32.28541 34.22610 36.17177 38.03858 39.95061 41.81969 43.55196 45.23576 
12 "J2" 71.42901 71.42901 71.42901 43.99685 45.54686 33.65730 29.72053 29.72053 29.72053 29.72053 29.72053 29.72053 29.72053 29.72936 29.73039 29.70942 29.65228 29.63289 29.72544 34.11068 36.87054 38.28318 38.81153 38.95390 38.97340 39.01189 39.10489 39.31949 39.66232 40.05975 40.58619 41.26982 42.21466 43.33663 44.24220 44.87360 45.23597 45.35553 45.48410 45.86351 46.47376 47.15656 47.84581 48.33086 48.54244 48.52660 48.31059 48.08320 47.87628 47.72996 47.67459 47.64555 47.56687 47.33345 46.90214 46.27466 45.49571 44.65578 43.83110 43.12381 42.56992 42.19057 41.93303 41.75945 41.59455 41.45594 41.41026 41.48232 41.65972 41.94047 42.29745 42.73625 43.26656 43.90295 44.64503 45.50490 46.48076 47.57577 48.75484 50.01369 51.30242 52.61891 53.92727 55.23192 56.53173 57.79480 58.96602 60.07696 61.13616 62.09734 62.95310 63.78923 64.64218 65.46099 66.27403 67.12707 68.01720 68.93921 69.94756 70.93207 71.90237 72.79954 73.84221 74.83794 75.76579 76.69544 77.37374 78.13023 79.01475 79.63301 80.10588 80.71942 
13 "K15" 0.00000 57.14656 27.48608 3.321145 7.763350 5.950665 4.329583 4.329583 4.329583 4.329583 4.329583 4.329583 4.329583 4.330815 4.330908 4.327798 4.319416 4.316531 4.329942 4.799138 5.114407 5.277613 5.332360 5.337126 5.330985 5.342549 5.382619 5.462994 5.598913 5.792503 6.030201 6.311058 6.667802 7.093224 7.551194 8.094612 8.837141 9.802316 11.12800 12.76042 14.57997 16.48738 18.30411 19.79932 20.80209 21.26199 21.25065 20.87631 20.22341 19.38120 18.40286 17.27810 15.99342 14.53427 12.93727 11.25330 9.564007 7.944681 6.455549 5.148887 4.050080 3.157999 2.447939 1.905337 1.502543 1.219576 1.020158 0.891061 0.806047 0.758998 0.738973 0.723865 0.719464 0.743219 0.780904 0.830072 0.912229 1.023918 1.162074 1.341291 1.569436 1.842208 2.172301 2.557885 2.990644 3.466627 3.982845 4.532394 5.085460 5.649025 6.220872 6.801831 7.427789 8.107375 8.818571 9.626718 10.51501 11.57798 12.79035 14.15418 15.63825 17.18532 18.90742 20.62377 22.41594 24.31912 26.12614 28.02280 29.96327 31.72264 33.53870 35.37400 
14 "J13" 0.00000 0.00000 0.00000 0.573236 0.520169 0.589108 0.946027 0.946027 0.946027 0.946027 0.946027 0.946027 0.946027 0.946356 0.946436 0.945817 0.944047 0.943478 0.946468 0.988974 0.974248 0.956674 0.934186 0.901480 0.867773 0.833795 0.799994 0.770425 0.741917 0.704831 0.659510 0.595786 0.522630 0.541177 0.594632 0.501634 0.463415 0.532818 0.516401 0.514571 0.547024 0.542965 0.587029 0.588680 0.582108 0.592273 0.587429 0.581858 0.574877 0.570953 0.567474 0.559483 0.546420 0.538693 0.525798 0.511601 0.503208 0.490799 0.473410 0.464525 0.452543 0.438475 0.428563 0.423832 0.417557 0.405362 0.397639 0.398064 0.401165 0.404183 0.406231 0.399720 0.390670 0.391788 0.391980 0.389825 0.397674 0.410825 0.427149 0.437900 0.444963 0.461495 0.472996 0.492325 0.532079 0.586549 0.635245 0.704236 0.794794 0.883193 1.030443 1.264999 1.601700 2.032901 2.602008 3.348908 4.373597 5.695236 7.341508 9.308039 11.59693 14.20743 17.12904 20.30659 23.69585 27.19296 30.57238 34.07300 37.67438 40.97854 44.11986 47.41103 
15 "A14" 57.14351 57.14351 57.14351 26.54231 27.53716 18.20549 15.32031 15.32031 15.32031 15.32031 15.32031 15.32031 15.32031 15.32452 15.32471 15.31355 15.28375 15.27339 15.32074 17.71461 19.21162 19.91919 20.11899 20.09914 20.03183 20.01772 20.06989 20.21761 20.50790 20.90623 21.40054 21.98195 22.67725 23.49216 24.21159 24.85251 25.47508 26.11148 26.86956 27.86317 29.01191 30.09274 30.93030 31.39882 31.46282 31.24148 30.86957 30.50803 30.23980 30.05723 29.97042 29.91319 29.77409 29.47522 28.97324 28.27714 27.45116 26.59828 25.79260 25.11423 24.58710 24.19173 23.88389 23.63246 23.39399 23.19006 23.05493 23.01953 23.09377 23.27664 23.56024 23.95039 24.45749 25.08859 25.86106 26.78626 27.86308 29.09368 30.45745 31.93173 33.47423 35.05123 36.65880 38.26830 39.85382 41.36891 42.80686 44.20160 45.55180 46.83134 48.00616 49.10180 50.20333 51.29858 52.48088 53.70258 54.93780 56.24501 57.62912 59.08539 60.57444 62.03839 63.56698 65.00697 66.34461 67.59604 68.85880 70.10389 71.26042 72.25440 73.15277 74.16038 
16 "L8" 42.85649 42.85649 42.85649 15.34440 15.74389 9.342823 7.954198 7.954198 7.954198 7.954198 7.954198 7.954198 7.954198 7.956245 7.956199 7.950264 7.934644 7.929121 7.953538 8.979989 9.628783 9.930837 9.984933 9.938398 9.879390 9.845459 9.856264 9.939856 10.10614 10.34939 10.66036 10.98706 11.35386 11.75940 12.14078 12.63374 13.15554 13.81121 14.71098 15.79836 16.90253 17.92128 18.69974 19.13173 19.22160 19.03361 18.69875 18.36811 18.11616 17.94628 17.84830 17.75103 17.58620 17.28615 16.83451 16.23299 15.53689 14.83920 14.19599 13.64723 13.20161 12.85490 12.57652 12.34346 12.12344 11.93447 11.81091 11.76531 11.80787 11.94728 12.17526 12.50185 12.92990 13.47190 14.13522 14.93991 15.88815 16.97845 18.20612 19.55692 20.99023 22.48446 24.01346 25.56100 27.12944 28.66454 30.11664 31.51689 32.87894 34.19338 35.41694 36.59766 37.77891 38.95510 40.23443 41.56671 42.95165 44.40019 45.97417 47.59901 49.26379 50.90397 52.67808 54.42083 56.12865 57.84680 59.32448 60.91535 62.41113 63.65597 64.93114 66.34213 
17 "E13" 28.57099 28.57099 28.57099 8.255305 8.271041 4.824711 4.444974 4.444974 4.444974 4.444974 4.444974 4.444974 4.444974 4.446132 4.446120 4.442818 4.434103 4.431031 4.444677 4.829843 5.089080 5.188102 5.161401 5.094844 5.028846 4.985499 4.966027 4.980784 5.053786 5.165710 5.299074 5.468511 5.640614 5.789910 6.006952 6.263004 6.632526 7.185531 7.847757 8.671366 9.533181 10.32094 10.93517 11.25167 11.26941 11.05735 10.72013 10.39583 10.13452 9.956860 9.846737 9.749704 9.607016 9.360289 8.979544 8.487476 7.924695 7.353042 6.826167 6.387988 6.051053 5.801294 5.629041 5.515676 5.429367 5.361319 5.326161 5.332757 5.387239 5.490007 5.646496 5.867813 6.147984 6.498985 6.950502 7.508052 8.170138 8.951944 9.849512 10.86739 11.98533 13.17765 14.43056 15.71781 17.04796 18.38444 19.68315 20.93498 22.15288 23.34520 24.49052 25.59352 26.68723 27.80518 29.00390 30.30189 31.68916 33.18347 34.79252 36.51237 38.30844 40.12593 42.07511 43.98766 45.85044 47.70141 49.48611 51.30927 53.11303 54.70806 56.18472 57.76448 
18 "G4" 0.00000 0.00000 0.00000 0.571848 0.516102 0.579785 0.943254 0.943254 0.943254 0.943254 0.943254 0.943254 0.943254 0.943581 0.943660 0.943042 0.941277 0.940709 0.943690 0.989630 0.997015 0.970655 0.941779 0.903935 0.871428 0.845385 0.811106 0.776195 0.732539 0.684364 0.641495 0.566047 0.522975 0.507366 0.491303 0.478108 0.445017 0.444368 0.490997 0.526693 0.505897 0.530489 0.577171 0.588674 0.594739 0.599043 0.602337 0.601005 0.586188 0.575384 0.573857 0.559753 0.550799 0.544152 0.525473 0.507835 0.495632 0.480154 0.463948 0.445496 0.430625 0.422858 0.413195 0.410773 0.404192 0.394606 0.392983 0.386524 0.391638 0.399232 0.401312 0.394375 0.387503 0.382461 0.386619 0.387402 0.387817 0.398152 0.412990 0.435060 0.450055 0.475364 0.488021 0.516666 0.555330 0.588351 0.650462 0.728336 0.812831 0.937293 1.114959 1.340438 1.646408 2.120800 2.710854 3.498767 4.565968 5.922895 7.524473 9.509870 11.83947 14.49103 17.41545 20.51666 23.94887 27.39517 30.83623 34.42692 37.88740 41.24213 44.57976 47.81753 
19 "D5" 0.00000 0.00000 100.0000 4.854579 2.229497 19.64097 23.94229 23.94229 23.94229 23.94229 23.94229 23.94229 23.94229 23.95176 23.95498 23.94050 23.89691 23.88376 23.96095 28.73214 32.21661 34.17606 34.84908 34.71115 34.08047 33.14492 31.95836 30.48785 28.65548 26.54638 24.43568 22.40944 20.43440 18.44517 16.31839 14.30081 12.46281 10.67820 9.090554 7.839328 6.762565 5.806363 4.981350 4.243872 3.613655 3.071032 2.666211 2.381314 2.159001 2.014021 1.921026 1.831380 1.752057 1.665993 1.548403 1.416775 1.271401 1.134705 1.021130 0.934143 0.860951 0.804771 0.770585 0.742154 0.718428 0.702547 0.686939 0.676533 0.682275 0.695394 0.708189 0.721940 0.753289 0.793213 0.840991 0.900663 0.986110 1.109436 1.268089 1.472741 1.717833 2.014400 2.353600 2.746605 3.209224 3.713376 4.254865 4.830789 5.443359 6.041957 6.646981 7.243550 7.813412 8.421602 9.089231 9.847992 10.72859 11.76176 12.99387 14.31804 15.78100 17.33242 18.98816 20.75730 22.49038 24.36307 26.24376 28.04739 29.85931 31.73152 33.65622 35.48671 
20 "G3" 0.00000 100.0000 0.00000 4.140816 12.44771 2.698076 1.524715 1.524715 1.524715 1.524715 1.524715 1.524715 1.524715 1.524517 1.523910 1.522166 1.518562 1.516883 1.520913 1.597166 1.626716 1.622935 1.608747 1.580841 1.553718 1.534864 1.521169 1.519366 1.522735 1.532553 1.563917 1.611653 1.713752 1.861956 2.041218 2.326851 2.734299 3.326683 4.315184 5.676116 7.514224 10.03642 13.37542 17.60694 22.53074 27.61246 32.11661 35.41089 37.09407 37.23353 36.14312 34.12443 31.48764 28.45512 25.19226 21.83673 18.50022 15.29600 12.33191 9.680155 7.414484 5.566680 4.125934 3.050172 2.281429 1.754551 1.402794 1.162615 1.016194 0.930698 0.879868 0.851392 0.840225 0.845654 0.873439 0.923830 0.992314 1.099283 1.244933 1.426895 1.651140 1.941792 2.267377 2.659345 3.088221 3.548490 4.064105 4.611985 5.161495 5.739905 6.329794 6.904483 7.500607 8.194985 8.929903 9.724347 10.65000 11.72847 12.90967 14.28443 15.76489 17.34977 19.00348 20.72748 22.67226 24.49507 26.26173 28.19248 30.08613 31.87968 33.66019 35.47548 
21 "D12" 100.0000 0.00000 100.0000 39.25434 19.35481 24.78743 36.53447 36.53447 36.53447 36.53447 36.53447 36.53447 36.53447 36.54762 36.55120 36.52779 36.45991 36.43847 36.55477 42.81767 46.46052 47.63872 47.05646 45.54410 43.62295 41.57747 39.43867 37.12628 34.53946 31.75995 29.10631 26.65814 24.28678 21.90739 19.40267 16.91389 14.54697 12.30405 10.27638 8.594106 7.213730 6.069300 5.092787 4.229688 3.503611 2.888770 2.451517 2.170762 2.001778 1.943875 1.958782 2.006623 2.072014 2.124189 2.126889 2.085533 2.007609 1.944781 1.950273 2.076982 2.377139 2.932656 3.863371 5.267152 7.256738 9.941614 13.38886 17.63991 22.65529 28.30343 34.39208 40.70534 47.02698 53.10843 58.74487 63.81459 68.26444 72.09499 75.30101 77.96831 80.11024 81.83577 83.21620 84.34062 85.28728 86.07567 86.69993 87.24649 87.76187 88.23640 88.63326 88.95563 89.29038 89.58880 89.83544 90.07566 90.32087 90.59630 90.88856 91.11383 91.30249 91.44536 91.74171 91.97302 92.06450 92.29646 92.42447 92.55078 92.65124 92.66934 92.81411 93.07777 
22 "J3" 100.0000 0.00000 0.00000 34.15510 18.15229 1.082935 1.524029 1.524029 1.524029 1.524029 1.524029 1.524029 1.524029 1.522975 1.521503 1.518888 1.514407 1.511836 1.514937 1.548148 1.536267 1.503095 1.457487 1.406496 1.355047 1.308022 1.264952 1.229888 1.203583 1.165977 1.115174 1.072986 1.022432 1.014469 1.026481 0.982241 1.016072 1.136527 1.277100 1.419729 1.581200 1.725155 1.903778 2.060186 2.187500 2.270523 2.309974 2.347910 2.379216 2.421239 2.484080 2.555781 2.621261 2.659513 2.654815 2.609903 2.541111 2.482377 2.475064 2.569846 2.823708 3.311878 4.125113 5.374027 7.163451 9.601066 12.77268 16.71635 21.40925 26.75872 32.57839 38.68424 44.86801 50.92854 56.65413 61.89882 66.56522 70.61536 74.02485 76.85729 79.14013 80.98613 82.45451 83.62474 84.59500 85.40481 86.02672 86.53920 87.00227 87.42069 87.77223 88.11030 88.48921 88.82363 89.07368 89.34458 89.59805 89.83671 90.11336 90.32310 90.50082 90.58001 90.91522 91.23087 91.48776 91.71271 91.76039 92.02733 92.39004 92.44933 92.48220 92.82498 
