Epson_XP-960/PermaJet/Oyster_271/PermaJet_Oyster_271_XP-960.ti1
CTI1   

DESCRIPTOR "Argyll Calibration Target chart information 1"
ORIGINATOR "Argyll targen"
CREATED "Fri Sep 14 17:56:26 2018"
APPROX_WHITE_POINT "95.106486 100.000000 108.844025"
COLOR_REP "iRGB"
WHITE_COLOR_PATCHES "8"
BLACK_COLOR_PATCHES "4"
COMP_GREY_STEPS "8"
OFPS_PATCHES "192"

NUMBER_OF_FIELDS 7
BEGIN_DATA_FORMAT
SAMPLE_ID RGB_R RGB_G RGB_B XYZ_X XYZ_Y XYZ_Z 
END_DATA_FORMAT

NUMBER_OF_SETS 210
BEGIN_DATA
1 100.0000 100.0000 100.0000 95.10649 100.0000 108.8440 
2 0.00000 31.54500 19.63760 4.443825 6.972187 4.968290 
3 0.00000 19.55821 34.53497 3.870562 3.946096 10.57431 
4 58.59767 86.11022 69.36120 46.42299 60.95799 51.30632 
5 36.31976 9.677404 36.17665 7.691767 4.728544 11.45127 
6 100.0000 100.0000 100.0000 95.10649 100.0000 108.8440 
7 70.64253 82.41015 93.62110 57.90754 62.47944 90.53575 
8 81.61046 36.98866 30.78076 32.15396 22.82716 10.80204 
9 10.43214 50.62344 61.71949 15.27931 19.21424 35.52366 
10 93.49728 21.73245 61.04632 43.33448 24.18056 34.24669 
11 14.28571 14.28571 14.28571 2.694563 2.782680 2.941933 
12 71.42857 71.42857 71.42857 45.09852 47.39164 51.53597 
13 0.00000 57.14671 27.48637 12.23220 21.70573 10.15821 
14 0.00000 0.00000 0.00000 1.000000 1.000000 1.000000 
15 57.14286 57.14286 57.14286 27.93428 29.33486 31.86611 
16 42.85714 42.85714 42.85714 15.47169 16.22421 17.58425 
17 28.57143 28.57143 28.57143 7.245259 7.570011 8.156934 
18 0.00000 0.00000 0.00000 1.000000 1.000000 1.000000 
19 0.00000 0.00000 100.0000 18.87111 8.147314 95.12896 
20 0.00000 100.0000 0.00000 36.40521 71.80052 12.80184 
21 100.0000 0.00000 100.0000 59.70128 29.19948 97.04219 
22 100.0000 0.00000 0.00000 41.83017 22.05217 2.913230 
23 100.0000 100.0000 0.00000 77.23538 92.85269 14.71507 
24 0.00000 100.0000 100.0000 54.27632 78.94783 106.9308 
25 0.00000 26.35718 100.0000 20.87078 12.14610 95.79552 
26 100.0000 0.00000 51.67409 45.93811 23.69508 24.55016 
27 100.0000 76.06452 0.00000 60.92274 60.23196 9.277473 
28 0.00000 100.0000 37.63199 38.49385 72.63584 23.80293 
29 35.68656 100.0000 0.00000 40.67679 74.00296 13.00199 
30 50.84579 0.00000 100.0000 27.93350 12.81991 95.55361 
31 0.00000 71.47556 0.00000 17.61530 34.22595 6.538479 
32 0.00000 0.00000 75.20497 10.39521 4.757489 50.48551 
33 100.0000 51.49507 100.0000 67.77866 45.35199 99.73467 
34 48.89054 0.00000 0.00000 9.325905 5.292863 1.390137 
35 100.0000 100.0000 49.92939 81.04886 94.37784 34.80107 
36 36.42796 100.0000 100.0000 58.73477 81.24662 107.1397 
37 0.00000 73.47717 100.0000 36.54227 43.48469 101.0194 
38 100.0000 25.35366 0.00000 43.68198 25.75528 3.530507 
39 68.75279 100.0000 0.00000 53.97983 80.86205 13.62535 
40 100.0000 24.32671 43.25659 46.34050 26.58735 18.24611 
41 51.08222 25.42791 0.00000 12.01645 9.444324 2.049784 
42 27.40461 49.59955 100.0000 28.81096 24.32545 97.72830 
43 46.29696 100.0000 24.96791 44.71679 75.98110 17.92563 
44 48.39628 0.00000 48.51987 12.73035 6.633557 20.26359 
45 0.00000 44.55458 49.56587 10.66835 14.32883 22.74286 
46 0.00000 46.04137 0.00000 7.345057 13.68834 3.115037 
47 0.00000 0.00000 48.97828 4.658320 2.463097 20.26875 
48 0.00000 100.0000 68.36744 44.00205 74.83877 52.81516 
49 57.56565 50.42184 100.0000 38.46447 29.70287 98.25786 
50 72.38692 100.0000 100.0000 73.98648 89.11045 107.8544 
51 100.0000 25.67915 100.0000 61.60032 32.99704 97.67521 
52 100.0000 53.48854 41.32593 53.14625 40.61135 19.23667 
53 100.0000 100.0000 26.16141 78.22991 93.25044 19.95336 
54 74.79435 0.00000 0.00000 22.20407 11.93289 1.993586 
55 50.88357 75.72646 0.00000 28.98018 43.48123 7.726450 
56 75.31499 0.00000 100.0000 40.40665 19.25111 96.13808 
57 51.30812 100.0000 51.26952 49.68561 78.18081 34.50619 
58 100.0000 0.00000 24.96834 42.73712 22.41489 7.690221 
59 0.00000 75.42680 75.59210 29.23999 42.26817 57.30259 
60 100.0000 51.40425 0.00000 49.87670 38.14297 5.595429 
61 0.00000 49.51051 74.26437 17.55330 19.48867 51.58553 
62 100.0000 0.00000 75.46609 51.29850 25.83890 52.78388 
63 0.00000 72.44971 50.46729 22.02733 36.80499 27.26518 
64 27.56684 0.00000 75.84098 13.09572 6.129218 51.54480 
65 78.28286 66.20506 100.0000 56.36840 48.28035 100.9009 
66 74.21156 51.73583 0.00000 29.99610 28.06016 4.696228 
67 0.00000 0.00000 23.25650 1.789427 1.315721 5.157993 
68 23.66866 0.00000 24.44610 3.736358 2.310235 5.670283 
69 24.73295 52.49002 0.00000 11.45384 18.88621 3.901976 
70 100.0000 26.42362 74.92291 53.15646 29.79705 52.65457 
71 23.42622 100.0000 79.24865 48.79934 76.96897 68.53382 
72 37.37047 25.15857 100.0000 25.39773 14.21925 95.95727 
73 100.0000 73.04928 77.57866 69.34453 60.96000 61.77818 
74 18.53544 100.0000 22.32257 38.30729 72.69688 16.69802 
75 24.44099 0.00000 0.00000 2.987073 2.024542 1.093111 
76 100.0000 100.0000 76.37543 86.96093 96.74229 65.94054 
77 74.70495 0.00000 38.59336 24.34958 12.78441 13.58973 
78 70.87778 87.87261 36.70325 48.19952 64.30424 21.12615 
79 100.0000 36.72141 22.43144 46.49766 30.20815 8.101093 
80 24.84324 100.0000 52.29700 42.67313 74.54461 35.10498 
81 77.23659 0.00000 80.03662 34.58719 17.06822 58.96375 
82 100.0000 77.54808 100.0000 79.63793 69.06722 103.6878 
83 24.73771 0.00000 51.60982 7.131527 3.687566 22.67394 
84 54.85069 36.39169 53.09444 19.90113 15.96731 25.73623 
85 32.93110 70.67995 38.74796 23.04435 36.16105 18.26824 
86 76.87804 76.85161 0.00000 43.08650 51.69623 8.569230 
87 0.00000 51.06936 100.0000 26.80445 24.01179 97.77343 
88 12.77218 67.34990 62.34815 22.35997 32.90195 38.51041 
89 100.0000 100.0000 100.0000 95.10649 100.0000 108.8440 
90 100.0000 71.93973 26.38681 59.69855 56.16558 13.86045 
91 0.00000 83.74128 21.89207 25.39545 48.66023 12.59785 
92 52.13489 0.00000 73.42803 19.47435 9.495267 48.35908 
93 53.75635 75.88469 100.0000 48.08959 51.39837 101.9388 
94 31.44621 76.12867 59.60721 29.03094 43.19294 37.08521 
95 85.71429 85.71429 85.71429 67.36889 70.82005 77.05733 
96 40.59351 12.19449 61.29978 13.05172 7.247314 32.85717 
97 26.07100 24.87241 0.00000 5.039911 5.729538 1.700164 
98 24.78972 0.00000 100.0000 20.91418 9.200729 95.22469 
99 0.00000 22.40031 0.00000 2.454531 3.908656 1.484848 
100 76.25473 100.0000 54.02456 63.07165 85.02643 37.67287 
101 72.80839 29.59450 100.0000 41.36074 23.48676 96.90543 
102 57.89192 64.70501 38.50552 28.53706 34.71498 17.54731 
103 40.12911 41.04432 85.51009 23.96564 18.76357 68.94044 
104 54.09385 35.06921 28.56352 16.12464 13.96274 8.919793 
105 76.18154 0.00000 59.29895 28.64156 14.61040 31.25530 
106 76.33292 26.43536 0.00000 25.20378 16.46481 2.710389 
107 73.77366 41.82549 84.33535 38.88410 26.80055 67.68848 
108 49.35813 100.0000 78.91862 55.37033 80.36839 68.32768 
109 75.21653 100.0000 24.99642 58.78679 83.23540 18.59557 
110 100.0000 76.90855 52.93907 65.72980 62.91856 32.24038 
111 46.13609 29.20754 70.51140 18.94269 12.95557 45.02060 
112 26.69277 77.92697 100.0000 41.39156 49.67227 101.9584 
113 49.22528 49.36693 0.00000 16.82178 20.09921 3.853400 
114 47.35376 0.00000 24.64867 9.656721 5.361152 6.021791 
115 100.0000 50.03201 67.49942 56.80318 40.18065 44.33692 
116 9.792811 92.11770 10.79436 30.98345 60.04740 11.87741 
117 49.33305 59.66165 72.30857 29.23450 31.09378 50.44054 
118 28.21474 25.56483 56.39996 10.49497 8.114383 27.93155 
119 100.0000 100.0000 100.0000 95.10649 100.0000 108.8440 
120 88.44759 19.32395 13.89621 33.31582 19.25753 4.430679 
121 81.71699 85.98541 66.60406 59.17634 67.48948 48.35352 
122 64.99626 12.43844 68.56686 24.66584 13.06563 42.16809 
123 74.47653 0.00000 19.39201 22.56153 12.05261 4.924945 
124 24.65405 19.00470 72.81537 12.82780 7.668357 47.49138 
125 82.18105 55.69598 43.63301 39.62673 34.80466 20.45965 
126 19.42106 72.80386 21.20851 20.25210 36.54263 10.31296 
127 73.97732 27.97619 46.22557 27.17250 17.46368 19.73441 
128 34.84278 44.18714 66.11137 17.92734 17.53626 40.27021 
129 38.61590 37.53930 14.03072 10.46590 11.95407 4.251264 
130 23.61423 79.28806 0.00000 23.81181 43.85985 8.071745 
131 50.49951 74.70746 55.17663 33.00637 44.17184 32.48712 
132 45.81302 74.01501 81.57189 37.47441 45.15913 66.70426 
133 40.83857 19.86102 23.22815 8.612470 6.550759 5.799365 
134 74.54522 100.0000 77.39147 67.46945 86.65863 66.55244 
135 87.26995 46.90525 14.87708 37.93704 29.80497 6.425427 
136 17.84513 38.07489 13.70347 6.633722 10.16368 4.042508 
137 19.93998 31.32056 93.06377 20.35449 13.42438 81.96029 
138 79.44196 47.18063 64.58025 38.65220 29.56328 39.63146 
139 87.37146 87.95033 14.37343 57.85641 69.55338 12.94336 
140 31.74863 89.36728 38.93390 34.03656 58.49441 22.11805 
141 71.56034 16.36469 29.60167 22.29605 13.03555 8.880052 
142 19.16209 39.48871 52.77784 11.12672 12.51873 25.23759 
143 38.23795 68.66048 12.61650 21.38897 34.03234 7.667779 
144 12.83112 67.10094 87.41600 29.22600 35.45792 75.23757 
145 0.00000 25.66936 68.67978 10.57178 7.863879 42.05314 
146 67.92097 31.01456 64.68418 27.59951 18.05524 38.11728 
147 27.90210 54.55861 19.68632 13.31682 20.87700 7.198960 
148 54.12194 87.87560 89.12735 51.55738 64.67569 82.79404 
149 39.56523 26.90687 43.33547 11.19885 9.025221 16.76408 
150 100.0000 100.0000 100.0000 95.10649 100.0000 108.8440 
151 85.71109 64.32826 61.15377 48.87992 44.51701 38.00042 
152 13.13339 80.87095 38.85642 25.77542 46.02553 20.09713 
153 53.12335 75.85542 23.22244 30.72904 44.39892 11.93836 
154 14.57516 60.42062 42.79796 15.95427 25.39085 19.28597 
155 91.22339 62.65978 15.27112 46.91790 43.04967 8.594204 
156 87.80490 86.52047 44.43480 59.87597 68.86210 26.56020 
157 89.96886 40.01233 50.02521 41.66163 28.50852 24.24387 
158 81.14314 21.64962 73.53139 36.74965 20.42114 49.70513 
159 62.12120 62.92172 86.22464 40.33732 38.39137 73.11211 
160 34.36400 56.88010 50.60705 18.90772 24.66726 25.20940 
161 69.55690 16.70751 12.95263 20.14818 12.08971 3.559156 
162 56.30154 31.60917 88.17091 28.63077 17.97308 73.24837 
163 34.11912 86.29617 19.87123 30.82987 53.94054 12.71213 
164 92.76677 44.85204 83.41995 53.28661 35.49149 67.06074 
165 61.16373 47.17362 72.50695 29.91153 24.82627 49.47164 
166 86.49439 16.73355 90.16872 45.36536 23.49221 77.09130 
167 100.0000 100.0000 100.0000 95.10649 100.0000 108.8440 
168 13.16072 47.10511 87.54242 21.52119 19.94187 72.87410 
169 73.08850 70.65136 19.37125 37.88769 43.98508 10.27579 
170 53.08953 12.90719 11.14406 11.70134 7.288676 2.764346 
171 66.46680 37.76021 13.09062 21.74853 17.85099 4.612710 
172 11.74185 13.96973 57.37507 7.302315 4.562913 28.41023 
173 90.38737 13.41643 32.07350 35.53632 19.48301 10.61211 
174 33.32238 85.81681 86.65686 42.66211 58.14479 77.56247 
175 10.00482 89.66549 56.25070 33.99606 58.46926 36.26320 
176 39.18669 91.43727 63.50512 41.54280 64.04296 44.85626 
177 43.56327 60.10846 95.67170 34.98596 33.45869 90.20441 
178 1.581478 23.78146 83.77911 14.65475 9.079852 64.60143 
179 29.43873 62.73756 68.27219 23.89428 30.39493 45.17211 
180 16.86868 43.33184 32.77755 9.128991 13.28206 11.16425 
181 9.306998 58.61003 11.15402 12.29182 22.69582 5.708876 
182 100.0000 100.0000 100.0000 95.10649 100.0000 108.8440 
183 64.80990 48.09837 43.32632 26.20005 24.01201 18.86025 
184 0.00000 0.00000 0.00000 1.000000 1.000000 1.000000 
185 85.14422 11.00789 51.83338 33.91382 18.10475 24.24864 
186 100.0000 100.0000 100.0000 95.10649 100.0000 108.8440 
187 43.61424 14.46033 85.76586 20.78927 10.70996 67.99730 
188 48.48873 90.81996 5.459472 37.71343 62.15322 11.27941 
189 62.41468 63.23429 5.639571 27.92926 33.66626 6.312210 
190 69.42215 76.12104 51.74917 42.20248 50.15023 29.92146 
191 11.66247 89.15298 90.61051 43.10014 61.55392 85.38138 
192 85.50477 62.41601 82.58395 53.53003 45.00243 67.49052 
193 64.35673 89.13581 14.65939 43.79356 63.50763 12.57649 
194 53.73240 53.88340 19.62737 20.70163 24.32113 7.457945 
195 16.28467 12.51526 87.79011 15.73841 7.816012 71.28159 
196 55.68330 15.68332 34.79596 14.56828 8.905236 11.11206 
197 16.33795 83.72323 72.41165 34.24676 52.28957 54.41154 
198 83.98112 43.13475 99.44413 51.66575 33.27460 97.07164 
199 58.71319 14.71247 51.87579 18.21532 10.39299 23.62536 
200 62.78206 13.81759 90.36004 30.17333 15.29278 76.66478 
201 12.26519 27.90420 42.65043 6.528539 6.861369 16.10060 
202 16.02489 36.35559 70.31510 13.83654 12.39719 44.91784 
203 0.00000 0.00000 0.00000 1.000000 1.000000 1.000000 
204 28.56977 58.55043 83.95079 26.42449 28.58075 68.03583 
205 53.41587 87.35950 38.64879 39.35929 59.20503 21.79459 
206 40.50461 54.69002 32.36740 17.30580 22.89489 12.37930 
207 18.28852 12.99864 35.51751 4.537857 3.415128 10.98532 
208 31.87026 13.22288 9.874523 5.116574 3.930952 2.269850 
209 72.15063 52.83132 26.15750 30.10056 28.56276 10.00010 
210 84.01546 69.20613 33.93122 45.67308 46.78888 16.31463 
END_DATA
CTI1   

DESCRIPTOR "Argyll Calibration Target chart information 1"
ORIGINATOR "Argyll targen"
DENSITY_EXTREME_VALUES "8"
CREATED "September 14, 2018"

NUMBER_OF_FIELDS 7
BEGIN_DATA_FORMAT
INDEX RGB_R RGB_G RGB_B XYZ_X XYZ_Y XYZ_Z 
END_DATA_FORMAT

NUMBER_OF_SETS 8
BEGIN_DATA
0 100.0000 100.0000 100.0000 95.10649 100.0000 108.8440 
1 0.00000 47.36069 100.0000 25.61297 21.62916 97.37627 
2 100.0000 0.00000 79.35138 52.42580 26.28975 58.72152 
3 0.00000 0.00000 58.99714 6.485834 3.193987 29.89445 
4 100.0000 66.65930 0.00000 56.05879 50.50543 7.656144 
5 0.00000 35.60114 0.00000 4.685619 8.370208 2.228550 
6 84.44437 0.00000 0.00000 28.84279 15.35583 2.304665 
7 0.00000 0.00000 0.00000 1.000000 1.000000 1.000000 
END_DATA
CTI1   

DESCRIPTOR "Argyll Calibration Target chart information 1"
ORIGINATOR "Argyll targen"
DEVICE_COMBINATION_VALUES "9"
CREATED "September 14, 2018"

NUMBER_OF_FIELDS 7
BEGIN_DATA_FORMAT
INDEX RGB_R RGB_G RGB_B XYZ_X XYZ_Y XYZ_Z 
END_DATA_FORMAT

NUMBER_OF_SETS 9
BEGIN_DATA
0 100.0000 100.0000 100.0000 95.10649 100.0000 108.8440 
1 0.00000 100.0000 100.0000 54.27632 78.94783 106.9308 
2 100.0000 0.00000 100.0000 59.70128 29.19948 97.04219 
3 0.00000 0.00000 100.0000 18.87111 8.147314 95.12896 
4 100.0000 100.0000 0.00000 77.23538 92.85269 14.71507 
5 0.00000 100.0000 0.00000 36.40521 71.80052 12.80184 
6 100.0000 0.00000 0.00000 41.83017 22.05217 2.913230 
7 0.00000 0.00000 0.00000 1.000000 1.000000 1.000000 
8 50.00000 50.00000 50.00000 21.14266 22.19007 24.08306 
END_DATA
