Epson_XP-960/Ilford/Galerie_Prestige_Smooth_Pearl/ilford_gp_smooth_pearl_xp_960_targen.ti1
CTI1   

DESCRIPTOR "Argyll Calibration Target chart information 1"
ORIGINATOR "Argyll targen"
CREATED "Tue Sep 11 20:53:03 2018"
APPROX_WHITE_POINT "95.106486 100.000000 108.844025"
COLOR_REP "iRGB"
WHITE_COLOR_PATCHES "8"
BLACK_COLOR_PATCHES "4"
COMP_GREY_STEPS "128"
IFP_PATCHES "537"

NUMBER_OF_FIELDS 7
BEGIN_DATA_FORMAT
SAMPLE_ID RGB_R RGB_G RGB_B XYZ_X XYZ_Y XYZ_Z 
END_DATA_FORMAT

NUMBER_OF_SETS 675
BEGIN_DATA
1 100.0000 100.0000 100.0000 95.10649 100.0000 108.8440 
2 42.42907 89.85398 0.00000 34.92259 59.71389 10.54685 
3 44.95715 56.85377 74.16112 27.08096 28.26719 52.62961 
4 59.50139 36.87922 18.09901 18.22789 15.71297 5.508012 
5 18.35542 22.55881 39.76105 5.970947 5.480079 13.89516 
6 53.76891 69.86781 44.56936 30.01412 39.05518 22.48020 
7 72.44094 72.44094 72.44094 46.50418 48.87038 53.14681 
8 42.51969 42.51969 42.51969 15.23049 15.97048 17.30784 
9 100.0000 37.59104 90.94758 60.36801 36.07081 80.18499 
10 50.67215 100.0000 96.17813 61.75727 82.98022 99.37497 
11 19.68504 19.68504 19.68504 4.023820 4.181058 4.465234 
12 74.88992 16.05855 5.528557 23.12717 13.56225 2.674374 
13 69.00416 22.92224 27.55901 21.34161 13.61748 8.147615 
14 98.42520 98.42520 98.42520 91.77029 96.49032 105.0208 
15 97.63780 97.63780 97.63780 90.12848 94.76313 103.1393 
16 96.85039 96.85039 96.85039 88.50412 93.05431 101.2779 
17 96.06299 96.06299 96.06299 86.89716 91.36379 99.43632 
18 95.27559 95.27559 95.27559 85.30756 89.69153 97.61466 
19 94.48819 94.48819 94.48819 83.73524 88.03745 95.81282 
20 93.70079 93.70079 93.70079 82.18017 86.40152 94.03074 
21 92.91339 92.91339 92.91339 80.64228 84.78366 92.26835 
22 92.12598 92.12598 92.12598 79.12152 83.18382 90.52559 
23 91.33858 91.33858 91.33858 77.61783 81.60194 88.80240 
24 90.55118 90.55118 90.55118 76.13117 80.03797 87.09872 
25 89.76378 89.76378 89.76378 74.66147 78.49185 85.41448 
26 88.97638 88.97638 88.97638 73.20868 76.96352 83.74961 
27 88.18898 88.18898 88.18898 71.77274 75.45291 82.10406 
28 87.40157 87.40157 87.40157 70.35360 73.95997 80.47775 
29 86.61417 86.61417 86.61417 68.95120 72.48465 78.87063 
30 85.82677 85.82677 85.82677 67.56549 71.02687 77.28263 
31 85.03937 85.03937 85.03937 66.19639 69.58659 75.71368 
32 84.25197 84.25197 84.25197 64.84387 68.16374 74.16371 
33 83.46457 83.46457 83.46457 63.50786 66.75825 72.63267 
34 82.67717 82.67717 82.67717 62.18830 65.37007 71.12048 
35 81.88976 81.88976 81.88976 60.88513 63.99914 69.62708 
36 81.10236 81.10236 81.10236 59.59830 62.64540 68.15240 
37 80.31496 80.31496 80.31496 58.32775 61.30878 66.69637 
38 79.52756 79.52756 79.52756 57.07341 59.98921 65.25893 
39 78.74016 78.74016 78.74016 55.83523 58.68665 63.84000 
40 77.95276 77.95276 77.95276 54.61315 57.40102 62.43952 
41 77.16535 77.16535 77.16535 53.40710 56.13226 61.05742 
42 76.37795 76.37795 76.37795 52.21703 54.88030 59.69362 
43 75.59055 75.59055 75.59055 51.04288 53.64509 58.34807 
44 74.80315 74.80315 74.80315 49.88458 52.42656 57.02068 
45 74.01575 74.01575 74.01575 48.74207 51.22464 55.71139 
46 73.22835 73.22835 73.22835 47.61529 50.03927 54.42012 
47 100.0000 100.0000 100.0000 95.10649 100.0000 108.8440 
48 71.65354 71.65354 71.65354 45.40867 47.71791 51.89139 
49 70.86614 70.86614 70.86614 44.32870 46.58179 50.65377 
50 70.07874 70.07874 70.07874 43.26422 45.46194 49.43389 
51 69.29134 69.29134 69.29134 42.21514 44.35832 48.23167 
52 68.50394 68.50394 68.50394 41.18142 43.27084 47.04705 
53 67.71654 67.71654 67.71654 40.16297 42.19944 45.87993 
54 66.92913 66.92913 66.92913 39.15975 41.14405 44.73026 
55 66.14173 66.14173 66.14173 38.17168 40.10460 43.59796 
56 65.35433 65.35433 65.35433 37.19870 39.08103 42.48294 
57 64.56693 64.56693 64.56693 36.24074 38.07325 41.38514 
58 63.77953 63.77953 63.77953 35.29774 37.08121 40.30447 
59 62.99213 62.99213 62.99213 34.36962 36.10483 39.24087 
60 62.20472 62.20472 62.20472 33.45631 35.14403 38.19424 
61 61.41732 61.41732 61.41732 32.55776 34.19876 37.16452 
62 60.62992 60.62992 60.62992 31.67389 33.26893 36.15162 
63 59.84252 59.84252 59.84252 30.80463 32.35447 35.15547 
64 59.05512 59.05512 59.05512 29.94991 31.45530 34.17598 
65 58.26772 58.26772 58.26772 29.10967 30.57136 33.21308 
66 57.48031 57.48031 57.48031 28.28382 29.70258 32.26668 
67 56.69291 56.69291 56.69291 27.47231 28.84886 31.33670 
68 55.90551 55.90551 55.90551 26.67505 28.01015 30.42306 
69 55.11811 55.11811 55.11811 25.89198 27.18635 29.52568 
70 54.33071 54.33071 54.33071 25.12302 26.37741 28.64446 
71 53.54331 53.54331 53.54331 24.36809 25.58323 27.77934 
72 52.75591 52.75591 52.75591 23.62713 24.80374 26.93021 
73 51.96850 51.96850 51.96850 22.90006 24.03886 26.09701 
74 51.18110 51.18110 51.18110 22.18681 23.28852 25.27963 
75 50.39370 50.39370 50.39370 21.48729 22.55262 24.47800 
76 49.60630 49.60630 49.60630 20.80143 21.83110 23.69202 
77 48.81890 48.81890 48.81890 20.12916 21.12387 22.92161 
78 48.03150 48.03150 48.03150 19.47039 20.43085 22.16668 
79 47.24409 47.24409 47.24409 18.82505 19.75195 21.42713 
80 46.45669 46.45669 46.45669 18.19306 19.08710 20.70288 
81 45.66929 45.66929 45.66929 17.57434 18.43620 19.99384 
82 44.88189 44.88189 44.88189 16.96880 17.79918 19.29991 
83 44.09449 44.09449 44.09449 16.37637 17.17594 18.62099 
84 43.30709 43.30709 43.30709 15.79696 16.56640 17.95700 
85 100.0000 100.0000 100.0000 95.10649 100.0000 108.8440 
86 41.73228 41.73228 41.73228 14.67688 15.38808 16.67342 
87 40.94488 40.94488 40.94488 14.13604 14.81911 16.05362 
88 40.15748 40.15748 40.15748 13.60789 14.26349 15.44837 
89 39.37008 39.37008 39.37008 13.09233 13.72113 14.85755 
90 38.58268 38.58268 38.58268 12.58929 13.19193 14.28108 
91 37.79528 37.79528 37.79528 12.09867 12.67580 13.71884 
92 37.00787 37.00787 37.00787 11.62038 12.17264 13.17073 
93 36.22047 36.22047 36.22047 11.15434 11.68237 12.63666 
94 35.43307 35.43307 35.43307 10.70045 11.20487 12.11651 
95 34.64567 34.64567 34.64567 10.25863 10.74007 11.61019 
96 33.85827 33.85827 33.85827 9.828766 10.28786 11.11758 
97 33.07087 33.07087 33.07087 9.410778 9.848137 10.63857 
98 32.28346 32.28346 32.28346 9.004568 9.420804 10.17306 
99 31.49606 31.49606 31.49606 8.610039 9.005759 9.720942 
100 30.70866 30.70866 30.70866 8.227092 8.602899 9.282093 
101 29.92126 29.92126 29.92126 7.855628 8.212119 8.856404 
102 29.13386 29.13386 29.13386 7.495547 7.833314 8.443759 
103 28.34646 28.34646 28.34646 7.146747 7.466377 8.044041 
104 27.55906 27.55906 27.55906 6.809125 7.111198 7.657133 
105 26.77165 26.77165 26.77165 6.482575 6.767667 7.282914 
106 25.98425 25.98425 25.98425 6.166992 6.435674 6.921262 
107 25.19685 25.19685 25.19685 5.862267 6.115104 6.572054 
108 24.40945 24.40945 24.40945 5.568292 5.805842 6.235165 
109 23.62205 23.62205 23.62205 5.284955 5.507771 5.910466 
110 22.83465 22.83465 22.83465 5.012142 5.220773 5.597830 
111 22.04724 22.04724 22.04724 4.749741 4.944726 5.297123 
112 21.25984 21.25984 21.25984 4.497633 4.679509 5.008212 
113 20.47244 20.47244 20.47244 4.255699 4.424995 4.730962 
114 0.00000 0.00000 0.00000 1.000000 1.000000 1.000000 
115 18.89764 18.89764 18.89764 3.801872 3.947569 4.210886 
116 18.11024 18.11024 18.11024 3.589730 3.724395 3.967775 
117 17.32283 17.32283 17.32283 3.387265 3.511402 3.735755 
118 16.53543 16.53543 16.53543 3.194348 3.308453 3.514676 
119 15.74803 15.74803 15.74803 3.010845 3.115408 3.304385 
120 14.96063 14.96063 14.96063 2.836620 2.932124 3.104727 
121 14.17323 14.17323 14.17323 2.671534 2.758453 2.915542 
122 13.38583 13.38583 13.38583 2.515445 2.594247 2.736667 
123 12.59843 12.59843 12.59843 2.368206 2.439353 2.567935 
124 11.81102 11.81102 11.81102 2.229669 2.293612 2.409175 
125 11.02362 11.02362 11.02362 2.099680 2.156863 2.260210 
126 10.23622 10.23622 10.23622 1.978081 2.028941 2.120860 
127 9.448819 9.448819 9.448819 1.864709 1.909674 1.990938 
128 8.661417 8.661417 8.661417 1.759399 1.798887 1.870255 
129 7.874016 7.874016 7.874016 1.661976 1.696398 1.758610 
130 7.086614 7.086614 7.086614 1.572262 1.602020 1.655800 
131 6.299213 6.299213 6.299213 1.490073 1.515557 1.561613 
132 5.511811 5.511811 5.511811 1.415217 1.436808 1.475829 
133 4.724409 4.724409 4.724409 1.347492 1.365562 1.398219 
134 3.937008 3.937008 3.937008 1.286692 1.301600 1.328543 
135 3.149606 3.149606 3.149606 1.229411 1.241340 1.262900 
136 2.362205 2.362205 2.362205 1.172058 1.181005 1.197175 
137 1.574803 1.574803 1.574803 1.114705 1.120670 1.131450 
138 0.787402 0.787402 0.787402 1.057353 1.060335 1.065725 
139 0.00000 0.00000 100.0000 18.87111 8.147314 95.12896 
140 0.00000 100.0000 0.00000 36.40521 71.80052 12.80184 
141 0.00000 98.71387 81.88255 46.74827 74.29401 72.34705 
142 100.0000 0.00000 0.00000 41.83017 22.05217 2.913230 
143 100.0000 98.46590 55.07030 80.73044 92.29387 39.15819 
144 77.14605 0.00000 52.27495 27.93754 14.40186 24.25155 
145 62.01983 28.34799 28.34586 18.46981 13.30497 8.574436 
146 22.69706 49.69988 14.73817 10.54048 16.98129 5.363526 
147 67.46619 47.12982 1.562822 24.54565 23.03887 4.127367 
148 0.00000 57.78797 100.0000 29.25672 28.91563 98.59086 
149 41.71057 90.54778 100.0000 53.06240 67.72327 104.8281 
150 0.00000 26.64395 77.12614 12.98409 9.061470 54.04101 
151 0.00000 49.31054 63.79084 14.86999 18.31224 37.77079 
152 47.28706 32.91852 52.37304 16.11285 12.95489 24.68512 
153 100.0000 0.00000 39.30624 44.11871 22.96744 14.96719 
154 84.83348 42.69522 23.61534 35.34699 26.63100 8.402197 
155 72.42269 0.00000 10.54730 20.92656 11.25168 2.949975 
156 66.99387 73.98497 55.06495 40.25418 47.32657 32.60476 
157 0.00000 75.73497 25.02880 20.81922 39.17507 12.10248 
158 0.00000 73.13157 69.70580 26.41752 39.13944 48.60416 
159 61.47509 0.00000 73.73826 23.71103 11.66997 48.99740 
160 58.22744 62.63170 0.00000 25.57403 32.06832 5.702822 
161 100.0000 77.07682 100.0000 79.36750 68.52642 103.5977 
162 100.0000 76.71063 0.00000 61.28773 60.96185 9.399139 
163 100.0000 70.13913 70.57586 65.91492 57.17128 51.16846 
164 30.00400 31.11598 12.58113 7.043399 8.231150 3.436565 
165 76.33114 100.0000 0.00000 58.59637 83.24235 13.84167 
166 51.59766 36.75497 25.02230 15.20498 14.06448 7.548651 
167 40.84675 75.72908 100.0000 43.44628 48.87509 101.6963 
168 75.89122 99.67225 93.19288 73.27533 88.65863 93.94586 
169 58.71084 59.59705 74.30380 33.65819 33.27298 53.45493 
170 44.55904 62.98684 62.99212 26.71149 32.15282 38.88135 
171 71.10926 49.60923 91.95932 42.16861 31.57550 82.19164 
172 100.0000 38.46167 37.63838 48.25107 31.54960 15.36209 
173 99.51370 61.51820 22.88058 54.06064 45.95423 10.89284 
174 28.22604 0.00000 15.59128 4.019326 2.513383 3.099800 
175 27.90983 0.00000 43.56502 6.430838 3.470999 16.11004 
176 0.00000 80.31458 100.0000 40.43901 51.27708 102.3183 
177 0.00000 100.0000 99.44833 54.05286 78.85846 105.7538 
178 0.00000 0.00000 0.00000 1.000000 1.000000 1.000000 
179 69.86208 100.0000 64.74415 61.34958 83.88313 49.11870 
180 24.97339 7.979502 0.00000 3.326725 2.576325 1.181732 
181 69.59653 44.48890 54.33098 29.53481 23.93312 27.94055 
182 81.98894 65.19033 48.36891 44.15751 42.94016 25.49081 
183 75.35024 66.01104 32.41312 38.01451 40.57202 14.72405 
184 41.17319 76.04448 57.15363 30.96516 44.17717 34.58255 
185 40.71175 0.00000 0.00000 6.630941 3.903332 1.263856 
186 0.00000 2.890007 21.23790 1.742100 1.423490 4.517984 
187 50.97337 74.06611 37.67215 30.19410 42.50834 18.44907 
188 52.72580 33.63680 100.0000 31.95314 19.75579 96.68073 
189 55.83050 94.49337 33.81847 44.91053 69.64891 20.70698 
190 68.24824 83.26734 23.61658 42.49482 57.01738 13.89163 
191 29.97480 4.566777 73.65070 13.07801 6.377228 48.41087 
192 67.84627 52.83408 50.63508 30.53545 28.44874 25.35161 
193 0.00000 31.01813 56.58330 8.781053 8.551520 28.29181 
194 76.67138 9.801667 38.46276 25.94380 14.11883 13.68145 
195 59.08407 28.37643 13.36127 16.17845 12.23228 3.872778 
196 83.10893 24.11157 0.00000 29.53886 18.20494 2.817965 
197 11.58197 0.308769 11.06251 1.735209 1.367342 2.133199 
198 48.12745 10.38166 37.64159 11.51426 6.737787 12.50951 
199 100.0000 97.23195 82.95079 86.75329 93.15787 75.64522 
200 9.317144 100.0000 61.29154 42.73842 74.37588 44.24214 
201 68.89529 80.89100 90.09290 54.67771 59.57269 83.42458 
202 45.39608 46.39880 76.72905 24.37718 21.49103 55.24113 
203 25.03623 56.13079 46.93876 16.16627 22.89618 21.92854 
204 90.46175 50.39728 50.39370 45.12413 34.74162 25.58592 
205 14.41590 27.61485 36.99250 5.956381 6.579194 12.38017 
206 86.93629 80.67935 23.55145 53.32774 60.22359 13.91711 
207 54.51574 49.80646 29.26872 20.30414 21.96226 10.55705 
208 48.11949 100.0000 52.53695 48.70895 77.65182 35.60775 
209 79.04450 61.87911 0.00000 37.06869 37.51103 6.148020 
210 59.72756 98.83641 77.62298 58.43711 80.61357 66.21400 
211 7.669047 9.783951 38.46276 3.806366 2.703275 12.64386 
212 62.20776 25.68728 38.42383 19.16549 12.93399 13.78540 
213 57.72488 96.61235 96.85036 62.30337 79.27284 99.99750 
214 100.0000 53.54284 78.42961 60.94314 43.76064 60.20805 
215 70.56287 32.49990 67.57050 30.07514 19.66625 41.87530 
216 84.83247 76.53923 85.77531 61.11625 59.26899 75.26310 
217 69.24959 43.30919 35.63426 26.28966 22.08675 13.51029 
218 78.93287 17.60429 29.92076 27.14913 15.70474 9.286316 
219 92.69144 0.00000 100.0000 53.23893 25.86748 96.73938 
220 38.36821 44.71360 3.157852 11.97325 15.49785 3.449561 
221 80.44740 33.01231 92.23856 43.99456 26.12658 81.57737 
222 72.63003 54.86516 75.13329 39.50479 33.52875 54.40112 
223 56.60749 0.00000 21.11892 13.10362 7.164805 4.990838 
224 48.09519 55.59230 46.74897 21.88773 25.54811 21.98746 
225 79.13735 44.05692 3.160630 30.87976 24.97102 4.282589 
226 29.73837 20.29503 0.00000 5.142630 4.924153 1.539291 
227 28.10594 25.04223 36.73711 7.415062 6.760097 12.18652 
228 0.00000 64.67858 73.22308 23.16017 31.15452 52.05538 
229 80.61528 77.18999 100.0000 63.68440 60.53626 102.8813 
230 76.30886 80.08086 45.13877 47.67361 56.51046 25.35038 
231 41.55143 27.76375 30.90202 10.48789 9.023204 9.336713 
232 0.00000 26.14544 19.68559 3.542186 5.164964 4.680682 
233 30.08995 0.00000 6.564724 4.106749 2.590495 1.658058 
234 58.37501 66.25975 100.0000 45.15668 42.53765 100.3829 
235 55.39360 100.0000 0.00000 47.32331 77.42993 13.31344 
236 47.95773 0.00000 48.35139 12.54541 6.541298 20.11515 
237 86.05734 100.0000 81.15195 76.60471 91.23861 72.85623 
238 48.26603 76.53992 85.77531 41.08295 48.94033 74.32449 
239 85.49211 0.00000 6.571631 29.72586 15.79978 2.859230 
240 55.86404 49.43532 0.00000 19.51608 21.52116 3.985974 
241 29.11500 26.53549 49.46451 9.578367 7.998539 21.49151 
242 40.84673 84.59926 51.38220 34.97160 54.02645 30.71964 
243 82.83519 77.36062 60.59406 53.30852 56.72585 39.50030 
244 3.970973 47.26665 49.30509 11.54979 15.97329 22.79093 
245 42.06010 52.39583 31.17179 16.83545 21.44867 11.53117 
246 100.0000 27.81459 61.39798 50.04523 28.89927 35.19874 
247 58.11453 14.66527 7.083970 13.90171 8.629926 2.362734 
248 30.42549 64.79028 0.00000 17.43721 29.30304 5.597594 
249 22.47886 36.28101 21.61298 7.207835 9.811060 5.967316 
250 38.65215 47.09025 54.33244 17.28804 18.75156 27.58677 
251 86.73163 56.86356 42.26634 43.26601 37.36251 19.78182 
252 21.35541 32.09399 67.57047 12.90758 10.69931 41.04857 
253 21.93015 26.01841 18.67393 5.079827 5.935942 4.466400 
254 59.00837 43.52705 20.44876 19.78304 18.96495 6.712712 
255 47.33971 40.78023 47.82220 17.14241 16.19358 21.29929 
256 26.67401 25.04240 87.97250 18.53434 11.17706 72.11082 
257 26.29688 50.26168 73.20150 19.80496 21.04739 50.25059 
258 80.19199 95.79981 98.38304 75.12426 84.89080 103.5705 
259 72.79973 43.66887 46.45808 29.89357 23.92975 21.02251 
260 78.80397 38.14961 33.06965 30.68994 22.44300 11.94838 
261 0.00000 20.07259 21.97093 2.887466 3.642780 5.119118 
262 0.00000 11.55585 6.328004 1.540046 1.930182 1.641878 
263 100.0000 61.43404 100.0000 71.58122 52.95604 101.0022 
264 39.47491 31.90759 0.00000 9.216108 9.599731 2.227271 
265 47.82325 65.19438 48.36891 26.04524 33.60417 24.64263 
266 55.07924 78.50987 71.09884 40.56716 50.85965 51.99377 
267 27.26668 83.06618 85.77100 39.35478 53.84394 75.35453 
268 100.0000 45.13829 6.512028 48.00882 34.25233 5.452093 
269 87.53739 40.35580 54.32602 40.56945 27.98574 28.13687 
270 75.32503 89.38150 60.64076 55.81645 69.32427 41.85183 
271 44.47048 93.78319 85.45159 50.91305 70.70590 77.44620 
272 62.58283 85.03669 85.03937 52.17912 62.35665 75.05635 
273 34.22913 55.91116 62.65144 20.84108 24.84500 37.38469 
274 77.35717 36.03605 59.14497 33.16078 22.55401 32.38504 
275 52.98359 43.63158 44.88200 19.59839 18.63313 19.32247 
276 79.59982 0.00000 69.54209 33.26834 16.72505 43.69980 
277 100.0000 100.0000 100.0000 95.10649 100.0000 108.8440 
278 64.58675 38.98441 4.947702 20.82601 17.82777 3.568417 
279 47.50736 27.65112 69.16474 18.82206 12.55279 43.15785 
280 64.95107 0.00000 100.0000 34.36304 16.13500 95.85488 
281 42.03964 48.36564 100.0000 31.95180 25.36010 97.76259 
282 0.00000 44.81024 24.52547 7.863007 13.32328 7.607846 
283 32.55935 17.57849 29.92076 6.758475 5.187582 8.330134 
284 100.0000 99.10156 0.00000 76.51606 91.41425 14.47529 
285 94.64760 30.33530 72.06389 48.22761 28.29895 48.56094 
286 36.39686 40.35279 56.29827 15.19372 14.85792 28.88315 
287 59.61647 40.35012 70.57736 26.76964 20.45505 46.14489 
288 0.00000 33.92531 39.74765 6.678218 8.606523 14.45267 
289 48.45060 19.93426 76.79378 20.17528 11.47683 53.62680 
290 35.13690 87.18009 70.08152 39.10636 58.22253 52.11975 
291 81.93141 56.69368 30.07421 38.28749 34.85497 12.46741 
292 34.85513 17.68922 43.22758 8.799702 6.082693 16.24435 
293 84.06317 28.53312 22.01724 31.61394 20.18021 6.813376 
294 56.08441 12.06857 15.99117 13.08949 7.899363 3.752423 
295 11.35886 21.93201 0.00000 2.897307 4.051012 1.489006 
296 79.61188 22.93183 50.69164 30.84911 18.19322 23.40535 
297 89.31835 76.81417 71.60308 60.53872 59.68910 53.33594 
298 43.68998 25.67214 21.55335 10.12138 8.441036 5.530472 
299 63.18350 56.12899 46.93876 28.65779 29.33584 22.51367 
300 27.89886 80.08361 0.00000 25.01188 45.18351 8.264043 
301 50.30688 66.75464 81.11884 35.26262 38.56216 64.81200 
302 100.0000 40.38147 25.27254 47.55845 32.02119 9.405315 
303 85.62650 92.63093 85.32715 71.96222 80.30885 77.97597 
304 77.25448 33.90568 39.74763 29.47109 20.35269 15.51955 
305 90.24337 100.0000 38.26053 70.91481 89.34366 25.70735 
306 38.97703 34.46717 27.70584 10.69813 10.98610 8.262095 
307 47.47326 56.86295 81.89600 30.21402 29.62552 64.61758 
308 32.76643 68.50145 68.50394 27.32706 36.12568 46.39751 
309 83.39455 98.98175 55.13237 67.38956 86.02013 38.71069 
310 22.17692 18.15102 56.97936 8.706635 5.837650 28.17549 
311 79.57160 27.30928 28.34651 28.67234 18.31802 9.005034 
312 70.50354 57.67412 63.09093 36.28538 33.80474 38.81112 
313 41.54813 21.51522 0.00000 8.224878 6.723145 1.724212 
314 38.78659 42.69261 30.46971 12.83534 14.96071 10.15320 
315 30.69142 49.60858 91.95932 26.35739 23.42287 81.45069 
316 67.96788 79.74651 100.0000 57.22999 59.42838 103.0074 
317 50.15996 28.66880 39.76299 14.51061 11.20596 14.55192 
318 14.85637 54.86104 75.13329 20.43229 23.69265 53.50698 
319 18.23963 3.684626 6.570794 2.337708 1.828211 1.604709 
320 64.96920 58.92864 84.54908 39.56273 35.55817 69.70756 
321 89.72730 55.48112 62.65132 48.69201 38.96523 38.64332 
322 84.33007 88.60432 70.08140 63.69539 72.33607 53.54886 
323 96.50402 68.22071 81.89174 65.00971 54.91839 67.66023 
324 0.00000 100.0000 37.24913 38.44963 72.61816 23.57003 
325 41.12962 34.41602 19.45996 10.75161 11.06193 5.374933 
326 49.97204 79.01590 20.36288 31.13362 47.32519 11.56362 
327 8.805827 13.91942 68.54846 9.588774 5.449207 41.46808 
328 83.66000 58.21219 53.08960 43.17335 37.90343 28.74030 
329 22.16176 41.71557 56.54853 12.78361 14.12759 29.12209 
330 91.35472 66.89113 28.37930 49.76422 47.28779 13.50041 
331 65.24761 53.11899 22.64323 26.03930 26.64757 8.561907 
332 67.36276 23.59747 0.00000 19.40418 12.87697 2.323286 
333 41.96342 0.00000 18.91155 7.536761 4.308747 4.087713 
334 0.00000 63.15947 32.97024 15.21547 26.88772 13.56965 
335 70.65829 42.67561 100.0000 42.94334 28.56686 97.80269 
336 36.84003 63.31601 35.93821 20.15895 29.50346 15.43902 
337 84.80298 82.26922 74.90863 61.18837 64.74325 58.95638 
338 23.19494 36.04250 6.587478 6.674291 9.526199 2.863956 
339 65.15335 23.39533 91.62908 32.83598 18.06775 79.44736 
340 100.0000 74.64981 63.42771 66.57174 61.23515 42.90506 
341 65.48508 86.03536 70.08121 49.98307 62.69910 52.41059 
342 88.51112 56.83584 83.02736 53.70579 41.68119 67.57686 
343 43.90215 100.0000 26.66706 44.04774 75.62154 18.55287 
344 0.00000 96.96244 70.08428 42.03531 70.21686 54.28444 
345 0.00000 94.10325 100.0000 49.71135 69.81917 105.4091 
346 49.67808 39.79716 84.60871 26.51235 19.64565 67.42518 
347 57.72666 61.42889 30.46205 26.17698 31.45313 12.63041 
348 66.84080 67.90697 58.27051 37.67293 41.29504 34.83500 
349 65.16843 63.75882 44.93454 32.54144 36.04804 22.04219 
350 54.34999 3.303364 31.49509 13.01000 7.159595 9.132365 
351 100.0000 0.00000 26.32993 42.83745 22.45502 8.218689 
352 63.05534 4.644963 51.40190 19.69970 10.36232 23.11323 
353 76.65287 64.09188 77.09623 46.37716 42.60621 58.71210 
354 54.58936 71.95049 100.0000 46.30872 47.32001 101.2453 
355 62.65744 36.10291 57.15992 24.22171 18.01271 29.89368 
356 4.882187 68.51813 90.07229 30.37813 36.96295 80.30180 
357 25.47153 36.16775 34.34787 8.691033 10.41837 11.46740 
358 88.97838 100.0000 1.081249 67.75109 87.96082 14.34872 
359 62.59791 71.45168 67.52605 39.27270 44.51935 46.13162 
360 46.40617 40.33951 54.32513 17.81112 16.24542 27.06843 
361 68.34014 40.34565 56.29827 28.08254 21.50078 29.48658 
362 0.00000 87.57394 43.42367 30.03502 54.54073 24.62186 
363 43.07235 58.92406 15.04409 18.53703 26.08729 6.765389 
364 0.00000 82.18100 72.34005 32.32546 49.86074 53.94413 
365 87.04684 88.58859 100.0000 75.58653 77.31251 105.4928 
366 47.79120 100.0000 68.99998 52.08683 78.98915 54.01391 
367 0.00000 78.92573 91.34128 36.29055 48.29289 84.55451 
368 45.12915 80.95992 77.95091 40.15028 52.59849 62.27139 
369 0.00000 40.00664 73.87884 14.73482 14.02145 50.12501 
370 81.92314 90.19075 88.67819 68.62763 75.86850 83.23615 
371 0.00000 40.45804 35.30709 7.647258 11.36734 12.23750 
372 100.0000 25.68716 23.88664 44.56197 26.18465 7.926673 
373 17.42413 12.46887 3.272071 2.598048 2.569619 1.456093 
374 62.30374 0.00000 0.00000 15.13136 8.286176 1.662171 
375 95.80603 0.00000 73.75593 47.03791 23.69683 50.11559 
376 40.47942 19.90524 100.0000 25.59600 13.33872 95.77686 
377 45.97412 63.37791 56.60520 26.02942 32.21093 31.97255 
378 100.0000 87.53607 57.88874 73.27577 76.51605 39.35809 
379 96.81671 26.04740 37.11203 42.91765 25.27718 14.11421 
380 64.75762 47.25084 50.68976 27.03856 23.92570 24.71092 
381 46.55415 18.22538 21.97243 10.18643 7.117714 5.405944 
382 0.00000 30.10351 4.944387 3.680672 6.249492 2.236209 
383 49.02060 31.53892 0.00000 12.24482 11.05884 2.349406 
384 21.52833 59.65748 41.06871 16.20208 25.07675 18.00867 
385 57.75956 82.59231 56.54353 40.92972 55.09612 35.54273 
386 83.74598 46.98970 84.60800 47.19551 33.24082 68.95890 
387 60.99496 58.92187 65.18483 32.15819 32.35927 41.24436 
388 26.26833 47.25480 34.47825 11.74086 16.29436 12.51227 
389 49.45476 40.37705 0.00000 14.33303 14.99584 2.999379 
390 0.00000 89.14619 16.37579 28.69355 55.72424 12.25166 
391 28.95439 70.52856 59.84574 25.57290 36.95233 36.32205 
392 0.00000 38.30417 100.0000 23.16547 16.73483 96.56042 
393 60.23345 88.17642 43.97851 43.63942 62.15326 25.78126 
394 73.10750 52.31942 35.41299 31.35123 28.84450 14.42247 
395 88.74308 74.49702 30.46352 51.71800 54.04041 15.64591 
396 50.98255 68.21512 0.00000 25.09131 35.64776 6.419182 
397 0.00000 29.03987 28.34584 4.595136 6.321944 7.957255 
398 38.57721 37.64380 0.280379 10.17127 11.87345 2.636191 
399 38.11034 29.24643 60.88732 14.24245 10.80300 33.01918 
400 19.71267 18.46629 0.600522 3.333673 3.701185 1.442044 
401 72.11827 96.14200 31.23139 54.34490 76.39180 20.19020 
402 0.00000 76.74260 50.61584 24.40354 41.51688 28.18015 
