Epson_XP-960/Ilford/Galerie_Prestige_Smooth_Pearl/Ilford_GP_Smooth_Pearl_XP_960.ti3
CTI3   

DESCRIPTOR "Argyll Calibration Target chart information 3"
ORIGINATOR "Argyll chartread"
CREATED "Fri Sep 14 15:50:44 2018"
DEVICE_CLASS "OUTPUT"
COMP_GREY_STEPS "16"
COLOR_REP "iRGB_XYZ"
TARGET_INSTRUMENT "X-Rite ColorMunki"
DEVCALSTD "XRGA"
SPECTRAL_BANDS "106"
SPECTRAL_START_NM "380.000000"
SPECTRAL_END_NM "730.000000"

NUMBER_OF_FIELDS 114
BEGIN_DATA_FORMAT
SAMPLE_ID SAMPLE_LOC RGB_R RGB_G RGB_B XYZ_X XYZ_Y XYZ_Z SPEC_380 SPEC_383 SPEC_387 SPEC_390 SPEC_393 SPEC_397 SPEC_400 SPEC_403 SPEC_407 SPEC_410 SPEC_413 SPEC_417 SPEC_420 SPEC_423 SPEC_427 SPEC_430 SPEC_433 SPEC_437 SPEC_440 SPEC_443 SPEC_447 SPEC_450 SPEC_453 SPEC_457 SPEC_460 SPEC_463 SPEC_467 SPEC_470 SPEC_473 SPEC_477 SPEC_480 SPEC_483 SPEC_487 SPEC_490 SPEC_493 SPEC_497 SPEC_500 SPEC_503 SPEC_507 SPEC_510 SPEC_513 SPEC_517 SPEC_520 SPEC_523 SPEC_527 SPEC_530 SPEC_533 SPEC_537 SPEC_540 SPEC_543 SPEC_547 SPEC_550 SPEC_553 SPEC_557 SPEC_560 SPEC_563 SPEC_567 SPEC_570 SPEC_573 SPEC_577 SPEC_580 SPEC_583 SPEC_587 SPEC_590 SPEC_593 SPEC_597 SPEC_600 SPEC_603 SPEC_607 SPEC_610 SPEC_613 SPEC_617 SPEC_620 SPEC_623 SPEC_627 SPEC_630 SPEC_633 SPEC_637 SPEC_640 SPEC_643 SPEC_647 SPEC_650 SPEC_653 SPEC_657 SPEC_660 SPEC_663 SPEC_667 SPEC_670 SPEC_673 SPEC_677 SPEC_680 SPEC_683 SPEC_687 SPEC_690 SPEC_693 SPEC_697 SPEC_700 SPEC_703 SPEC_707 SPEC_710 SPEC_713 SPEC_717 SPEC_720 SPEC_723 SPEC_727 SPEC_730 
END_DATA_FORMAT

NUMBER_OF_SETS 420
BEGIN_DATA
1 "U3" 100.0000 100.0000 100.0000 82.77220 86.14131 73.46898 83.58963 83.58963 83.58963 83.58963 83.58963 83.58963 83.58963 83.61811 83.62468 83.56943 83.41244 83.36165 83.62511 84.68358 86.01698 87.17742 87.85746 88.08288 88.01181 87.86821 87.79641 87.96428 88.46742 89.15462 89.83591 90.49038 91.30528 92.24773 92.44534 92.33672 92.42365 92.13553 91.52345 90.61913 89.85482 89.30390 88.83673 88.47831 88.12230 87.86019 87.68744 87.46914 87.25832 87.02542 86.86082 86.71051 86.58957 86.48250 86.37488 86.26173 86.12791 85.97388 85.76455 85.55649 85.38929 85.32598 85.31818 85.26183 85.12219 84.98428 84.86825 84.79350 84.73263 84.69829 84.66837 84.66752 84.68388 84.74356 84.79611 84.81176 84.85102 84.91908 85.06513 85.22746 85.38707 85.51513 85.69800 85.91996 86.12415 86.31735 86.52485 86.84822 87.15742 87.49603 87.78086 87.93603 88.13794 88.21912 88.39203 88.60425 88.72778 88.83844 89.03171 89.26795 89.45178 89.70684 89.98992 90.23398 90.32949 90.57339 90.29805 90.01408 90.15618 90.18663 90.39550 90.74401 
2 "E7" 19.82452 100.0000 0.00000 8.940955 20.53794 3.316758 1.391073 1.391073 1.391073 1.391073 1.391073 1.391073 1.391073 1.390262 1.389070 1.386835 1.382897 1.380706 1.383695 1.357147 1.335040 1.289705 1.247059 1.212849 1.182872 1.162457 1.154332 1.157011 1.183805 1.223740 1.272505 1.378774 1.518819 1.739618 2.047878 2.493281 3.191872 4.386771 6.279264 9.122249 13.09510 18.13666 23.93938 30.00292 35.76480 40.73272 44.57759 47.10806 48.37036 48.49115 47.66062 46.06894 43.87713 41.20698 38.17261 34.87333 31.40229 27.84733 24.28896 20.83819 17.58940 14.63445 12.04651 9.846550 8.041173 6.623281 5.553525 4.767879 4.206011 3.823529 3.580219 3.447733 3.406774 3.448595 3.578609 3.795223 4.104734 4.511718 5.016968 5.619159 6.317696 7.099962 7.962715 8.892156 9.871502 10.88092 11.90292 12.92161 13.92513 14.92084 15.87998 16.81803 17.79118 18.79215 19.86935 21.03509 22.29475 23.68062 25.23122 26.93750 28.80194 30.76293 32.74659 34.77264 36.80122 38.88803 40.72058 42.54192 44.44704 46.31314 48.13886 49.97440 
3 "J6" 6.633097 86.82689 50.43717 6.711731 16.12254 16.21369 14.01171 14.01171 14.01171 14.01171 14.01171 14.01171 14.01171 14.01640 14.01741 14.00805 13.98164 13.97304 14.01711 14.32849 14.67987 14.99474 15.23883 15.43002 15.58300 15.71992 15.87623 16.10881 16.44875 16.90478 17.44920 18.05422 18.79338 19.75434 20.83058 22.05925 23.80422 26.17767 29.10549 32.46756 35.91676 39.21850 42.01027 44.02802 45.14851 45.40966 44.90611 43.75375 42.12070 40.08255 37.72628 35.11040 32.27619 29.25378 26.09725 22.88744 19.69872 16.61134 13.69031 11.03623 8.709777 6.756708 5.172401 3.923612 2.983137 2.311774 1.849841 1.532733 1.316143 1.179330 1.101456 1.053745 1.027301 1.021384 1.053427 1.114186 1.204932 1.333107 1.500797 1.721669 2.016319 2.339783 2.703534 3.150467 3.642302 4.179184 4.745950 5.351225 5.991040 6.621947 7.229997 7.833098 8.450355 9.093500 9.858362 10.72052 11.68745 12.83314 14.18834 15.66843 17.29171 19.11704 21.04662 23.06011 25.03360 27.08891 29.01432 30.98326 33.02441 34.96811 36.92443 38.87707 
4 "S6" 8.972305 9.893950 63.28069 3.512689 2.500900 9.358114 14.55707 14.55707 14.55707 14.55707 14.55707 14.55707 14.55707 14.56287 14.56487 14.55612 14.52965 14.52168 14.56848 14.76644 14.95414 15.02091 14.90876 14.66501 14.31482 13.88992 13.42716 12.94785 12.43763 11.89639 11.33569 10.73754 10.13021 9.525198 8.827760 8.148180 7.641452 7.260366 6.905232 6.607264 6.300587 5.961039 5.518016 5.000519 4.490707 4.009532 3.583553 3.248196 2.998639 2.827715 2.708763 2.613109 2.505574 2.376497 2.225771 2.047421 1.857105 1.674592 1.507701 1.372513 1.274046 1.204080 1.153504 1.120973 1.096389 1.080345 1.076329 1.077202 1.080096 1.097748 1.130794 1.166743 1.212318 1.269413 1.353450 1.468967 1.604004 1.790618 2.033688 2.326618 2.663483 3.067057 3.532665 4.056116 4.623263 5.222983 5.857896 6.519863 7.183384 7.842082 8.479523 9.092976 9.734201 10.39304 11.19771 12.06282 13.05116 14.20576 15.52288 17.03486 18.66408 20.41146 22.29868 24.24443 26.21890 28.28586 30.17016 32.03510 33.99174 35.82462 37.76131 39.66651 
5 "O2" 68.29328 48.81819 6.939803 27.51590 24.88634 2.975345 2.304831 2.304831 2.304831 2.304831 2.304831 2.304831 2.304831 2.303896 2.302335 2.299051 2.292951 2.289752 2.295148 2.206779 2.155199 2.102010 2.037080 1.970296 1.914240 1.875040 1.848779 1.842925 1.868985 1.931208 1.977999 2.043569 2.241371 2.495748 2.798179 3.224670 3.835750 4.853090 6.322043 8.360624 10.75604 13.24629 15.57028 17.50738 18.86004 19.70217 20.17118 20.45160 20.68959 20.94894 21.26126 21.57130 21.78987 21.84880 21.73210 21.46832 21.13150 20.82022 20.63356 20.64426 20.88366 21.35384 22.01669 22.81981 23.69680 24.65203 25.66921 26.73302 27.83264 28.93491 30.02323 31.10168 32.15914 33.23318 34.34574 35.49036 36.71097 38.01931 39.43138 40.89446 42.38975 43.87773 45.39158 46.90232 48.35582 49.74385 51.05022 52.27603 53.40381 54.50009 55.52669 56.46797 57.42387 58.39387 59.50193 60.65913 61.83350 63.08075 64.40735 65.87646 67.41135 68.93444 70.48419 71.98702 73.31828 74.70514 75.69792 76.63077 77.77167 78.69315 79.58968 80.57535 
6 "S4" 30.29068 40.49287 81.40078 13.07700 12.10253 27.38114 37.04236 37.04236 37.04236 37.04236 37.04236 37.04236 37.04236 37.05674 37.06144 37.03876 36.97101 36.95034 37.06899 37.54196 38.08989 38.40281 38.38406 38.12159 37.67642 37.12783 36.52302 35.91014 35.29451 34.63147 33.92258 33.15571 32.31271 31.37897 30.20626 29.04080 28.07008 27.23818 26.38038 25.45681 24.52089 23.50720 22.32874 21.03950 19.71069 18.45300 17.33404 16.41011 15.70352 15.16084 14.73772 14.34923 13.92025 13.40986 12.80066 12.09323 11.33935 10.59046 9.881231 9.252934 8.705501 8.237175 7.825404 7.455987 7.129500 6.853540 6.646661 6.508194 6.431857 6.434507 6.505560 6.636956 6.834473 7.102743 7.467729 7.936868 8.508689 9.206640 10.02457 10.94330 11.94903 13.03600 14.19769 15.40583 16.62903 17.85643 19.07176 20.27852 21.42510 22.50820 23.50097 24.41275 25.31839 26.21286 27.28571 28.46176 29.82069 31.38790 33.15168 35.11757 37.14822 39.27906 41.53234 43.74947 45.86986 47.99901 49.82476 51.54875 53.37484 55.04061 56.75532 58.47864 
7 "J2" 23.11284 80.82704 51.46563 12.59925 22.71358 17.63744 16.57240 16.57240 16.57240 16.57240 16.57240 16.57240 16.57240 16.57768 16.57862 16.56729 16.53579 16.52534 16.57718 16.73692 16.95965 17.14172 17.26015 17.31630 17.35010 17.40663 17.49217 17.65359 17.94616 18.37599 18.90250 19.48569 20.19609 21.10980 22.15301 23.40886 25.19650 27.59171 30.55306 33.91569 37.37688 40.67458 43.46923 45.55468 46.84782 47.41640 47.37048 46.84921 45.98718 44.82209 43.41818 41.78376 39.90021 37.75124 35.34813 32.74508 29.99485 27.16912 24.31724 21.51592 18.83474 16.34372 14.08577 12.07171 10.34501 8.923730 7.795868 6.927429 6.279837 5.820810 5.520023 5.337310 5.256912 5.277450 5.411243 5.648958 5.992999 6.449734 7.018840 7.702836 8.508404 9.373017 10.30853 11.32686 12.38101 13.46176 14.54447 15.63383 16.71416 17.75286 18.72585 19.64409 20.55931 21.50885 22.59659 23.79557 25.12046 26.61703 28.29713 30.16491 32.20475 34.37976 36.54229 38.70208 40.77557 42.92553 44.75588 46.57375 48.51847 50.33128 52.02178 53.73157 
8 "P1" 15.23919 0.00000 25.87472 2.960481 2.327040 2.761017 4.374589 4.374589 4.374589 4.374589 4.374589 4.374589 4.374589 4.376189 4.376644 4.373864 4.365760 4.363216 4.377112 4.315539 4.259113 4.171596 4.056134 3.924315 3.786209 3.652799 3.523754 3.402559 3.294391 3.199735 3.102976 2.994021 2.892864 2.827510 2.755972 2.638457 2.628521 2.746191 2.897651 3.056920 3.258039 3.364893 3.377327 3.278669 3.107907 2.898867 2.696771 2.525395 2.399920 2.309548 2.241173 2.190233 2.137239 2.069610 1.976780 1.863420 1.736631 1.612103 1.502476 1.412868 1.349389 1.310882 1.292072 1.293476 1.314242 1.345630 1.382069 1.428240 1.480250 1.546335 1.621998 1.707037 1.806155 1.931427 2.087740 2.275910 2.508904 2.802243 3.160489 3.588843 4.080312 4.633069 5.259669 5.945356 6.678890 7.433256 8.193064 8.969086 9.741991 10.49472 11.23759 11.96740 12.70517 13.52061 14.40319 15.38694 16.47695 17.70546 19.11145 20.71294 22.41291 24.21096 26.15884 28.13146 30.08286 32.10133 33.99395 35.87606 37.87061 39.72193 41.53424 43.52486 
9 "G3" 62.68406 100.0000 0.00000 34.58031 46.47863 3.810163 1.330644 1.330644 1.330644 1.330644 1.330644 1.330644 1.330644 1.327988 1.324943 1.320880 1.315178 1.311117 1.311945 1.298736 1.252516 1.217156 1.182154 1.146159 1.115725 1.097061 1.096489 1.110099 1.138212 1.200268 1.290778 1.410286 1.571557 1.805343 2.099230 2.560201 3.414272 4.797858 6.939689 10.13957 14.46021 19.96529 26.44722 33.49708 40.58567 47.26415 53.12085 57.93757 61.67265 64.33782 66.05565 66.97507 67.23636 66.92924 66.07978 64.76708 63.05655 60.97310 58.54608 55.90488 53.11602 50.27601 47.43863 44.65189 41.97952 39.54747 37.42663 35.65568 34.23279 33.13634 32.33022 31.79996 31.53384 31.52606 31.74828 32.19803 32.88113 33.76544 34.84680 36.07579 37.40255 38.79913 40.24766 41.71986 43.18025 44.58940 45.91158 47.18744 48.40088 49.57364 50.65911 51.63795 52.64026 53.67535 54.80052 55.94993 57.10982 58.38343 59.75273 61.25231 62.82652 64.43917 66.06725 67.63057 69.01288 70.44365 71.62363 72.61746 73.73892 74.80035 75.74462 76.78419 
10 "X4" 82.46128 67.78058 0.00000 42.41108 41.18220 2.723662 1.212656 1.212656 1.212656 1.212656 1.212656 1.212656 1.212656 1.210160 1.207308 1.203528 1.198255 1.194476 1.195152 1.197128 1.173644 1.125869 1.084833 1.047135 1.012144 0.988858 0.980737 0.981972 0.996913 1.041151 1.101494 1.185313 1.277914 1.408258 1.663460 2.062833 2.721130 3.716693 5.342182 7.703706 10.84694 14.67286 18.87601 23.02683 26.70485 29.74537 32.12543 33.95204 35.37774 36.54808 37.56062 38.42888 39.12271 39.57468 39.75760 39.71773 39.52768 39.31150 39.18174 39.25224 39.58038 40.18573 41.01212 41.95325 42.94802 44.00459 45.08993 46.20041 47.30645 48.39437 49.42981 50.41891 51.35497 52.27820 53.18421 54.07978 55.03237 56.03786 57.13377 58.25945 59.40703 60.51623 61.66011 62.82107 63.90843 64.91763 65.87186 66.85175 67.73239 68.57585 69.26840 69.84112 70.56323 71.28859 72.12028 72.97570 73.75398 74.54882 75.44643 76.53112 77.59169 78.70113 79.91098 80.96882 81.78447 82.73595 83.10191 83.48644 84.31855 84.82460 85.34891 86.24412 
11 "AA3" 53.86893 57.56924 86.30350 26.95385 26.54872 39.39655 50.47903 50.47903 50.47903 50.47903 50.47903 50.47903 50.47903 50.49793 50.50364 50.47203 50.37899 50.35011 50.51106 51.07489 51.73397 52.16379 52.22798 51.97557 51.49689 50.93129 50.35173 49.85757 49.45544 49.02026 48.55146 48.02194 47.43703 46.82003 45.83514 44.75319 43.89440 43.09369 42.31906 41.38218 40.42049 39.39155 38.17787 36.78949 35.31249 33.89969 32.63005 31.55585 30.74480 30.10367 29.61941 29.20295 28.75915 28.21749 27.53273 26.71025 25.80848 24.89185 24.01358 23.22622 22.55005 21.99079 21.51861 21.08562 20.67814 20.32738 20.04574 19.85411 19.77162 19.78597 19.88529 20.06942 20.34865 20.75288 21.28314 21.94114 22.76022 23.74007 24.85480 26.08690 27.41450 28.79739 30.25102 31.73719 33.20576 34.64073 36.02797 37.41083 38.70104 39.90367 40.97703 41.86969 42.73925 43.66349 44.73610 45.95280 47.35219 48.91381 50.69244 52.69222 54.69517 56.70321 58.80144 60.83107 62.58803 64.39362 65.72854 66.96403 68.55072 69.85363 71.15473 72.43688 
12 "I1" 88.41688 18.38712 35.41009 34.40749 21.32772 6.279203 9.061959 9.061959 9.061959 9.061959 9.061959 9.061959 9.061959 9.063894 9.063442 9.056276 9.038071 9.031360 9.058660 8.968346 8.857254 8.703307 8.490097 8.241770 7.989546 7.760855 7.555474 7.379872 7.241061 7.105716 6.980368 6.862888 6.726984 6.639434 6.617297 6.718622 6.895639 7.157017 7.665702 8.281691 8.829074 9.166538 9.260060 9.045820 8.625781 8.103049 7.601390 7.216202 6.979368 6.891113 6.935340 7.045776 7.167815 7.247619 7.243646 7.163573 7.049201 6.966739 7.009918 7.273739 7.835271 8.788858 10.18700 12.05863 14.42065 17.27998 20.61172 24.35686 28.42232 32.71850 37.10771 41.45034 45.61910 49.52919 53.09781 56.29110 59.14033 61.66507 63.91527 65.91037 67.67162 69.19796 70.62101 71.92740 73.08712 74.11771 75.05630 75.95740 76.76566 77.51163 78.15750 78.67162 79.20393 79.78065 80.48657 81.22118 81.89939 82.62958 83.40001 84.23840 85.11627 86.03001 86.94994 87.88170 88.59438 89.29089 89.60553 89.95711 90.56303 91.01883 91.64433 92.17620 
13 "A8" 32.29877 43.89258 59.70397 12.08036 13.07690 15.46360 18.86446 18.86446 18.86446 18.86446 18.86446 18.86446 18.86446 18.87128 18.87316 18.86109 18.82607 18.81501 18.87488 18.93952 19.06173 19.12111 19.05940 18.92188 18.75114 18.59647 18.44784 18.31677 18.25400 18.23022 18.20812 18.21272 18.24833 18.27154 18.29669 18.45873 18.83912 19.45580 20.21698 21.00962 21.61652 21.89420 21.82642 21.39360 20.66558 19.81124 18.96422 18.23834 17.66091 17.19895 16.82932 16.47868 16.05997 15.53862 14.89342 14.14280 13.33683 12.52706 11.75010 11.04272 10.41521 9.862170 9.363061 8.908432 8.496226 8.140566 7.856845 7.655923 7.539493 7.509199 7.559713 7.679774 7.879082 8.170116 8.560926 9.060423 9.683251 10.43069 11.30207 12.28104 13.35423 14.50603 15.72924 16.99838 18.28472 19.57162 20.82549 22.05778 23.24723 24.37605 25.44079 26.43070 27.41841 28.48303 29.65035 30.91873 32.31092 33.89339 35.59410 37.44666 39.45174 41.54927 43.65165 45.74850 47.76990 49.79745 51.73171 53.51217 55.32762 57.03601 58.58478 60.12755 
14 "D4" 86.66667 86.66667 86.66667 65.17680 67.95586 55.58594 63.10614 63.10614 63.10614 63.10614 63.10614 63.10614 63.10614 63.12739 63.13211 63.09015 62.97138 62.93279 63.13142 63.91417 64.85541 65.61430 66.03942 66.20690 66.23797 66.28965 66.35062 66.45200 66.68446 66.93804 67.21920 67.63144 68.10219 68.61515 68.87486 69.10173 69.54531 70.02754 70.47309 70.86583 71.27629 71.65100 71.91815 71.96525 71.78692 71.48496 71.15049 70.82193 70.52869 70.25512 70.01207 69.80981 69.60661 69.35760 69.00761 68.56028 68.03940 67.48345 66.90969 66.38418 65.95413 65.65337 65.42683 65.25140 65.06725 64.90505 64.80753 64.80330 64.87270 64.99781 65.16069 65.36861 65.61407 65.91865 66.28834 66.71392 67.22179 67.80886 68.47335 69.18855 69.92469 70.65203 71.41119 72.20127 72.98088 73.73607 74.45867 75.18743 75.87991 76.53227 77.11187 77.55693 77.93734 78.38024 78.96813 79.56266 80.17563 80.81781 81.52310 82.30768 83.12124 83.87084 84.58181 85.29668 85.88175 86.50099 86.84313 87.01066 87.47184 87.92627 88.35148 88.82026 
15 "S8" 80.00000 80.00000 80.00000 53.58379 56.18408 44.04409 50.58512 50.58512 50.58512 50.58512 50.58512 50.58512 50.58512 50.60204 50.60570 50.57195 50.47662 50.44556 50.60464 51.02295 51.63343 52.07570 52.22261 52.15317 51.95164 51.72163 51.52845 51.50696 51.71143 52.03214 52.42790 52.86385 53.37357 54.04278 54.47334 54.86877 55.66259 56.66604 57.79480 58.84296 59.78081 60.57664 61.10445 61.31773 61.14122 60.76856 60.31502 59.83685 59.45100 59.13452 58.88926 58.68224 58.42172 58.07148 57.60131 57.00050 56.31340 55.59871 54.88559 54.26311 53.76264 53.41064 53.15829 52.92365 52.68292 52.48836 52.36261 52.31692 52.34710 52.46216 52.63400 52.86730 53.16699 53.55541 54.02688 54.57631 55.24342 56.02811 56.94017 57.91380 58.92789 59.94954 61.02572 62.11987 63.18040 64.18673 65.15355 66.13957 67.03965 67.88534 68.56729 69.09861 69.71704 70.32621 71.09501 71.90025 72.74189 73.69105 74.73952 75.90100 77.00925 78.16604 79.33631 80.38022 81.24554 82.20066 82.56719 82.96999 83.74177 84.23816 84.82568 85.59871 
16 "B12" 73.33333 73.33333 73.33333 44.62852 46.82301 35.17373 40.07711 40.07711 40.07711 40.07711 40.07711 40.07711 40.07711 40.09033 40.09304 40.06611 39.99040 39.96559 40.09142 40.35470 40.78785 41.08365 41.13326 41.04581 40.91405 40.81469 40.74290 40.74484 40.87741 41.10706 41.42359 41.79831 42.21820 42.73587 43.27546 43.90698 44.89438 46.22321 47.70457 49.16168 50.52801 51.55761 52.19373 52.39681 52.22116 51.73808 51.14735 50.59142 50.14457 49.79389 49.54491 49.34367 49.09645 48.73213 48.21358 47.55121 46.79414 46.00594 45.24136 44.57705 44.05462 43.68673 43.42054 43.20097 42.99268 42.82101 42.71691 42.70151 42.76790 42.91182 43.11635 43.38489 43.72766 44.16713 44.71018 45.37387 46.18054 47.11250 48.16622 49.32635 50.53951 51.76852 53.04634 54.35721 55.64704 56.87830 58.05381 59.18672 60.24109 61.16319 61.97731 62.71183 63.44395 64.24111 65.17072 66.14826 67.18689 68.35269 69.64907 71.05357 72.49140 73.91372 75.26871 76.58242 77.76739 78.88828 79.72689 80.48092 81.39124 82.18099 82.81661 83.64400 
17 "B5" 66.66667 66.66667 66.66667 37.30276 38.83848 28.99563 33.42099 33.42099 33.42099 33.42099 33.42099 33.42099 33.42099 33.43201 33.43427 33.41180 33.34865 33.32796 33.43288 33.60427 33.93055 34.12921 34.10883 33.98269 33.82858 33.70307 33.59850 33.53686 33.57347 33.71430 33.91078 34.14106 34.43432 34.80943 35.18524 35.70389 36.62400 37.92071 39.38769 40.95108 42.36548 43.49316 44.17869 44.37966 44.16054 43.69130 43.07777 42.49842 42.02752 41.66630 41.41484 41.20761 40.94773 40.56627 40.01927 39.32181 38.52074 37.69117 36.90007 36.22341 35.69318 35.31586 35.04951 34.85158 34.68670 34.56984 34.52934 34.58524 34.73040 34.95741 35.24970 35.60072 36.02048 36.53801 37.16362 37.90534 38.78915 39.80439 40.94404 42.19104 43.50152 44.84327 46.22702 47.63188 49.02770 50.37059 51.65796 52.86849 53.97841 55.01159 55.95204 56.79017 57.61432 58.50076 59.53001 60.60648 61.79351 63.09881 64.53250 66.11710 67.71795 69.27873 70.80494 72.27729 73.65761 74.93426 76.04453 77.05806 78.07529 79.00655 79.84445 80.75433 
18 "V7" 60.00000 60.00000 60.00000 28.02070 29.35054 20.66211 23.74708 23.74708 23.74708 23.74708 23.74708 23.74708 23.74708 23.75477 23.75623 23.74012 23.69511 23.68025 23.75465 23.80181 23.93527 23.99796 23.91356 23.72292 23.49401 23.29099 23.14572 23.09433 23.18032 23.39112 23.63394 23.88637 24.25883 24.77144 25.19632 25.75589 26.76252 28.14156 29.73656 31.39793 32.91886 34.13973 34.88553 35.12150 34.86241 34.33954 33.73646 33.15560 32.66488 32.29958 32.05046 31.83028 31.56654 31.17485 30.62054 29.91705 29.11630 28.30626 27.54638 26.88925 26.36447 25.98152 25.69861 25.45240 25.23514 25.07043 24.96988 24.95227 25.01832 25.17287 25.40958 25.72619 26.13292 26.64923 27.27811 28.02815 28.93644 29.99475 31.19397 32.50760 33.90327 35.32941 36.81777 38.33505 39.80299 41.18617 42.54510 43.90307 45.15236 46.32315 47.38520 48.33434 49.29936 50.27113 51.35734 52.57895 53.88427 55.32913 56.92484 58.67380 60.43858 62.24000 64.07667 65.85819 67.43236 69.03341 70.15326 71.16368 72.53906 73.71160 74.82469 76.07943 
19 "F7" 53.33333 53.33333 53.33333 22.23585 23.12772 16.12707 18.66342 18.66342 18.66342 18.66342 18.66342 18.66342 18.66342 18.66943 18.67055 18.65786 18.62246 18.61076 18.66919 18.65360 18.72145 18.73261 18.64265 18.48459 18.31111 18.17197 18.05653 17.99136 18.02647 18.12485 18.28687 18.50511 18.73832 19.01210 19.28295 19.78979 20.68183 21.89494 23.41627 24.99835 26.50194 27.68752 28.39375 28.58201 28.33239 27.81082 27.19985 26.62071 26.18794 25.89957 25.67669 25.47903 25.21809 24.82252 24.26543 23.57398 22.80179 22.02602 21.30636 20.69447 20.20948 19.84618 19.55768 19.31145 19.08092 18.89097 18.77444 18.73316 18.79033 18.95063 19.18002 19.48811 19.90515 20.43729 21.08707 21.88086 22.82758 23.91622 25.14368 26.48343 27.90086 29.35184 30.86167 32.40264 33.93742 35.43124 36.87292 38.26206 39.56738 40.79994 41.93757 42.97530 44.00999 45.07685 46.29592 47.59545 48.94650 50.44170 52.07077 53.85405 55.72582 57.59992 59.49386 61.36835 63.08972 64.78403 66.28150 67.59925 68.92815 70.27131 71.64667 72.82845 
20 "Z9" 46.66667 46.66667 46.66667 15.90792 16.56713 9.848384 11.02500 11.02500 11.02500 11.02500 11.02500 11.02500 11.02500 11.02831 11.02874 11.02100 10.99984 10.99268 11.02694 10.98563 10.99162 10.93130 10.80144 10.64278 10.47959 10.34138 10.25248 10.24252 10.33099 10.49370 10.70653 10.93374 11.17338 11.47242 11.83161 12.39847 13.28985 14.51811 16.04427 17.65917 19.11931 20.32916 21.08547 21.33199 21.13253 20.68684 20.15179 19.64185 19.23943 18.95357 18.74709 18.55810 18.32035 17.97282 17.48615 16.87660 16.19955 15.53161 14.91479 14.39309 13.97329 13.64955 13.39513 13.17014 12.97321 12.81866 12.71987 12.68797 12.74262 12.88015 13.09142 13.39064 13.77466 14.26339 14.86601 15.58796 16.45299 17.45759 18.61086 19.87074 21.22241 22.61663 24.06674 25.55675 27.03881 28.45838 29.83609 31.22747 32.50875 33.72923 34.90144 35.97049 37.09256 38.18008 39.39082 40.75737 42.13811 43.62824 45.28827 47.08554 48.98607 51.02366 53.01027 54.96320 56.78423 58.59772 60.00787 61.47692 63.19675 64.58362 65.92085 67.38644 
21 "P14" 40.00000 40.00000 40.00000 12.16376 12.45887 7.055302 7.968754 7.968754 7.968754 7.968754 7.968754 7.968754 7.968754 7.971098 7.971349 7.965702 7.950354 7.945123 7.969822 7.863027 7.799916 7.716062 7.596521 7.463684 7.336223 7.230961 7.159040 7.142975 7.204745 7.335066 7.486902 7.667201 7.901065 8.173064 8.483659 8.897656 9.594506 10.63658 11.90863 13.26176 14.56375 15.59969 16.24616 16.46702 16.28286 15.87751 15.39358 14.94719 14.60256 14.35388 14.18121 14.03050 13.82226 13.50813 13.07153 12.53838 11.94843 11.36770 10.84207 10.39572 10.04731 9.785841 9.580749 9.417728 9.286639 9.188410 9.129944 9.134930 9.205639 9.342928 9.544550 9.813803 10.16071 10.59707 11.14125 11.79352 12.56430 13.47207 14.51103 15.66252 16.90701 18.20094 19.56143 20.95457 22.34470 23.71023 25.03524 26.34227 27.58366 28.78411 29.91034 30.97195 32.05074 33.18186 34.41546 35.73246 37.15110 38.66860 40.34970 42.21282 44.10561 46.10065 48.16265 50.17251 52.04769 53.97169 55.53256 57.11867 58.88630 60.41749 61.89497 63.54478 
22 "I14" 33.33333 33.33333 33.33333 9.386903 9.561870 5.408017 6.199001 6.199001 6.199001 6.199001 6.199001 6.199001 6.199001 6.200820 6.201010 6.196613 6.184668 6.180593 6.199803 6.137954 6.068923 5.986930 5.891486 5.783359 5.677676 5.590569 5.530369 5.516047 5.548407 5.602171 5.689592 5.777022 5.876274 6.069970 6.298393 6.663910 7.204740 7.908889 8.915499 10.14096 11.32462 12.28237 12.91014 13.14322 13.01548 12.66394 12.23494 11.84580 11.53334 11.30965 11.15929 11.01594 10.82601 10.54768 10.15442 9.670225 9.137370 8.603568 8.113799 7.702145 7.370764 7.132501 6.958528 6.823531 6.721396 6.653535 6.618309 6.628629 6.686755 6.799451 6.969129 7.191635 7.476488 7.833039 8.276626 8.824433 9.483659 10.26010 11.15289 12.15437 13.24468 14.40188 15.63712 16.90235 18.18476 19.45495 20.70289 21.92736 23.10333 24.23581 25.30821 26.32705 27.37536 28.46018 29.63967 30.92222 32.29225 33.83555 35.51467 37.30058 39.20186 41.19265 43.26569 45.39523 47.40492 49.34738 51.01310 52.74529 54.62848 56.27636 57.93041 59.55584 
