Epson_XP-960/Ilford/Galerie_Prestige_Smooth_Pearl/ilford_gp_smooth_pearl_xp_960_targen.ti2
CTI2   

DESCRIPTOR "Argyll Calibration Target chart information 2"
ORIGINATOR "Argyll printtarg"
CREATED "Tue Sep 11 20:58:46 2018"
TARGET_INSTRUMENT "GretagMacbeth i1 Pro"
COMP_GREY_STEPS "128"
APPROX_WHITE_POINT "95.106486 100.000000 108.844025"
COLOR_REP "iRGB"
PAPER_SIZE "210.0x297.0"
RANDOM_START "151"
STEPS_IN_PASS "27"
PASSES_IN_STRIPS2 "25"
STRIP_INDEX_PATTERN "A-Z, A-Z"
PATCH_INDEX_PATTERN "0-9,@-9,@-9;1-999"
INDEX_ORDER "STRIP_THEN_PATCH"

NUMBER_OF_FIELDS 8
BEGIN_DATA_FORMAT
SAMPLE_ID SAMPLE_LOC RGB_R RGB_G RGB_B XYZ_X XYZ_Y XYZ_Z 
END_DATA_FORMAT

NUMBER_OF_SETS 675
BEGIN_DATA
1 "A13" 100.0000 100.0000 100.0000 95.10649 100.0000 108.8440 
2 "C27" 42.42924 89.85428 0.00000 34.92259 59.71389 10.54685 
3 "Y12" 44.95766 56.85359 74.16037 27.08096 28.26719 52.62961 
4 "L22" 59.50103 36.87953 18.09873 18.22789 15.71297 5.508012 
5 "E21" 18.35508 22.55894 39.76043 5.970947 5.480079 13.89516 
6 "D1" 53.76822 69.86801 44.57008 30.01412 39.05518 22.48020 
7 "Q24" 72.44068 72.44068 72.44068 46.50418 48.87038 53.14681 
8 "Y9" 42.51926 42.51926 42.51926 15.23049 15.97048 17.30784 
9 "I18" 100.0000 37.59060 90.94682 60.36801 36.07081 80.18499 
10 "O12" 50.67216 100.0000 96.17762 61.75727 82.98022 99.37497 
11 "E26" 19.68566 19.68566 19.68566 4.023820 4.181058 4.465234 
12 "A4" 74.88975 16.05859 5.528344 23.12717 13.56225 2.674374 
13 "J15" 69.00435 22.92210 27.55932 21.34161 13.61748 8.147615 
14 "D12" 98.42527 98.42527 98.42527 91.77029 96.49032 105.0208 
15 "S26" 97.63790 97.63790 97.63790 90.12848 94.76313 103.1393 
16 "B21" 96.85054 96.85054 96.85054 88.50412 93.05431 101.2779 
17 "V10" 96.06317 96.06317 96.06317 86.89716 91.36379 99.43632 
18 "E7" 95.27581 95.27581 95.27581 85.30756 89.69153 97.61466 
19 "P2" 94.48844 94.48844 94.48844 83.73524 88.03745 95.81282 
20 "A11" 93.70108 93.70108 93.70108 82.18017 86.40152 94.03074 
21 "W9" 92.91371 92.91371 92.91371 80.64228 84.78366 92.26835 
22 "F15" 92.12634 92.12634 92.12634 79.12152 83.18382 90.52559 
23 "H5" 91.33898 91.33898 91.33898 77.61783 81.60194 88.80240 
24 "F20" 90.55161 90.55161 90.55161 76.13117 80.03797 87.09872 
25 "F26" 89.76425 89.76425 89.76425 74.66147 78.49185 85.41448 
26 "I3" 88.97688 88.97688 88.97688 73.20868 76.96352 83.74961 
27 "V12" 88.18952 88.18952 88.18952 71.77274 75.45291 82.10406 
28 "R22" 87.40215 87.40215 87.40215 70.35360 73.95997 80.47775 
29 "G6" 86.61479 86.61479 86.61479 68.95120 72.48465 78.87063 
30 "U16" 85.82742 85.82742 85.82742 67.56549 71.02687 77.28263 
31 "J14" 85.04005 85.04005 85.04005 66.19639 69.58659 75.71368 
32 "X11" 84.25269 84.25269 84.25269 64.84387 68.16374 74.16371 
33 "O20" 83.46532 83.46532 83.46532 63.50786 66.75825 72.63267 
34 "C23" 82.67643 82.67643 82.67643 62.18830 65.37007 71.12048 
35 "C3" 81.88907 81.88907 81.88907 60.88513 63.99914 69.62708 
36 "M26" 81.10170 81.10170 81.10170 59.59830 62.64540 68.15240 
37 "O24" 80.31434 80.31434 80.31434 58.32775 61.30878 66.69637 
38 "I24" 79.52697 79.52697 79.52697 57.07341 59.98921 65.25893 
39 "E5" 78.73960 78.73960 78.73960 55.83523 58.68665 63.84000 
40 "U8" 77.95224 77.95224 77.95224 54.61315 57.40102 62.43952 
41 "N9" 77.16487 77.16487 77.16487 53.40710 56.13226 61.05742 
42 "B6" 76.37751 76.37751 76.37751 52.21703 54.88030 59.69362 
43 "U5" 75.59014 75.59014 75.59014 51.04288 53.64509 58.34807 
44 "G16" 74.80278 74.80278 74.80278 49.88458 52.42656 57.02068 
45 "M7" 74.01541 74.01541 74.01541 48.74207 51.22464 55.71139 
46 "E3" 73.22805 73.22805 73.22805 47.61529 50.03927 54.42012 
47 "K4" 100.0000 100.0000 100.0000 95.10649 100.0000 108.8440 
48 "S17" 71.65332 71.65332 71.65332 45.40867 47.71791 51.89139 
49 "M20" 70.86595 70.86595 70.86595 44.32870 46.58179 50.65377 
50 "O15" 70.07858 70.07858 70.07858 43.26422 45.46194 49.43389 
51 "L16" 69.29122 69.29122 69.29122 42.21514 44.35832 48.23167 
52 "X23" 68.50385 68.50385 68.50385 41.18142 43.27084 47.04705 
53 "T9" 67.71649 67.71649 67.71649 40.16297 42.19944 45.87993 
54 "A9" 66.92912 66.92912 66.92912 39.15975 41.14405 44.73026 
55 "O26" 66.14176 66.14176 66.14176 38.17168 40.10460 43.59796 
56 "D24" 65.35439 65.35439 65.35439 37.19870 39.08103 42.48294 
57 "A7" 64.56703 64.56703 64.56703 36.24074 38.07325 41.38514 
58 "R11" 63.77966 63.77966 63.77966 35.29774 37.08121 40.30447 
59 "V25" 62.99229 62.99229 62.99229 34.36962 36.10483 39.24087 
60 "C12" 62.20493 62.20493 62.20493 33.45631 35.14403 38.19424 
61 "X19" 61.41756 61.41756 61.41756 32.55776 34.19876 37.16452 
62 "U3" 60.63020 60.63020 60.63020 31.67389 33.26893 36.15162 
63 "B16" 59.84283 59.84283 59.84283 30.80463 32.35447 35.15547 
64 "U26" 59.05547 59.05547 59.05547 29.94991 31.45530 34.17598 
65 "Q3" 58.26810 58.26810 58.26810 29.10967 30.57136 33.21308 
66 "C8" 57.48074 57.48074 57.48074 28.28382 29.70258 32.26668 
67 "T3" 56.69337 56.69337 56.69337 27.47231 28.84886 31.33670 
68 "Q5" 55.90600 55.90600 55.90600 26.67505 28.01015 30.42306 
69 "Y7" 55.11864 55.11864 55.11864 25.89198 27.18635 29.52568 
70 "G21" 54.33127 54.33127 54.33127 25.12302 26.37741 28.64446 
71 "D3" 53.54391 53.54391 53.54391 24.36809 25.58323 27.77934 
72 "B11" 52.75654 52.75654 52.75654 23.62713 24.80374 26.93021 
73 "V20" 51.96918 51.96918 51.96918 22.90006 24.03886 26.09701 
74 "B13" 51.18181 51.18181 51.18181 22.18681 23.28852 25.27963 
75 "N23" 50.39445 50.39445 50.39445 21.48729 22.55262 24.47800 
76 "T26" 49.60555 49.60555 49.60555 20.80143 21.83110 23.69202 
77 "M3" 48.81819 48.81819 48.81819 20.12916 21.12387 22.92161 
78 "M5" 48.03082 48.03082 48.03082 19.47039 20.43085 22.16668 
79 "N16" 47.24346 47.24346 47.24346 18.82505 19.75195 21.42713 
80 "I10" 46.45609 46.45609 46.45609 18.19306 19.08710 20.70288 
81 "H11" 45.66873 45.66873 45.66873 17.57434 18.43620 19.99384 
82 "E12" 44.88136 44.88136 44.88136 16.96880 17.79918 19.29991 
83 "D5" 44.09400 44.09400 44.09400 16.37637 17.17594 18.62099 
84 "A5" 43.30663 43.30663 43.30663 15.79696 16.56640 17.95700 
85 "E14" 100.0000 100.0000 100.0000 95.10649 100.0000 108.8440 
86 "N4" 41.73190 41.73190 41.73190 14.67688 15.38808 16.67342 
87 "N20" 40.94453 40.94453 40.94453 14.13604 14.81911 16.05362 
88 "R8" 40.15717 40.15717 40.15717 13.60789 14.26349 15.44837 
89 "D8" 39.36980 39.36980 39.36980 13.09233 13.72113 14.85755 
90 "I19" 38.58244 38.58244 38.58244 12.58929 13.19193 14.28108 
91 "H16" 37.79507 37.79507 37.79507 12.09867 12.67580 13.71884 
92 "N25" 37.00771 37.00771 37.00771 11.62038 12.17264 13.17073 
93 "D26" 36.22034 36.22034 36.22034 11.15434 11.68237 12.63666 
94 "A15" 35.43297 35.43297 35.43297 10.70045 11.20487 12.11651 
95 "X14" 34.64561 34.64561 34.64561 10.25863 10.74007 11.61019 
96 "B18" 33.85824 33.85824 33.85824 9.828766 10.28786 11.11758 
97 "R6" 33.07088 33.07088 33.07088 9.410778 9.848137 10.63857 
98 "X8" 32.28351 32.28351 32.28351 9.004568 9.420804 10.17306 
99 "R4" 31.49615 31.49615 31.49615 8.610039 9.005759 9.720942 
100 "S4" 30.70878 30.70878 30.70878 8.227092 8.602899 9.282093 
101 "X17" 29.92142 29.92142 29.92142 7.855628 8.212119 8.856404 
102 "V2" 29.13405 29.13405 29.13405 7.495547 7.833314 8.443759 
103 "P4" 28.34668 28.34668 28.34668 7.146747 7.466377 8.044041 
104 "P26" 27.55932 27.55932 27.55932 6.809125 7.111198 7.657133 
105 "E17" 26.77195 26.77195 26.77195 6.482575 6.767667 7.282914 
106 "L10" 25.98459 25.98459 25.98459 6.166992 6.435674 6.921262 
107 "A17" 25.19722 25.19722 25.19722 5.862267 6.115104 6.572054 
108 "Y17" 24.40986 24.40986 24.40986 5.568292 5.805842 6.235165 
109 "E24" 23.62249 23.62249 23.62249 5.284955 5.507771 5.910466 
110 "G23" 22.83513 22.83513 22.83513 5.012142 5.220773 5.597830 
111 "G11" 22.04776 22.04776 22.04776 4.749741 4.944726 5.297123 
112 "P11" 21.26040 21.26040 21.26040 4.497633 4.679509 5.008212 
113 "T18" 20.47303 20.47303 20.47303 4.255699 4.424995 4.730962 
114 "H22" 0.00000 0.00000 0.00000 1.000000 1.000000 1.000000 
115 "K25" 18.89830 18.89830 18.89830 3.801872 3.947569 4.210886 
116 "J20" 18.11093 18.11093 18.11093 3.589730 3.724395 3.967775 
117 "Q19" 17.32357 17.32357 17.32357 3.387265 3.511402 3.735755 
118 "Y22" 16.53468 16.53468 16.53468 3.194348 3.308453 3.514676 
119 "U13" 15.74731 15.74731 15.74731 3.010845 3.115408 3.304385 
120 "U24" 14.95995 14.95995 14.95995 2.836620 2.932124 3.104727 
121 "W25" 14.17258 14.17258 14.17258 2.671534 2.758453 2.915542 
122 "L21" 13.38521 13.38521 13.38521 2.515445 2.594247 2.736667 
123 "W13" 12.59785 12.59785 12.59785 2.368206 2.439353 2.567935 
124 "P9" 11.81048 11.81048 11.81048 2.229669 2.293612 2.409175 
125 "W11" 11.02312 11.02312 11.02312 2.099680 2.156863 2.260210 
126 "K15" 10.23575 10.23575 10.23575 1.978081 2.028941 2.120860 
127 "W21" 9.448386 9.448386 9.448386 1.864709 1.909674 1.990938 
128 "O8" 8.661021 8.661021 8.661021 1.759399 1.798887 1.870255 
129 "Q21" 7.873655 7.873655 7.873655 1.661976 1.696398 1.758610 
130 "R19" 7.086290 7.086290 7.086290 1.572262 1.602020 1.655800 
131 "O13" 6.298924 6.298924 6.298924 1.490073 1.515557 1.561613 
132 "T5" 5.511559 5.511559 5.511559 1.415217 1.436808 1.475829 
133 "B24" 4.724193 4.724193 4.724193 1.347492 1.365562 1.398219 
134 "L8" 3.936828 3.936828 3.936828 1.286692 1.301600 1.328543 
135 "Q8" 3.149462 3.149462 3.149462 1.229411 1.241340 1.262900 
136 "J24" 2.362097 2.362097 2.362097 1.172058 1.181005 1.197175 
137 "H24" 1.574731 1.574731 1.574731 1.114705 1.120670 1.131450 
138 "X5" 0.787366 0.787366 0.787366 1.057353 1.060335 1.065725 
139 "U25" 0.00000 0.00000 100.0000 18.87111 8.147314 95.12896 
140 "E11" 0.00000 100.0000 0.00000 36.40521 71.80052 12.80184 
141 "N10" 0.00000 98.71366 81.88296 46.74827 74.29401 72.34705 
142 "N24" 100.0000 0.00000 0.00000 41.83017 22.05217 2.913230 
143 "T15" 100.0000 98.46647 55.06981 80.73044 92.29387 39.15819 
144 "T4" 77.14656 0.00000 52.27436 27.93754 14.40186 24.25155 
145 "Q7" 62.02029 28.34821 28.34516 18.46981 13.30497 8.574436 
146 "N7" 22.69780 49.70016 14.73869 10.54048 16.98129 5.363526 
147 "E27" 67.46624 47.13054 1.562524 24.54565 23.03887 4.127367 
148 "A2" 0.00000 57.78744 100.0000 29.25672 28.91563 98.59086 
149 "M13" 41.71054 90.54704 100.0000 53.06240 67.72327 104.8281 
150 "K22" 0.00000 26.64378 77.12673 12.98409 9.061470 54.04101 
151 "M9" 0.00000 49.31106 63.79034 14.86999 18.31224 37.77079 
152 "H18" 47.28771 32.91829 52.37354 16.11285 12.95489 24.68512 
153 "R9" 100.0000 0.00000 39.30571 44.11871 22.96744 14.96719 
154 "C22" 84.83406 42.69474 23.61486 35.34699 26.63100 8.402197 
155 "R3" 72.42237 0.00000 10.54704 20.92656 11.25168 2.949975 
156 "G8" 66.99321 73.98489 55.06523 40.25418 47.32657 32.60476 
157 "M15" 0.00000 75.73510 25.02937 20.81922 39.17507 12.10248 
158 "S1" 0.00000 73.13191 69.70626 26.41752 39.13944 48.60416 
159 "N17" 61.47555 0.00000 73.73770 23.71103 11.66997 48.99740 
160 "J1" 58.22690 62.63218 0.00000 25.57403 32.06832 5.702822 
161 "X27" 100.0000 77.07637 100.0000 79.36750 68.52642 103.5977 
162 "H4" 100.0000 76.71015 0.00000 61.28773 60.96185 9.399139 
163 "F6" 100.0000 70.13962 70.57603 65.91492 57.17128 51.16846 
164 "E10" 30.00381 31.11620 12.58106 7.043399 8.231150 3.436565 
165 "G17" 76.33173 100.0000 0.00000 58.59637 83.24235 13.84167 
166 "F18" 51.59838 36.75441 25.02174 15.20498 14.06448 7.548651 
167 "U17" 40.84688 75.72900 100.0000 43.44628 48.87509 101.6963 
168 "E1" 75.89075 99.67193 93.19295 73.27533 88.65863 93.94586 
169 "S6" 58.71061 59.59716 74.30381 33.65819 33.27298 53.45493 
170 "A26" 44.55940 62.98619 62.99229 26.71149 32.15282 38.88135 
171 "X13" 71.10857 49.60861 91.96002 42.16861 31.57550 82.19164 
172 "G19" 100.0000 38.46189 37.63790 48.25107 31.54960 15.36209 
173 "W10" 99.51324 61.51827 22.88090 54.06064 45.95423 10.89284 
174 "X4" 28.22614 0.00000 15.59167 4.019326 2.513383 3.099800 
175 "R17" 27.91028 0.00000 43.56451 6.430838 3.470999 16.11004 
176 "L5" 0.00000 80.31434 100.0000 40.43901 51.27708 102.3183 
177 "O27" 0.00000 100.0000 99.44762 54.05286 78.85846 105.7538 
178 "R26" 0.00000 0.00000 0.00000 1.000000 1.000000 1.000000 
179 "T17" 69.86191 100.0000 64.74403 61.34958 83.88313 49.11870 
180 "O7" 24.97292 7.978943 0.00000 3.326725 2.576325 1.181732 
181 "T23" 69.59640 44.48920 54.33127 29.53481 23.93312 27.94055 
182 "S10" 81.98825 65.18959 48.36957 44.15751 42.94016 25.49081 
183 "W6" 75.35058 66.01053 32.41321 38.01451 40.57202 14.72405 
184 "Y25" 41.17342 76.04486 57.15419 30.96516 44.17717 34.58255 
185 "H7" 40.71107 0.00000 0.00000 6.630941 3.903332 1.263856 
186 "A21" 0.00000 2.890059 21.23751 1.742100 1.423490 4.517984 
187 "L18" 50.97276 74.06577 37.67147 30.19410 42.50834 18.44907 
188 "D23" 52.72602 33.63699 100.0000 31.95314 19.75579 96.68073 
189 "S22" 55.83124 94.49302 33.81857 44.91053 69.64891 20.70698 
190 "L17" 68.24750 83.26696 23.61639 42.49482 57.01738 13.89163 
191 "D6" 29.97482 4.567025 73.65072 13.07801 6.377228 48.41087 
192 "N18" 67.84619 52.83436 50.63554 30.53545 28.44874 25.35161 
193 "Q15" 0.00000 31.01854 56.58350 8.781053 8.551520 28.29181 
194 "W16" 76.67201 9.802396 38.46342 25.94380 14.11883 13.68145 
195 "F21" 59.08446 28.37568 13.36080 16.17845 12.23228 3.872778 
196 "L20" 83.10826 24.11231 0.00000 29.53886 18.20494 2.817965 
197 "B23" 11.58160 0.308232 11.06279 1.735209 1.367342 2.133199 
198 "J19" 48.12696 10.38224 37.64096 11.51426 6.737787 12.50951 
199 "C1" 100.0000 97.23201 82.95109 86.75329 93.15787 75.64522 
200 "U2" 9.317159 100.0000 61.29091 42.73842 74.37588 44.24214 
201 "K13" 68.89601 80.89113 90.09232 54.67771 59.57269 83.42458 
202 "D20" 45.39559 46.39811 76.72847 24.37718 21.49103 55.24113 
203 "E19" 25.03548 56.13031 46.93828 16.16627 22.89618 21.92854 
204 "Q1" 90.46159 50.39750 50.39445 45.12413 34.74162 25.58592 
205 "J7" 14.41520 27.61425 36.99245 5.956381 6.579194 12.38017 
206 "R15" 86.93675 80.67903 23.55077 53.32774 60.22359 13.91711 
207 "I17" 54.51591 49.80697 29.26833 20.30414 21.96226 10.55705 
208 "N19" 48.11933 100.0000 52.53681 48.70895 77.65182 35.60775 
209 "K20" 79.04479 61.87839 0.00000 37.06869 37.51103 6.148020 
210 "K3" 59.72686 98.83574 77.62264 58.43711 80.61357 66.21400 
211 "F19" 7.669184 9.784085 38.46342 3.806366 2.703275 12.64386 
212 "F4" 62.20798 25.68704 38.42374 19.16549 12.93399 13.78540 
213 "F16" 57.72488 96.61250 96.85054 62.30337 79.27284 99.99750 
214 "O23" 100.0000 53.54238 78.42985 60.94314 43.76064 60.20805 
215 "U22" 70.56229 32.50019 67.57000 30.07514 19.66625 41.87530 
216 "J17" 84.83253 76.53925 85.77554 61.11625 59.26899 75.26310 
217 "T14" 69.25002 43.30968 35.63439 26.28966 22.08675 13.51029 
218 "I14" 78.93339 17.60433 29.92142 27.14913 15.70474 9.286316 
219 "N5" 92.69093 0.00000 100.0000 53.23893 25.86748 96.73938 
220 "O5" 38.36881 44.71351 3.157092 11.97325 15.49785 3.449561 
221 "G22" 80.44709 33.01289 92.23926 43.99456 26.12658 81.57737 
222 "S8" 72.62989 54.86534 75.13390 39.50479 33.52875 54.40112 
223 "C18" 56.60792 0.00000 21.11849 13.10362 7.164805 4.990838 
224 "G18" 48.09491 55.59167 46.74907 21.88773 25.54811 21.98746 
225 "V6" 79.13787 44.05737 3.160143 30.87976 24.97102 4.282589 
226 "J6" 29.73831 20.29450 0.00000 5.142630 4.924153 1.539291 
227 "S15" 28.10559 25.04158 36.73762 7.415062 6.760097 12.18652 
228 "N27" 0.00000 64.67842 73.22347 23.16017 31.15452 52.05538 
229 "W2" 80.61494 77.18929 100.0000 63.68440 60.53626 102.8813 
230 "B5" 76.30884 80.08087 45.13924 47.67361 56.51046 25.35038 
231 "I26" 41.55184 27.76379 30.90257 10.48789 9.023204 9.336713 
232 "F22" 0.00000 26.14481 19.68566 3.542186 5.164964 4.680682 
233 "Q18" 30.08927 0.00000 6.564431 4.106749 2.590495 1.658058 
234 "H25" 58.37491 66.25925 100.0000 45.15668 42.53765 100.3829 
235 "B10" 55.39330 100.0000 0.00000 47.32331 77.42993 13.31344 
236 "Q4" 47.95758 0.00000 48.35126 12.54541 6.541298 20.11515 
237 "G27" 86.05783 100.0000 81.15206 76.60471 91.23861 72.85623 
238 "G4" 48.26581 76.53925 85.77554 41.08295 48.94033 74.32449 
239 "A14" 85.49172 0.00000 6.572061 29.72586 15.79978 2.859230 
240 "S16" 55.86328 49.43465 0.00000 19.51608 21.52116 3.985974 
241 "G12" 29.11574 26.53544 49.46517 9.578367 7.998539 21.49151 
242 "H15" 40.84688 84.59907 51.38170 34.97160 54.02645 30.71964 
243 "G3" 82.83513 77.36019 60.59358 53.30852 56.72585 39.50030 
244 "W19" 3.970397 47.26635 49.30495 11.54979 15.97329 22.79093 
245 "A22" 42.05997 52.39643 31.17113 16.83545 21.44867 11.53117 
246 "D4" 100.0000 27.81415 61.39773 50.04523 28.89927 35.19874 
247 "B19" 58.11398 14.66545 7.083238 13.90171 8.629926 2.362734 
248 "A16" 30.42496 64.78981 0.00000 17.43721 29.30304 5.597594 
249 "X2" 22.47959 36.28138 21.61288 7.207835 9.811060 5.967316 
250 "K21" 38.65263 47.09087 54.33280 17.28804 18.75156 27.58677 
251 "C4" 86.73228 56.86427 42.26596 43.26601 37.36251 19.78182 
252 "X7" 21.35500 32.09430 67.57000 12.90758 10.69931 41.04857 
253 "E22" 21.93027 26.01816 18.67399 5.079827 5.935942 4.466400 
254 "H23" 59.00816 43.52636 20.44862 19.78304 18.96495 6.712712 
255 "N6" 47.33959 40.77974 47.82177 17.14241 16.19358 21.29929 
256 "N15" 26.67430 25.04311 87.97284 18.53434 11.17706 72.11082 
257 "V5" 26.29740 50.26169 73.20211 19.80496 21.04739 50.25059 
258 "R24" 80.19226 95.79919 98.38254 75.12426 84.89080 103.5705 
259 "B8" 72.79927 43.66827 46.45762 29.89357 23.92975 21.02251 
260 "L11" 78.80369 38.14908 33.06935 30.68994 22.44300 11.94838 
261 "P23" 0.00000 20.07324 21.97147 2.887466 3.642780 5.119118 
262 "J10" 0.00000 11.55566 6.327916 1.540046 1.930182 1.641878 
263 "S3" 100.0000 61.43435 100.0000 71.58122 52.95604 101.0022 
264 "S14" 39.47509 31.90814 0.00000 9.216108 9.599731 2.227271 
265 "F5" 47.82330 65.19417 48.36957 26.04524 33.60417 24.64263 
266 "J16" 55.07897 78.50919 71.09941 40.56716 50.85965 51.99377 
267 "L14" 27.26635 83.06554 85.77096 39.35478 53.84394 75.35453 
268 "M16" 100.0000 45.13771 6.512551 48.00882 34.25233 5.452093 
269 "E15" 87.53796 40.35554 54.32670 40.56945 27.98574 28.13687 
270 "R23" 75.32464 89.38125 60.64088 55.81645 69.32427 41.85183 
271 "V8" 44.47089 93.78347 85.45205 50.91305 70.70590 77.44620 
272 "Y14" 62.58335 85.03700 85.04005 52.17912 62.35665 75.05635 
273 "X21" 34.22904 55.91058 62.65202 20.84108 24.84500 37.38469 
274 "E6" 77.35714 36.03571 59.14549 33.16078 22.55401 32.38504 
275 "Y20" 52.98390 43.63165 44.88136 19.59839 18.63313 19.32247 
276 "W18" 79.60021 0.00000 69.54147 33.26834 16.72505 43.69980 
277 "V4" 100.0000 100.0000 100.0000 95.10649 100.0000 108.8440 
278 "V3" 64.58686 38.98375 4.946975 20.82601 17.82777 3.568417 
279 "L25" 47.50744 27.65087 69.16457 18.82206 12.55279 43.15785 
280 "T19" 64.95155 0.00000 100.0000 34.36304 16.13500 95.85488 
281 "U27" 42.04013 48.36500 100.0000 31.95180 25.36010 97.76259 
282 "K27" 0.00000 44.80964 24.52583 7.863007 13.32328 7.607846 
283 "P22" 32.55970 17.57839 29.92142 6.758475 5.187582 8.330134 
284 "C25" 100.0000 99.10124 0.00000 76.51606 91.41425 14.47529 
285 "S27" 94.64714 30.33494 72.06378 48.22761 28.29895 48.56094 
286 "T16" 36.39734 40.35248 56.29816 15.19372 14.85792 28.88315 
287 "U9" 59.61700 40.34943 70.57755 26.76964 20.45505 46.14489 
288 "U21" 0.00000 33.92538 39.74823 6.678218 8.606523 14.45267 
289 "C7" 48.45045 19.93439 76.79408 20.17528 11.47683 53.62680 
290 "V17" 35.13695 87.17937 70.08164 39.10636 58.22253 52.11975 
291 "E16" 81.93179 56.69337 30.07401 38.28749 34.85497 12.46741 
292 "U14" 34.85466 17.68978 43.22728 8.799702 6.082693 16.24435 
293 "D9" 84.06348 28.53285 22.01724 31.61394 20.18021 6.813376 
294 "G24" 56.08453 12.06836 15.99145 13.08949 7.899363 3.752423 
295 "Q22" 11.35882 21.93179 0.00000 2.897307 4.051012 1.489006 
296 "E25" 79.61242 22.93126 50.69200 30.84911 18.19322 23.40535 
297 "Y26" 89.31868 76.81392 71.60296 60.53872 59.68910 53.33594 
298 "S2" 43.68963 25.67178 21.55337 10.12138 8.441036 5.530472 
299 "W17" 63.18303 56.12879 46.93828 28.65779 29.33584 22.51367 
300 "T25" 27.89960 80.08392 0.00000 25.01188 45.18351 8.264043 
301 "H13" 50.30747 66.75517 81.11849 35.26262 38.56216 64.81200 
302 "E20" 100.0000 40.38148 25.27199 47.55845 32.02119 9.405315 
303 "V7" 85.62600 92.63142 85.32692 71.96222 80.30885 77.97597 
304 "P25" 77.25490 33.90555 39.74823 29.47109 20.35269 15.51955 
305 "C5" 90.24338 100.0000 38.26047 70.91481 89.34366 25.70735 
306 "L3" 38.97765 34.46708 27.70581 10.69813 10.98610 8.262095 
307 "S25" 47.47387 56.86275 81.89670 30.21402 29.62552 64.61758 
308 "C14" 32.76570 68.50080 68.50385 27.32706 36.12568 46.39751 
309 "D18" 83.39513 98.98222 55.13237 67.38956 86.02013 38.71069 
310 "P12" 22.17746 18.15061 56.97871 8.706635 5.837650 28.17549 
311 "P6" 79.57122 27.30907 28.34668 28.67234 18.31802 9.005034 
312 "K23" 70.50278 57.67453 63.09148 36.28538 33.80474 38.81112 
313 "W12" 41.54879 21.51522 0.00000 8.224878 6.723145 1.724212 
314 "I12" 38.78691 42.69322 30.46921 12.83534 14.96071 10.15320 
315 "G15" 30.69200 49.60861 91.96002 26.35739 23.42287 81.45069 
316 "R1" 67.96826 79.74670 100.0000 57.22999 59.42838 103.0074 
317 "V18" 50.15946 28.66865 39.76349 14.51061 11.20596 14.55192 
318 "M11" 14.85618 54.86076 75.13390 20.43229 23.69265 53.50698 
319 "D16" 18.23911 3.685054 6.570535 2.337708 1.828211 1.604709 
320 "J27" 64.96986 58.92882 84.54871 39.56273 35.55817 69.70756 
321 "H27" 89.72763 55.48180 62.65202 48.69201 38.96523 38.64332 
322 "O1" 84.33051 88.60456 70.08164 63.69539 72.33607 53.54886 
323 "Q13" 96.50416 68.22004 81.89212 65.00971 54.91839 67.66023 
324 "B14" 0.00000 100.0000 37.24880 38.44963 72.61816 23.57003 
325 "W23" 41.12917 34.41672 19.45983 10.75161 11.06193 5.374933 
326 "C16" 49.97177 79.01579 20.36316 31.13362 47.32519 11.56362 
327 "R12" 8.805982 13.91928 68.54810 9.588774 5.449207 41.46808 
328 "Q26" 83.66064 58.21164 53.08919 43.17335 37.90343 28.74030 
329 "D22" 22.16220 41.71511 56.54841 12.78361 14.12759 29.12209 
330 "E18" 91.35424 66.89097 28.37873 49.76422 47.28779 13.50041 
331 "R25" 65.24758 53.11971 22.64286 26.03930 26.64757 8.561907 
332 "T10" 67.36248 23.59808 0.00000 19.40418 12.87697 2.323286 
333 "Y3" 41.96384 0.00000 18.91203 7.536761 4.308747 4.087713 
334 "F14" 0.00000 63.16014 32.97017 15.21547 26.88772 13.56965 
335 "N21" 70.65843 42.67491 100.0000 42.94334 28.56686 97.80269 
336 "S18" 36.83986 63.31579 35.93805 20.15895 29.50346 15.43902 
337 "P18" 84.80354 82.26902 74.90806 61.18837 64.74325 58.95638 
338 "P21" 23.19524 36.04181 6.587320 6.674291 9.526199 2.863956 
339 "M2" 65.15297 23.39513 91.62890 32.83598 18.06775 79.44736 
340 "W1" 100.0000 74.65019 63.42718 66.57174 61.23515 42.90506 
341 "U15" 65.48562 86.03494 70.08164 49.98307 62.69910 52.41059 
342 "U12" 88.51148 56.83528 83.02739 53.70579 41.68119 67.57686 
343 "S13" 43.90173 100.0000 26.66667 44.04774 75.62154 18.55287 
344 "F12" 0.00000 96.96193 70.08469 42.03531 70.21686 54.28444 
345 "F1" 0.00000 94.10391 100.0000 49.71135 69.81917 105.4091 
346 "H2" 49.67880 39.79706 84.60822 26.51235 19.64565 67.42518 
347 "H6" 57.72641 61.42824 30.46159 26.17698 31.45313 12.63041 
348 "U19" 66.84062 67.90723 58.27115 37.67293 41.29504 34.83500 
349 "R2" 65.16823 63.75830 44.93477 32.54144 36.04804 22.04219 
350 "O18" 54.34958 3.303578 31.49462 13.01000 7.159595 9.132365 
351 "A27" 100.0000 0.00000 26.32944 42.83745 22.45502 8.218689 
352 "C9" 63.05486 4.644846 51.40154 19.69970 10.36232 23.11323 
353 "L6" 76.65217 64.09247 77.09621 46.37716 42.60621 58.71210 
354 "J5" 54.58915 71.95087 100.0000 46.30872 47.32001 101.2453 
355 "G26" 62.65812 36.10285 57.16030 24.22171 18.01271 29.89368 
356 "U6" 4.882887 68.51759 90.07248 30.37813 36.96295 80.30180 
357 "Y2" 25.47189 36.16846 34.34806 8.691033 10.41837 11.46740 
358 "X16" 88.97841 100.0000 1.081865 67.75109 87.96082 14.34872 
359 "D14" 62.59861 71.45190 67.52575 39.27270 44.51935 46.13162 
360 "S23" 46.40574 40.33875 54.32517 17.81112 16.24542 27.06843 
361 "L13" 68.34058 40.34638 56.29816 28.08254 21.50078 29.48658 
362 "X26" 0.00000 87.57458 43.42412 30.03502 54.54073 24.62186 
363 "V11" 43.07164 58.92424 15.04387 18.53703 26.08729 6.765389 
364 "M21" 0.00000 82.18051 72.33997 32.32546 49.86074 53.94413 
