Epson_XP-960/PermaJet/Smooth_Pearl_280/PermaJet_Smooth_Pearl_280.ti3
CTI3   

DESCRIPTOR "Argyll Calibration Target chart information 3"
ORIGINATOR "Argyll chartread"
CREATED "Fri Sep 14 23:11:55 2018"
DEVICE_CLASS "OUTPUT"
COMP_GREY_STEPS "8"
COLOR_REP "iRGB_XYZ"
TARGET_INSTRUMENT "X-Rite ColorMunki"
DEVCALSTD "XRGA"
SPECTRAL_BANDS "106"
SPECTRAL_START_NM "380.000000"
SPECTRAL_END_NM "730.000000"

NUMBER_OF_FIELDS 114
BEGIN_DATA_FORMAT
SAMPLE_ID SAMPLE_LOC RGB_R RGB_G RGB_B XYZ_X XYZ_Y XYZ_Z SPEC_380 SPEC_383 SPEC_387 SPEC_390 SPEC_393 SPEC_397 SPEC_400 SPEC_403 SPEC_407 SPEC_410 SPEC_413 SPEC_417 SPEC_420 SPEC_423 SPEC_427 SPEC_430 SPEC_433 SPEC_437 SPEC_440 SPEC_443 SPEC_447 SPEC_450 SPEC_453 SPEC_457 SPEC_460 SPEC_463 SPEC_467 SPEC_470 SPEC_473 SPEC_477 SPEC_480 SPEC_483 SPEC_487 SPEC_490 SPEC_493 SPEC_497 SPEC_500 SPEC_503 SPEC_507 SPEC_510 SPEC_513 SPEC_517 SPEC_520 SPEC_523 SPEC_527 SPEC_530 SPEC_533 SPEC_537 SPEC_540 SPEC_543 SPEC_547 SPEC_550 SPEC_553 SPEC_557 SPEC_560 SPEC_563 SPEC_567 SPEC_570 SPEC_573 SPEC_577 SPEC_580 SPEC_583 SPEC_587 SPEC_590 SPEC_593 SPEC_597 SPEC_600 SPEC_603 SPEC_607 SPEC_610 SPEC_613 SPEC_617 SPEC_620 SPEC_623 SPEC_627 SPEC_630 SPEC_633 SPEC_637 SPEC_640 SPEC_643 SPEC_647 SPEC_650 SPEC_653 SPEC_657 SPEC_660 SPEC_663 SPEC_667 SPEC_670 SPEC_673 SPEC_677 SPEC_680 SPEC_683 SPEC_687 SPEC_690 SPEC_693 SPEC_697 SPEC_700 SPEC_703 SPEC_707 SPEC_710 SPEC_713 SPEC_717 SPEC_720 SPEC_723 SPEC_727 SPEC_730 
END_DATA_FORMAT

NUMBER_OF_SETS 210
BEGIN_DATA
1 "A3" 100.0000 100.0000 100.0000 80.72010 84.06208 70.97565 81.13941 81.13941 81.13941 81.13941 81.13941 81.13941 81.13941 81.16702 81.17338 81.11972 80.96731 80.91798 81.17369 82.06897 83.19820 84.16530 84.68361 84.89580 84.95535 85.02997 85.16516 85.40973 85.78513 86.26795 86.73188 87.17956 87.79890 88.41729 88.87129 89.09960 89.03184 88.66147 88.13847 87.52533 86.91367 86.45244 86.06693 85.73768 85.46094 85.23704 85.09494 84.96759 84.82549 84.66360 84.57216 84.50184 84.46214 84.44585 84.45193 84.44300 84.39153 84.27737 84.10143 83.90746 83.73219 83.63317 83.57613 83.49236 83.33576 83.15759 82.98120 82.86189 82.79401 82.74536 82.68612 82.64173 82.62526 82.63931 82.66557 82.71571 82.78214 82.84135 82.92126 83.03427 83.20005 83.36570 83.54430 83.73275 83.94718 84.19189 84.44929 84.71062 85.02028 85.35835 85.65976 85.88546 86.06832 86.24286 86.42505 86.63344 86.83485 87.02398 87.21518 87.45513 87.58668 87.73954 87.97281 88.05606 88.22713 88.38272 88.46084 88.52435 88.50956 88.63790 88.76959 88.80486 
2 "M8" 0.00000 31.54498 19.63836 2.238606 3.744005 3.422344 3.739564 3.739564 3.739564 3.739564 3.739564 3.739564 3.739564 3.740832 3.741120 3.738643 3.731613 3.729334 3.741107 3.709752 3.681457 3.634927 3.576614 3.514233 3.456423 3.420003 3.397507 3.388418 3.420074 3.486782 3.556798 3.666688 3.793374 3.933338 4.094907 4.241858 4.540173 5.047936 5.732561 6.547217 7.459088 8.297231 8.989129 9.391087 9.482001 9.317072 8.977200 8.568731 8.165423 7.794546 7.444403 7.076175 6.650683 6.144893 5.554569 4.910083 4.243216 3.600361 3.019037 2.520074 2.104512 1.770564 1.505312 1.291849 1.120794 0.987343 0.891495 0.824258 0.780657 0.759420 0.754174 0.757808 0.765458 0.790461 0.829365 0.889227 0.975842 1.086923 1.233182 1.417357 1.647844 1.931454 2.260339 2.652598 3.096161 3.568261 4.065728 4.592314 5.159780 5.736983 6.298894 6.883422 7.488929 8.135725 8.860359 9.673848 10.59903 11.62762 12.81505 14.16208 15.60617 17.12643 18.81716 20.67811 22.52816 24.28627 26.14511 27.96279 29.74614 31.58446 33.42126 35.36593 
3 "A6" 0.00000 19.55749 34.53422 2.293056 2.732496 4.753616 6.154818 6.154818 6.154818 6.154818 6.154818 6.154818 6.154818 6.157144 6.157860 6.154027 6.142703 6.139202 6.158840 6.129539 6.127275 6.099192 6.020366 5.923860 5.828019 5.743391 5.669180 5.610846 5.581154 5.593780 5.606186 5.573474 5.545887 5.513722 5.478023 5.480705 5.553917 5.718238 6.007443 6.356516 6.637018 6.883472 6.989294 6.847286 6.532654 6.111831 5.669066 5.265119 4.926882 4.655622 4.440312 4.247156 4.019834 3.738947 3.406955 3.039025 2.655470 2.282108 1.959436 1.695895 1.476305 1.298743 1.161225 1.048925 0.956557 0.890570 0.833676 0.787797 0.766556 0.758983 0.758258 0.763931 0.782062 0.812805 0.855910 0.919863 1.011193 1.122357 1.268073 1.470873 1.724495 2.021351 2.357942 2.747200 3.182159 3.663575 4.183856 4.722915 5.293841 5.877049 6.467129 7.057512 7.624774 8.274071 9.034231 9.852616 10.72904 11.76849 12.97505 14.36015 15.78205 17.30704 19.00734 20.71349 22.46629 24.35600 26.31190 28.17866 29.91624 31.73991 33.63719 35.34150 
4 "N10" 58.59770 86.10971 69.36141 35.07844 44.01332 32.09380 34.38822 34.38822 34.38822 34.38822 34.38822 34.38822 34.38822 34.39937 34.40149 34.37818 34.31300 34.29151 34.39925 34.55202 34.83125 35.03753 35.06600 35.01188 34.93957 34.92657 35.00503 35.23595 35.67872 36.30853 37.06198 37.85619 38.74251 39.74974 40.78904 41.88159 43.12950 44.80455 46.77102 48.98709 51.35747 53.69437 55.83110 57.60343 58.96261 59.81821 60.28117 60.42025 60.30210 59.96123 59.47769 58.82499 57.96510 56.87919 55.56566 53.98771 52.18664 50.19288 48.04758 45.81800 43.55856 41.31786 39.10199 36.94235 34.88076 33.00580 31.38871 30.06650 29.04413 28.30384 27.82702 27.59203 27.58252 27.80382 28.24558 28.90830 29.75918 30.80682 32.03113 33.38407 34.82887 36.32860 37.85465 39.40264 40.93309 42.42745 43.87275 45.23256 46.57207 47.86053 49.05358 50.13705 51.22135 52.39710 53.55368 54.70537 55.86820 57.11759 58.49270 59.92192 61.32665 62.65895 64.19445 65.67730 67.10943 68.27060 69.40854 70.44170 71.41345 72.23956 73.18294 74.26312 
5 "H11" 36.31952 9.677272 36.17609 8.666945 5.771333 4.475122 6.485011 6.485011 6.485011 6.485011 6.485011 6.485011 6.485011 6.487167 6.487623 6.483283 6.471048 6.467051 6.487420 6.414131 6.322661 6.199657 6.045691 5.879675 5.724809 5.597108 5.492105 5.407248 5.358569 5.340454 5.316159 5.268766 5.167941 5.045245 4.971189 4.922757 4.856364 4.905433 5.050021 5.212774 5.350317 5.399170 5.311246 5.086429 4.785420 4.433037 4.093051 3.828513 3.648400 3.543100 3.498763 3.483732 3.458031 3.405086 3.298245 3.145945 2.963132 2.783950 2.636291 2.544134 2.534551 2.615036 2.789571 3.060055 3.403419 3.806651 4.263018 4.762165 5.294609 5.861861 6.450878 7.061763 7.704485 8.393757 9.141729 9.973627 10.89992 11.92699 13.05822 14.28510 15.58959 16.96115 18.37703 19.80866 21.24651 22.67338 24.07489 25.41015 26.70908 27.94900 29.12356 30.24055 31.34667 32.56159 33.82185 35.14452 36.50117 37.95646 39.54641 41.30355 43.09627 44.83990 46.77262 48.76106 50.73843 52.47871 54.15777 55.79615 57.39384 58.96030 60.46862 61.92347 
6 "F2" 100.0000 100.0000 100.0000 80.89919 84.20133 71.44540 81.51232 81.51232 81.51232 81.51232 81.51232 81.51232 81.51232 81.54008 81.54648 81.49259 81.33948 81.28994 81.54684 82.46929 83.65580 84.67128 85.22940 85.47070 85.54266 85.62715 85.77424 86.02727 86.42609 86.94274 87.45385 87.94627 88.61777 89.29356 89.62024 89.63699 89.39448 89.03678 88.46304 87.77321 87.19367 86.70546 86.25233 85.87498 85.60218 85.35493 85.21250 85.08513 84.94391 84.78764 84.70172 84.62418 84.57007 84.56134 84.57854 84.55713 84.50079 84.39622 84.22032 84.02798 83.85190 83.75048 83.69219 83.61274 83.45524 83.27035 83.09859 82.97703 82.90546 82.85146 82.80317 82.77567 82.75940 82.76815 82.80036 82.85573 82.91338 82.97154 83.06338 83.17343 83.31069 83.46293 83.64481 83.84391 84.03955 84.27799 84.54425 84.80167 85.12341 85.46972 85.74419 85.94344 86.15281 86.37900 86.53344 86.73295 86.89908 87.05185 87.20373 87.44176 87.65633 87.78237 88.03734 88.26783 88.52505 88.57415 88.59336 88.62216 88.59436 88.64871 88.76638 88.92645 
7 "J14" 70.64317 82.40940 93.62173 49.66107 52.89879 58.05814 68.16709 68.16709 68.16709 68.16709 68.16709 68.16709 68.16709 68.19145 68.19797 68.15409 68.02724 67.98702 68.20311 69.11017 70.13779 70.96917 71.42311 71.58231 71.51903 71.43060 71.36142 71.33974 71.43002 71.52030 71.56301 71.58926 71.64571 71.65312 71.34262 70.82179 70.00403 69.30034 68.46950 67.72842 67.03119 66.24153 65.45917 64.64505 63.76218 62.83417 61.98606 61.23746 60.62160 60.10344 59.69421 59.29029 58.82224 58.23710 57.48748 56.53663 55.42187 54.18931 52.89200 51.59795 50.34326 49.17195 48.04514 46.92790 45.82064 44.79968 43.91310 43.21488 42.72880 42.43311 42.30376 42.34729 42.54896 42.92389 43.46856 44.18817 45.05464 46.07166 47.21123 48.43975 49.73174 51.05257 52.38853 53.72002 55.00196 56.28327 57.54056 58.71260 59.86595 60.95296 61.87941 62.73781 63.57655 64.48775 65.39848 66.26489 67.14793 68.07393 69.10000 70.20467 71.25591 72.22210 73.43839 74.53797 75.68263 76.55363 77.25504 77.87797 78.50059 78.96878 79.61346 80.45271 
8 "H9" 81.60983 36.98939 30.78050 35.02548 26.92809 6.338813 7.306270 7.306270 7.306270 7.306270 7.306270 7.306270 7.306270 7.307206 7.306208 7.299790 7.284469 7.278405 7.299738 7.174841 7.044303 6.897641 6.718749 6.544374 6.399879 6.302975 6.250385 6.246807 6.319806 6.457351 6.634420 6.848614 7.081535 7.295359 7.514651 7.889063 8.417112 9.163104 10.07881 11.27767 12.57521 13.77982 14.81989 15.54938 15.97874 16.12542 16.10704 16.03800 16.03063 16.14275 16.38045 16.67935 16.96297 17.17045 17.23429 17.15860 17.01050 16.90619 16.96001 17.28219 17.95417 19.01924 20.46119 22.25014 24.32154 26.62135 29.11902 31.77770 34.53021 37.28931 39.97321 42.52432 44.89327 47.08464 49.09563 50.95554 52.67542 54.29336 55.83600 57.29823 58.71502 60.06970 61.37268 62.61846 63.79235 64.92274 65.99236 66.95888 67.90085 68.77355 69.54951 70.22035 70.90417 71.73784 72.61410 73.44718 74.22271 75.00065 75.86855 76.87311 77.84863 78.66615 79.72200 80.80073 81.80311 82.49456 83.12941 83.72257 84.34949 84.97321 85.53256 86.17111 
9 "H14" 10.43259 50.62333 61.71969 6.351031 9.449677 16.64667 18.33195 18.33195 18.33195 18.33195 18.33195 18.33195 18.33195 18.33882 18.34089 18.32941 18.29562 18.28513 18.34358 18.64971 18.97283 19.23847 19.38384 19.44610 19.46278 19.48920 19.52503 19.59035 19.73518 19.94791 20.19068 20.41462 20.61585 20.77878 20.91327 21.07458 21.28607 21.68065 22.22403 22.92719 23.61538 24.05207 24.15248 23.87197 23.24540 22.37044 21.39942 20.42401 19.51056 18.65256 17.82986 16.96849 15.99343 14.88043 13.62490 12.25641 10.82428 9.399104 8.047222 6.806335 5.698284 4.731218 3.898793 3.210444 2.661015 2.231534 1.907215 1.680824 1.529142 1.436458 1.393273 1.388159 1.413443 1.471806 1.569951 1.719216 1.923143 2.186347 2.519524 2.917788 3.394777 3.952714 4.580367 5.263037 6.009365 6.805339 7.624238 8.461175 9.322409 10.18551 11.02254 11.84103 12.66480 13.54806 14.50496 15.56398 16.72162 17.97373 19.41040 21.02167 22.72941 24.48194 26.41665 28.42008 30.45375 32.41205 34.31891 36.20421 38.04029 39.89095 41.69903 43.56641 
10 "H13" 93.49660 21.73190 61.04677 39.53808 24.52408 14.47999 22.02157 22.02157 22.02157 22.02157 22.02157 22.02157 22.02157 22.02865 22.02996 22.01498 21.97318 21.95936 22.02828 21.88238 21.73030 21.47961 21.06874 20.56987 20.05045 19.57458 19.12488 18.69053 18.28438 17.88421 17.47850 17.03480 16.54760 15.93140 15.21334 14.57162 14.00011 13.60396 13.29600 13.09230 12.86441 12.50773 11.99671 11.28748 10.48607 9.666368 8.949192 8.415789 8.102548 7.999556 8.068816 8.237685 8.424616 8.560078 8.597530 8.536916 8.420001 8.341700 8.409462 8.743917 9.457883 10.63588 12.33444 14.58796 17.38764 20.70235 24.47642 28.67163 33.20240 37.94374 42.73368 47.43327 51.88603 55.98880 59.67204 62.92080 65.72606 68.12863 70.18528 71.92992 73.43032 74.71535 75.84655 76.84590 77.71451 78.52088 79.27069 79.91990 80.57639 81.17907 81.69926 82.19375 82.66436 83.19985 83.73136 84.25317 84.71708 85.11537 85.58579 86.17903 86.72530 87.09128 87.72533 88.35435 89.00550 89.31287 89.53589 89.73834 90.00479 90.27515 90.55177 90.96054 
11 "G8" 14.28550 14.28550 14.28550 3.076613 3.006824 2.389500 3.078693 3.078693 3.078693 3.078693 3.078693 3.078693 3.078693 3.079706 3.079912 3.077840 3.072020 3.070111 3.079767 3.008415 2.953794 2.896391 2.822302 2.745656 2.675657 2.624752 2.590332 2.560371 2.551395 2.578199 2.598612 2.586879 2.616852 2.726315 2.787591 2.864222 2.991345 3.176148 3.487024 3.862700 4.256550 4.583701 4.834934 4.951121 4.913413 4.746563 4.520204 4.290405 4.096379 3.956451 3.864196 3.782565 3.671303 3.520350 3.310760 3.049835 2.765206 2.483559 2.226636 2.012796 1.848474 1.727293 1.641782 1.581106 1.537790 1.507484 1.480311 1.467198 1.476322 1.503867 1.549496 1.614359 1.697230 1.811175 1.966880 2.165705 2.419937 2.737502 3.121662 3.581834 4.121529 4.741068 5.438396 6.189297 6.990502 7.827096 8.681356 9.550302 10.42731 11.27894 12.11812 12.95761 13.80262 14.70580 15.68912 16.75703 17.92945 19.20946 20.64327 22.21465 23.90817 25.69946 27.61032 29.59632 31.63101 33.52993 35.45575 37.36669 39.24378 41.06413 42.82265 44.66145 
12 "L3" 71.42901 71.42901 71.42901 42.76015 44.30417 32.04748 37.12037 37.12037 37.12037 37.12037 37.12037 37.12037 37.12037 37.13255 37.13499 37.10998 37.03979 37.01674 37.13321 37.25436 37.50850 37.63119 37.54185 37.36644 37.15924 37.00717 36.92719 36.96214 37.16120 37.45799 37.83080 38.25387 38.74808 39.24915 39.63035 40.07828 40.59203 41.45936 42.52153 43.77155 45.02348 46.10106 46.93163 47.43611 47.61742 47.47919 47.18485 46.86420 46.61761 46.45045 46.41651 46.42280 46.35603 46.14787 45.75602 45.16031 44.41317 43.59776 42.80354 42.11685 41.57715 41.21623 40.95559 40.74308 40.55426 40.40186 40.31760 40.34214 40.47921 40.71353 41.03113 41.44747 41.94888 42.55340 43.27708 44.12110 45.08476 46.17221 47.35887 48.60978 49.92450 51.25780 52.60548 53.94328 55.22885 56.50756 57.75215 58.89816 60.02464 61.05953 61.96023 62.81742 63.67467 64.63236 65.58233 66.50626 67.40946 68.36843 69.38275 70.48997 71.58977 72.58921 73.80430 74.93779 76.02819 76.90002 77.66481 78.31199 79.04811 79.57380 80.09908 81.00097 
13 "A14" 0.00000 57.14656 27.48608 3.218200 7.522005 5.581205 5.041296 5.041296 5.041296 5.041296 5.041296 5.041296 5.041296 5.042863 5.043107 5.039620 5.029996 5.026774 5.042494 5.033250 5.037801 5.026502 4.981448 4.935028 4.903692 4.895003 4.913132 4.969080 5.083474 5.277848 5.501293 5.719015 5.964583 6.286974 6.802980 7.437801 8.145215 9.093986 10.51936 12.25818 14.18285 16.19683 18.05484 19.48531 20.39818 20.76434 20.65658 20.20097 19.53063 18.69757 17.75095 16.67706 15.43851 14.02732 12.48307 10.85914 9.222243 7.650511 6.221031 4.972799 3.916192 3.052447 2.375684 1.853900 1.474067 1.209321 1.016418 0.886186 0.813137 0.769126 0.741186 0.731783 0.735386 0.752683 0.785387 0.840229 0.919705 1.023593 1.160735 1.348420 1.581698 1.862358 2.192407 2.565940 2.983779 3.456407 3.974239 4.511351 5.056573 5.627758 6.233112 6.829836 7.419095 8.088672 8.841376 9.647073 10.57073 11.60632 12.82859 14.20114 15.61022 17.15203 18.90678 20.66894 22.43046 24.32489 26.28366 28.19853 29.96835 31.80444 33.71079 35.41696 
14 "M6" 0.00000 0.00000 0.00000 0.564129 0.512310 0.598898 1.048100 1.048100 1.048100 1.048100 1.048100 1.048100 1.048100 1.048474 1.048573 1.047897 1.045945 1.045325 1.048644 1.042630 1.002881 0.961755 0.927915 0.893530 0.861109 0.835854 0.806788 0.772642 0.740185 0.699323 0.647815 0.615815 0.601189 0.587028 0.565244 0.489407 0.476393 0.489855 0.512042 0.572849 0.590948 0.546155 0.581463 0.609082 0.596726 0.592389 0.590976 0.584895 0.577242 0.578694 0.576753 0.559035 0.540167 0.529283 0.522943 0.510940 0.490673 0.472808 0.461577 0.447928 0.433168 0.423207 0.420652 0.409202 0.399302 0.393648 0.390618 0.382658 0.375280 0.377300 0.383531 0.386375 0.382500 0.382562 0.385509 0.389944 0.397483 0.403267 0.407333 0.420734 0.434405 0.455561 0.475050 0.499866 0.533207 0.562776 0.608056 0.666293 0.753766 0.891217 1.058284 1.285866 1.588507 1.971087 2.536154 3.309990 4.307808 5.576106 7.191141 9.127886 11.37509 13.94626 16.89012 20.15210 23.50692 26.86422 30.43241 33.93119 37.31359 40.73186 44.07887 47.46561 
15 "C9" 57.14351 57.14351 57.14351 26.35014 27.19887 18.53915 21.32460 21.32460 21.32460 21.32460 21.32460 21.32460 21.32460 21.33143 21.33267 21.31813 21.27764 21.26423 21.33095 21.31203 21.32870 21.28606 21.14513 20.95965 20.78827 20.68675 20.63916 20.66791 20.84020 21.13315 21.49241 21.87990 22.24100 22.60325 23.00549 23.43686 24.04613 24.93570 26.05256 27.39943 28.73257 29.86502 30.71161 31.14663 31.18127 30.91726 30.52167 30.14509 29.85313 29.66588 29.58405 29.52976 29.40242 29.11744 28.63154 27.95782 27.15580 26.32006 25.53035 24.85221 24.31111 23.90988 23.60006 23.33253 23.08075 22.86874 22.72993 22.68724 22.75376 22.93556 23.21762 23.60855 24.11630 24.74862 25.51866 26.43599 27.50558 28.73063 30.08648 31.54194 33.08194 34.65753 36.25647 37.86073 39.44576 40.98110 42.43696 43.82293 45.18953 46.49081 47.69973 48.83833 49.94909 51.10214 52.28000 53.53414 54.77692 56.10862 57.54302 59.05130 60.59242 62.05857 63.60871 65.16557 66.65885 67.93772 69.18461 70.35689 71.49726 72.51124 73.41444 74.42143 
16 "B6" 42.85649 42.85649 42.85649 15.34744 15.65962 9.562806 10.79694 10.79694 10.79694 10.79694 10.79694 10.79694 10.79694 10.80022 10.80067 10.79313 10.77245 10.76547 10.79906 10.70191 10.63463 10.54792 10.40903 10.26567 10.15440 10.09408 10.08158 10.12950 10.27260 10.49526 10.75236 11.02850 11.29903 11.59924 11.92042 12.25477 12.81853 13.60579 14.58261 15.77754 16.98131 18.05420 18.81186 19.20925 19.24428 18.97099 18.59289 18.22306 17.93947 17.76344 17.66380 17.57261 17.41720 17.14151 16.69902 16.10246 15.40553 14.70388 14.06395 13.52428 13.09255 12.75447 12.48343 12.25026 12.03402 11.86003 11.75566 11.71853 11.76163 11.89915 12.13548 12.47490 12.90685 13.44013 14.10605 14.91405 15.86673 16.95471 18.18461 19.52645 20.96042 22.44461 23.97267 25.52160 27.07565 28.59225 30.06479 31.48463 32.85769 34.18933 35.44373 36.62480 37.81218 39.03407 40.35545 41.71683 43.10318 44.59377 46.15530 47.83746 49.58398 51.33876 53.15521 54.96831 56.73869 58.38348 60.01209 61.44114 62.86371 64.30539 65.54767 66.86769 
17 "I14" 28.57099 28.57099 28.57099 7.868915 7.836506 4.829684 5.568235 5.568235 5.568235 5.568235 5.568235 5.568235 5.568235 5.569913 5.570129 5.566224 5.555540 5.551926 5.569227 5.492407 5.441009 5.371315 5.268815 5.162099 5.071893 5.008165 4.974502 4.984908 5.042004 5.141697 5.284000 5.437641 5.562647 5.692653 5.859462 6.031159 6.315045 6.844206 7.529399 8.400786 9.300944 10.07251 10.63782 10.91181 10.89355 10.64105 10.29977 9.953424 9.667387 9.469715 9.345678 9.235357 9.078588 8.830780 8.473660 8.003875 7.472045 6.928163 6.415444 5.985565 5.647475 5.401222 5.232762 5.112940 5.026314 4.966789 4.938335 4.947639 5.003992 5.117328 5.276918 5.485249 5.761505 6.110798 6.539641 7.072692 7.713649 8.468158 9.340678 10.32374 11.40939 12.56702 13.79062 15.05533 16.33800 17.62123 18.89214 20.11784 21.35034 22.53982 23.65454 24.73703 25.80581 26.95477 28.18480 29.48221 30.87635 32.34578 33.97542 35.72285 37.52572 39.33392 41.31710 43.33299 45.37492 47.22641 49.00959 50.77301 52.51928 54.12659 55.60878 57.16620 
18 "I1" 0.00000 0.00000 0.00000 0.591727 0.534212 0.634885 1.116899 1.116899 1.116899 1.116899 1.116899 1.116899 1.116899 1.117300 1.117408 1.116690 1.114613 1.113955 1.117492 1.067513 1.051333 1.019826 0.975098 0.933024 0.896446 0.862129 0.832396 0.804647 0.770285 0.733271 0.708838 0.708675 0.651638 0.593832 0.605931 0.581903 0.554089 0.523207 0.544440 0.607196 0.619856 0.613674 0.601805 0.607448 0.622357 0.627903 0.628020 0.617216 0.599574 0.593933 0.590014 0.576186 0.563286 0.550017 0.535560 0.518407 0.504870 0.489551 0.473894 0.462957 0.451466 0.438760 0.432394 0.424650 0.415054 0.409306 0.404798 0.397144 0.389464 0.399857 0.406764 0.400893 0.398028 0.398581 0.398438 0.404849 0.410977 0.421296 0.437425 0.451783 0.472642 0.484314 0.510855 0.549105 0.585084 0.629538 0.672490 0.733867 0.856812 0.989994 1.147291 1.379899 1.672310 2.077286 2.670512 3.469540 4.523137 5.793425 7.402405 9.341222 11.60122 14.16616 17.08221 20.25080 23.66172 27.04597 30.52299 34.05207 37.56945 40.96434 44.23924 47.46964 
19 "E14" 0.00000 0.00000 100.0000 4.758595 2.154840 19.15600 31.50063 31.50063 31.50063 31.50063 31.50063 31.50063 31.50063 31.51341 31.51796 31.49924 31.44218 31.42519 31.52673 32.66062 33.63286 34.19974 34.21060 33.77046 32.97917 31.94443 30.68161 29.14934 27.29717 25.19513 23.05639 20.97193 18.88518 16.77108 14.68076 12.73072 11.00859 9.547869 8.292043 7.263674 6.354697 5.522170 4.781134 4.109320 3.513812 3.016452 2.625119 2.348230 2.150371 2.013267 1.915984 1.834091 1.755245 1.651907 1.536204 1.406013 1.269917 1.137093 1.026803 0.934048 0.859940 0.808603 0.774237 0.746951 0.718050 0.696320 0.684982 0.677949 0.680157 0.689843 0.703326 0.720726 0.741035 0.774140 0.825679 0.892753 0.979118 1.091743 1.238041 1.421283 1.647774 1.931742 2.263832 2.650466 3.080025 3.550567 4.074523 4.627911 5.199666 5.790841 6.382443 6.961353 7.530961 8.094378 8.755013 9.543699 10.43288 11.45742 12.60218 13.85954 15.24062 16.76346 18.43500 20.18088 21.99233 23.79976 25.62396 27.47578 29.30589 31.15799 32.98878 34.81213 
20 "H1" 0.00000 100.0000 0.00000 4.094117 12.36058 2.824889 1.783455 1.783455 1.783455 1.783455 1.783455 1.783455 1.783455 1.783379 1.782828 1.780949 1.776894 1.775093 1.779968 1.728071 1.698728 1.676855 1.644395 1.610680 1.581191 1.564460 1.553276 1.547408 1.563770 1.608902 1.693441 1.799133 1.914030 2.060302 2.265706 2.589390 3.025028 3.639734 4.599309 6.029194 8.029205 10.71441 14.20107 18.49205 23.37004 28.25369 32.46383 35.42732 36.84999 36.81290 35.63480 33.60543 30.97941 27.98237 24.76557 21.46268 18.17351 15.01598 12.09194 9.487091 7.266665 5.455035 4.035555 2.984770 2.237337 1.720384 1.372599 1.148798 1.004202 0.914932 0.864201 0.843042 0.836225 0.843861 0.867834 0.917342 0.992341 1.095948 1.236182 1.409204 1.626334 1.901693 2.228506 2.593769 3.009096 3.475874 3.973432 4.505943 5.057349 5.625916 6.212329 6.799980 7.415449 8.078445 8.804233 9.607884 10.53771 11.59524 12.78049 14.15952 15.65622 17.21406 18.95015 20.75060 22.65122 24.47978 26.30554 28.17385 30.02658 31.92277 33.77971 35.59151 
21 "D7" 100.0000 0.00000 100.0000 38.69892 18.96948 24.44244 49.05833 49.05833 49.05833 49.05833 49.05833 49.05833 49.05833 49.07696 49.08277 49.05231 48.96215 48.93434 49.09099 49.18792 48.98440 48.20628 46.76073 44.87091 42.74545 40.55899 38.29362 35.85021 33.17069 30.32761 27.54005 24.89272 22.25298 19.55471 16.92847 14.56330 12.40762 10.55952 9.012092 7.766546 6.701487 5.719681 4.837719 4.043151 3.332302 2.764069 2.348156 2.078453 1.929161 1.870501 1.890160 1.947305 2.010145 2.058086 2.058963 2.015343 1.949601 1.899657 1.905532 2.016763 2.303687 2.853998 3.760808 5.139848 7.103826 9.744007 13.13218 17.31007 22.24180 27.79096 33.78071 39.99722 46.20261 52.18065 57.73242 62.73942 67.13384 70.91341 74.08519 76.70376 78.87184 80.61891 82.03412 83.19898 84.14379 84.94987 85.66294 86.26610 86.85364 87.39214 87.84114 88.21789 88.59903 89.02677 89.38107 89.73742 90.05648 90.36994 90.67048 91.00107 91.29153 91.55713 91.94337 92.28048 92.62027 92.77316 92.85973 92.96195 93.01459 93.06478 93.29272 93.65936 
22 "C1" 100.0000 0.00000 0.00000 33.98893 18.06271 1.089292 1.612720 1.612720 1.612720 1.612720 1.612720 1.612720 1.612720 1.611720 1.610280 1.607631 1.603007 1.600407 1.603809 1.555015 1.514938 1.470335 1.419079 1.369960 1.324221 1.282762 1.240656 1.200983 1.165672 1.142027 1.139895 1.125338 1.070457 1.018968 1.023332 1.064966 1.134266 1.200093 1.302687 1.475706 1.615278 1.766270 1.924297 2.074304 2.203145 2.287224 2.344095 2.370678 2.390404 2.432909 2.488947 2.557927 2.619430 2.657180 2.650192 2.603476 2.532772 2.479788 2.470126 2.555430 2.800239 3.277232 4.075323 5.307887 7.081248 9.505998 12.66537 16.59698 21.26830 26.57709 32.36189 38.43663 44.59379 50.61929 56.31490 61.52951 66.16365 70.19294 73.59581 76.40633 78.72100 80.57851 82.07384 83.28571 84.26200 85.06635 85.74331 86.29493 86.83675 87.34712 87.76742 88.15866 88.57433 89.00501 89.37278 89.78211 90.11558 90.40963 90.70042 90.99383 91.35184 91.63428 91.90468 92.20900 92.48446 92.66901 92.82691 92.88173 92.95166 93.06331 93.21053 93.41265 
