Epson_XP-960/Canon/MP-101_Matte_Photot_Paper_2/XP_960-Caonon-MP-101.ti3
CTI3   

DESCRIPTOR "Argyll Calibration Target chart information 3"
ORIGINATOR "Argyll chartread"
CREATED "Mon Nov 27 20:29:59 2023"
DEVICE_CLASS "OUTPUT"
COMP_GREY_STEPS "128"
COLOR_REP "iRGB_XYZ"
TARGET_INSTRUMENT "X-Rite ColorMunki"
DEVCALSTD "XRGA"
SPECTRAL_BANDS "106"
SPECTRAL_START_NM "380.000000"
SPECTRAL_END_NM "730.000000"

NUMBER_OF_FIELDS 114
BEGIN_DATA_FORMAT
SAMPLE_ID SAMPLE_LOC RGB_R RGB_G RGB_B XYZ_X XYZ_Y XYZ_Z SPEC_380 SPEC_383 SPEC_387 SPEC_390 SPEC_393 SPEC_397 SPEC_400 SPEC_403 SPEC_407 SPEC_410 SPEC_413 SPEC_417 SPEC_420 SPEC_423 SPEC_427 SPEC_430 SPEC_433 SPEC_437 SPEC_440 SPEC_443 SPEC_447 SPEC_450 SPEC_453 SPEC_457 SPEC_460 SPEC_463 SPEC_467 SPEC_470 SPEC_473 SPEC_477 SPEC_480 SPEC_483 SPEC_487 SPEC_490 SPEC_493 SPEC_497 SPEC_500 SPEC_503 SPEC_507 SPEC_510 SPEC_513 SPEC_517 SPEC_520 SPEC_523 SPEC_527 SPEC_530 SPEC_533 SPEC_537 SPEC_540 SPEC_543 SPEC_547 SPEC_550 SPEC_553 SPEC_557 SPEC_560 SPEC_563 SPEC_567 SPEC_570 SPEC_573 SPEC_577 SPEC_580 SPEC_583 SPEC_587 SPEC_590 SPEC_593 SPEC_597 SPEC_600 SPEC_603 SPEC_607 SPEC_610 SPEC_613 SPEC_617 SPEC_620 SPEC_623 SPEC_627 SPEC_630 SPEC_633 SPEC_637 SPEC_640 SPEC_643 SPEC_647 SPEC_650 SPEC_653 SPEC_657 SPEC_660 SPEC_663 SPEC_667 SPEC_670 SPEC_673 SPEC_677 SPEC_680 SPEC_683 SPEC_687 SPEC_690 SPEC_693 SPEC_697 SPEC_700 SPEC_703 SPEC_707 SPEC_710 SPEC_713 SPEC_717 SPEC_720 SPEC_723 SPEC_727 SPEC_730 
END_DATA_FORMAT

NUMBER_OF_SETS 1120
BEGIN_DATA
1 "AV10" 100.0000 100.0000 100.0000 81.71524 84.08722 70.93115 78.63561 78.63561 78.63561 78.63561 78.63561 78.63561 78.63561 78.66213 78.66804 78.61578 78.46782 78.41976 78.66733 79.94743 81.17852 82.28329 83.04849 83.52831 83.80311 84.06367 84.39672 84.88956 85.60800 86.45183 87.28179 88.05137 88.86841 89.82933 90.43538 90.66498 90.55880 90.23917 89.60621 88.89920 88.32333 87.79777 87.28429 86.91332 86.55275 86.19693 85.84904 85.44429 84.99927 84.55575 84.19950 83.86872 83.60787 83.39336 83.24414 83.11089 82.93147 82.72985 82.43746 82.10200 81.81784 81.66578 81.61745 81.62208 81.64007 81.68160 81.78478 81.98214 82.22815 82.53089 82.86469 83.22974 83.60724 84.03663 84.52216 85.03624 85.58523 86.11140 86.59607 87.13485 87.68252 88.18511 88.69213 89.22278 89.75281 90.25160 90.68571 91.13471 91.59594 91.93388 92.19406 92.42529 92.55331 92.56718 92.59218 92.65685 92.61552 92.58233 92.53978 92.59387 92.64601 92.82933 92.92854 93.01798 92.99358 93.19745 93.32790 93.49947 93.45751 93.64259 94.24704 94.72528 
2 "AA9" 14.64408 100.0000 68.21088 9.575237 18.44260 17.53012 16.42765 16.42765 16.42765 16.42765 16.42765 16.42765 16.42765 16.43319 16.43442 16.42350 16.39258 16.38254 16.43425 16.62015 16.88971 17.12864 17.29376 17.41204 17.50668 17.62936 17.78018 17.97981 18.28113 18.60759 18.94864 19.41621 19.97145 20.67343 21.59870 22.83938 24.54151 26.78941 29.87648 33.44643 37.22084 40.77867 43.83030 46.14790 47.44102 47.65783 46.96418 45.50760 43.44701 40.94444 38.14461 35.18004 32.15593 29.10784 26.13796 23.27103 20.55122 18.01802 15.67699 13.56526 11.72297 10.14504 8.816882 7.725976 6.840671 6.153457 5.624009 5.227619 4.946071 4.752068 4.622476 4.543843 4.511773 4.521425 4.572812 4.661211 4.789797 4.952539 5.158218 5.398063 5.682380 6.014738 6.366158 6.749524 7.163204 7.595171 8.038536 8.489511 8.961385 9.433659 9.887673 10.34158 10.75269 11.20935 11.75158 12.33470 12.98462 13.69262 14.43413 15.27972 16.30167 17.39112 18.60960 19.95122 21.31195 22.70647 24.10843 25.60931 27.22736 28.84601 30.52083 32.15968 
3 "AS11" 65.48409 19.86114 58.19181 14.08805 9.510116 8.547502 13.57820 13.57820 13.57820 13.57820 13.57820 13.57820 13.57820 13.58301 13.58427 13.57549 13.55018 13.54212 13.58509 13.43668 13.28404 13.06931 12.76292 12.40247 12.03042 11.67770 11.32847 10.96861 10.60274 10.25284 9.939559 9.596511 9.227333 8.874250 8.462377 8.227762 8.124355 8.042436 8.110153 8.200239 8.187529 8.067570 7.794081 7.447256 7.045619 6.635475 6.273709 5.983216 5.773468 5.645502 5.574634 5.540186 5.515646 5.464587 5.390735 5.288741 5.159743 5.034383 4.939828 4.896505 4.927401 5.063383 5.322478 5.706683 6.221416 6.860892 7.624613 8.507642 9.489459 10.56206 11.70966 12.89075 14.09758 15.33379 16.57351 17.81638 19.09012 20.38978 21.69328 23.02287 24.38931 25.76557 27.14610 28.53608 29.94006 31.32969 32.65934 33.97240 35.29695 36.53999 37.73143 38.94873 40.17210 41.40219 42.78306 44.26722 45.74238 47.36832 49.06512 50.85646 52.78124 54.86477 56.88739 58.95626 61.00232 63.08201 65.19759 67.16090 68.73513 70.48021 72.63064 74.42735 
4 "N1" 44.64027 49.39803 0.00000 10.52872 10.80483 2.452291 2.455970 2.455970 2.455970 2.455970 2.455970 2.455970 2.455970 2.456203 2.455786 2.453545 2.448311 2.446188 2.453272 2.419192 2.418439 2.422043 2.408179 2.393495 2.378553 2.378314 2.384250 2.384372 2.387976 2.391215 2.402252 2.397387 2.419171 2.483955 2.512639 2.615050 2.817358 3.128474 3.551366 4.116656 4.893762 5.875112 6.932952 8.035617 9.078909 9.999024 10.71881 11.24601 11.63031 11.90762 12.12348 12.27741 12.35302 12.31017 12.14032 11.84352 11.44919 10.99762 10.53998 10.12223 9.786989 9.558027 9.428872 9.386285 9.404945 9.474662 9.581794 9.715929 9.874717 10.06577 10.28015 10.50536 10.74564 11.01688 11.33413 11.69455 12.09889 12.55554 13.07697 13.65897 14.30448 15.00493 15.73816 16.51651 17.32054 18.15275 18.98161 19.79665 20.61047 21.41374 22.17943 22.93820 23.69230 24.49520 25.34818 26.25329 27.24801 28.35970 29.52873 30.80300 32.19582 33.80102 35.65574 37.70785 39.73816 41.87164 44.00109 46.12308 48.26118 50.25036 52.29222 54.17712 
5 "AF13" 0.00000 0.00000 0.00000 1.547001 1.589454 1.739407 2.503758 2.503758 2.503758 2.503758 2.503758 2.503758 2.503758 2.504672 2.504931 2.503339 2.498699 2.497241 2.505193 2.452435 2.407462 2.378805 2.347924 2.310902 2.271060 2.236487 2.207773 2.180366 2.146602 2.102625 2.072000 2.036792 1.969279 1.914944 1.871181 1.886449 1.887776 1.837052 1.819885 1.834778 1.839741 1.823788 1.831458 1.858566 1.845361 1.828857 1.832132 1.825588 1.813392 1.801301 1.789675 1.762161 1.737608 1.702965 1.672127 1.639648 1.607738 1.580845 1.554028 1.519680 1.482773 1.459166 1.441253 1.416712 1.395516 1.378744 1.362675 1.358602 1.355053 1.356136 1.354752 1.353307 1.362257 1.371534 1.380543 1.385781 1.406260 1.423962 1.443685 1.463870 1.490461 1.517420 1.542264 1.570903 1.596410 1.637445 1.666710 1.706428 1.772795 1.810102 1.871387 1.973603 2.086955 2.255164 2.433210 2.657346 2.942787 3.275334 3.722383 4.281497 5.030811 6.067196 7.299478 8.785381 10.55263 12.72241 15.31807 18.41986 21.90090 25.73700 30.16733 34.73120 
6 "G2" 56.74983 67.45708 72.88624 19.31769 21.34637 23.41916 28.29074 28.29074 28.29074 28.29074 28.29074 28.29074 28.29074 28.30086 28.30358 28.28537 28.23274 28.21605 28.30573 28.57175 28.79500 28.91372 28.85705 28.69215 28.49966 28.34480 28.21528 28.09131 27.97020 27.85436 27.73584 27.63062 27.52976 27.49526 27.54696 27.69720 28.13648 28.84217 29.81598 30.90235 31.82179 32.32198 32.40724 32.12134 31.49819 30.63637 29.72350 28.88406 28.16407 27.52237 26.93470 26.36159 25.72949 24.96685 24.09793 23.11716 22.05765 20.97495 19.92223 18.94709 18.07514 17.31476 16.65244 16.08541 15.60257 15.20850 14.90700 14.70530 14.59790 14.57668 14.63381 14.76590 14.96880 15.25333 15.62697 16.09813 16.66581 17.34443 18.13161 19.01814 19.99745 21.06424 22.18189 23.35530 24.56128 25.79294 27.00930 28.20285 29.38543 30.55031 31.64498 32.69552 33.71924 34.75181 35.84534 37.01262 38.24870 39.62627 41.08013 42.60739 44.28965 46.09703 47.98289 49.91431 51.72727 53.58083 55.44971 57.27522 59.02700 60.75520 62.55536 64.09031 
7 "L11" 51.56023 0.00000 45.93118 8.153425 5.291319 4.976215 8.189587 8.189587 8.189587 8.189587 8.189587 8.189587 8.189587 8.192500 8.193270 8.187983 8.172728 8.167879 8.193807 8.073629 7.979243 7.839985 7.632517 7.405739 7.183250 6.973878 6.766028 6.543034 6.297658 6.058011 5.840220 5.614009 5.350895 5.056526 4.795753 4.581671 4.436415 4.317114 4.237716 4.159940 4.099045 3.997447 3.872712 3.709617 3.517162 3.338514 3.171336 3.036347 2.948098 2.898778 2.872341 2.861508 2.857515 2.843445 2.818004 2.784933 2.737558 2.694045 2.663078 2.650273 2.670860 2.746816 2.883421 3.076504 3.340683 3.674743 4.085669 4.574573 5.135857 5.767907 6.465238 7.207707 7.979220 8.774580 9.582718 10.38049 11.16808 11.94913 12.71463 13.47100 14.21058 14.94915 15.67603 16.40660 17.14041 17.89477 18.67641 19.50267 20.38287 21.34464 22.39424 23.57268 24.87196 26.31986 27.97529 29.82663 31.81621 33.98993 36.29279 38.72325 41.32676 44.01465 46.89795 49.87408 52.74053 55.57071 58.37878 61.03568 63.58865 66.05308 68.46600 70.59342 
8 "AK13" 92.91371 92.91371 92.91371 63.40743 65.24438 55.19097 62.86472 62.86472 62.86472 62.86472 62.86472 62.86472 62.86472 62.88604 62.89089 62.84924 62.73108 62.69278 62.89082 63.81748 64.60421 65.23190 65.58999 65.73738 65.73095 65.71121 65.72049 65.83220 66.16609 66.60991 67.04305 67.49442 67.94742 68.49721 68.88420 69.07448 69.17452 69.40343 69.67771 69.92683 70.15405 70.35675 70.48035 70.41505 70.16194 69.76191 69.26919 68.76378 68.23713 67.73311 67.29101 66.89169 66.52316 66.13064 65.66852 65.13198 64.51363 63.83580 63.10587 62.40777 61.79123 61.31730 61.00131 60.78700 60.63281 60.57291 60.61367 60.79550 61.09236 61.48167 61.92862 62.44181 63.02199 63.67623 64.41137 65.22739 66.11952 67.08250 68.08390 69.13950 70.23243 71.31351 72.39581 73.47751 74.57277 75.62942 76.57802 77.51171 78.41925 79.20046 79.88607 80.47872 80.96048 81.31287 81.78815 82.33268 82.80741 83.29523 83.80893 84.36155 84.91547 85.60713 86.25799 86.88150 87.52085 88.07354 88.55757 89.04312 89.30675 89.72644 90.44679 91.12892 
9 "C5" 5.888457 52.37201 57.01686 5.282964 6.881682 10.27417 12.19214 12.19214 12.19214 12.19214 12.19214 12.19214 12.19214 12.19667 12.19802 12.19034 12.16783 12.16082 12.19965 12.30728 12.42955 12.51563 12.52905 12.49685 12.44301 12.38410 12.31723 12.25224 12.18717 12.12642 12.08930 12.07768 12.08971 12.13032 12.18233 12.30497 12.59115 12.95604 13.48354 14.07802 14.54825 14.87692 14.97456 14.82423 14.45906 13.95303 13.36561 12.74491 12.13897 11.55322 10.97019 10.38627 9.777419 9.139802 8.474022 7.786960 7.108744 6.466797 5.868687 5.328029 4.855604 4.458490 4.133641 3.862335 3.637429 3.457825 3.323988 3.225852 3.162176 3.133354 3.125778 3.127215 3.142690 3.181769 3.238957 3.313984 3.401959 3.508283 3.638066 3.786894 3.949540 4.130482 4.331617 4.545660 4.774730 5.025132 5.276653 5.534042 5.822886 6.126366 6.422510 6.729088 7.038831 7.399119 7.799656 8.231228 8.709449 9.296398 9.975470 10.68247 11.45900 12.34178 13.34907 14.40889 15.47437 16.69186 17.98512 19.26779 20.55099 21.95329 23.36417 24.79743 
10 "AC9" 98.42527 98.42527 98.42527 75.52876 77.59983 65.75104 72.10236 72.10236 72.10236 72.10236 72.10236 72.10236 72.10236 72.12661 72.13197 72.08400 71.94826 71.90413 72.13108 73.35138 74.57267 75.67887 76.47413 77.01418 77.42371 77.93245 78.55953 79.31298 80.19762 80.92593 81.40933 81.97460 82.61595 83.10368 83.50171 83.73706 83.67508 83.05206 82.63333 82.11723 81.60906 81.10115 80.76330 80.58609 80.32426 79.98411 79.63568 79.25432 78.82951 78.39440 78.02713 77.76833 77.54399 77.28178 77.07631 76.85669 76.60626 76.29918 75.91213 75.50212 75.16187 74.92801 74.78991 74.71593 74.64296 74.63333 74.70528 74.89016 75.14204 75.45093 75.82598 76.25219 76.66591 77.15983 77.74690 78.36578 79.03396 79.67839 80.34145 81.05417 81.76948 82.46084 83.11948 83.81517 84.44463 85.05891 85.62805 86.17196 86.71671 87.22039 87.55518 87.85142 88.00295 88.14423 88.22695 88.43172 88.55658 88.69006 88.80136 88.86037 89.00392 89.27209 89.74674 90.19179 90.27526 90.34248 90.57178 90.57854 90.82112 91.26039 91.88079 92.02984 
11 "AJ15" 97.63790 97.63790 97.63790 74.00388 76.21207 63.84823 72.05686 72.05686 72.05686 72.05686 72.05686 72.05686 72.05686 72.08123 72.08671 72.03890 71.90338 71.85941 72.08634 73.18292 74.12068 74.91977 75.42010 75.64937 75.67612 75.68193 75.73842 75.95831 76.47651 77.14749 77.84373 78.55728 79.24049 80.04614 80.71920 81.05426 81.18255 81.23347 81.05768 80.76561 80.49997 80.29404 80.14559 79.94646 79.65847 79.29517 78.89784 78.48733 78.03326 77.56207 77.16135 76.82662 76.51447 76.21865 75.93796 75.62633 75.26687 74.85483 74.37509 73.88372 73.45203 73.16347 73.00600 72.91404 72.86665 72.88440 72.97571 73.18504 73.46840 73.81690 74.21957 74.65202 75.12553 75.65500 76.23276 76.86345 77.54815 78.25256 78.94932 79.68282 80.41011 81.12714 81.84806 82.58258 83.32713 84.03754 84.65888 85.27601 85.89825 86.43928 86.87783 87.18775 87.41929 87.60525 87.75545 87.97103 88.16560 88.36685 88.55579 88.79574 89.03953 89.41400 89.74928 90.10248 90.33233 90.63025 90.89541 91.07630 91.19906 91.42944 91.79263 92.29610 
12 "AB8" 96.85054 96.85054 96.85054 71.12234 73.03419 61.92778 68.20294 68.20294 68.20294 68.20294 68.20294 68.20294 68.20294 68.22590 68.23098 68.18562 68.05725 68.01552 68.23021 69.38482 70.50565 71.50480 72.19123 72.65816 73.01896 73.46856 74.02816 74.70519 75.47648 76.05984 76.47818 77.06980 77.63948 77.99649 78.33136 78.49458 78.48648 78.02021 77.73743 77.42902 77.12731 76.83754 76.67347 76.53774 76.31021 75.97085 75.60491 75.19393 74.75945 74.30507 73.90746 73.60616 73.37684 73.08069 72.80575 72.48759 72.11350 71.68918 71.20749 70.70628 70.27930 69.97283 69.78049 69.66166 69.54357 69.49365 69.54645 69.73115 70.00929 70.34808 70.75937 71.23290 71.71411 72.28114 72.94078 73.63828 74.39453 75.15273 75.95291 76.79844 77.63942 78.47926 79.28172 80.10707 80.88663 81.64285 82.35208 83.03162 83.69182 84.29100 84.75299 85.17110 85.35541 85.51661 85.74424 86.04928 86.26530 86.54866 86.78637 86.97303 87.26690 87.64815 88.21823 88.74340 88.97288 89.32173 89.61904 89.86836 90.14208 90.45611 91.00533 91.26432 
13 "AV8" 96.06317 96.06317 96.06317 70.91998 72.80939 61.65518 69.28905 69.28905 69.28905 69.28905 69.28905 69.28905 69.28905 69.31249 69.31777 69.27180 69.14150 69.09923 69.31745 70.39441 71.39067 72.24660 72.79060 73.08190 73.19675 73.32051 73.50270 73.80329 74.32160 74.90228 75.46998 76.05362 76.60926 77.29280 77.65958 77.80107 77.81170 77.69682 77.46510 77.31515 77.25790 77.14742 77.04274 76.89302 76.62262 76.26348 75.86566 75.39909 74.89922 74.40968 73.99020 73.62313 73.31497 72.98726 72.64226 72.24655 71.77992 71.27840 70.70715 70.13774 69.65172 69.31926 69.12053 69.00957 68.93850 68.92885 69.02954 69.26195 69.58386 69.98517 70.44352 70.95016 71.48544 72.08854 72.75842 73.47987 74.27099 75.10757 75.92304 76.79213 77.69694 78.57195 79.44608 80.32302 81.20150 82.05352 82.81131 83.55624 84.29115 84.89747 85.40401 85.85953 86.19808 86.43214 86.69996 87.08073 87.36098 87.61864 87.85512 88.19630 88.57427 89.08911 89.50454 89.86839 90.15807 90.54499 90.95778 91.35174 91.41632 91.79871 92.48222 93.14010 
14 "BA15" 95.27581 95.27581 95.27581 68.94733 70.84896 59.82988 67.25377 67.25377 67.25377 67.25377 67.25377 67.25377 67.25377 67.27650 67.28161 67.23698 67.11049 67.06944 67.28124 68.30753 69.27493 70.09444 70.59493 70.86614 70.98682 71.11360 71.30040 71.60568 72.11017 72.66400 73.18904 73.75398 74.27854 74.86386 75.23757 75.43686 75.39883 75.39033 75.29372 75.17598 75.17719 75.17288 75.20826 75.13773 74.88522 74.54773 74.12463 73.65107 73.15510 72.66500 72.24360 71.87967 71.55915 71.22029 70.85991 70.43837 69.93407 69.39804 68.79683 68.20582 67.68596 67.31577 67.09108 66.93656 66.82980 66.81203 66.89018 67.09460 67.39495 67.78202 68.22593 68.72532 69.26292 69.88143 70.56396 71.30881 72.13091 73.00455 73.86088 74.78354 75.74185 76.65054 77.57795 78.52007 79.46048 80.36975 81.16365 81.96075 82.74280 83.36621 83.92427 84.42250 84.80648 85.00920 85.33741 85.79532 86.06335 86.37096 86.73911 87.10222 87.45538 88.01689 88.52289 88.98347 89.36536 89.73274 90.22613 90.67217 90.73567 91.00732 91.72974 92.45955 
15 "AJ4" 94.48844 94.48844 94.48844 66.56626 68.42618 57.70910 64.97947 64.97947 64.97947 64.97947 64.97947 64.97947 64.97947 65.00143 65.00636 64.96324 64.84102 64.80136 65.00600 66.12092 67.04585 67.77718 68.23172 68.47917 68.58083 68.67934 68.80051 69.00379 69.38080 69.83537 70.33876 70.89708 71.38694 71.89267 72.30408 72.57007 72.75577 72.95105 72.93671 72.89812 73.03007 73.10789 73.15986 73.06260 72.79769 72.39775 71.92503 71.42868 70.92381 70.41862 69.98819 69.62588 69.29877 68.94398 68.54868 68.08855 67.56204 66.97088 66.33192 65.70020 65.14542 64.74728 64.46811 64.28665 64.18602 64.17638 64.25246 64.46348 64.78864 65.19978 65.65087 66.14792 66.70915 67.33752 68.02252 68.78365 69.62155 70.49400 71.39163 72.35608 73.34164 74.31889 75.30732 76.29898 77.32083 78.27495 79.13975 79.98494 80.80736 81.52909 82.15614 82.66482 83.03785 83.30906 83.66654 84.07946 84.46503 84.89289 85.35042 85.81666 86.28404 86.87246 87.41645 87.97646 88.48164 89.00094 89.41116 89.78386 90.10202 90.45766 90.92010 91.55149 
16 "BI8" 93.70108 93.70108 93.70108 64.75194 66.56442 56.28564 64.01155 64.01155 64.01155 64.01155 64.01155 64.01155 64.01155 64.03325 64.03818 63.99577 63.87544 63.83644 64.03809 64.95012 65.80234 66.50751 66.87571 66.98021 66.90333 66.82230 66.83348 67.02339 67.47983 68.03204 68.53198 69.04958 69.53616 70.14944 70.52825 70.71551 70.76399 70.82949 70.87531 71.01495 71.23976 71.36069 71.44291 71.46703 71.24035 70.86262 70.40455 69.87912 69.34795 68.84647 68.40552 68.00502 67.63085 67.25135 66.83031 66.32604 65.72154 65.08508 64.39449 63.72826 63.12984 62.68366 62.41034 62.23072 62.12851 62.10234 62.16745 62.37232 62.66731 63.05394 63.51688 64.04762 64.60274 65.23381 65.95329 66.75587 67.64104 68.59629 69.53871 70.55233 71.62424 72.64074 73.65185 74.71143 75.75692 76.77507 77.67082 78.56799 79.46273 80.14679 80.77069 81.36016 81.83508 82.13017 82.56071 83.09597 83.43714 83.94115 84.42123 84.87081 85.31419 86.07837 86.61291 87.09159 87.55846 88.04561 88.65092 89.19357 89.17055 89.53583 90.63599 91.44781 
17 "L15" 0.00000 0.00000 0.00000 1.586303 1.631217 1.796339 2.547638 2.547638 2.547638 2.547638 2.547638 2.547638 2.547638 2.548567 2.548829 2.547207 2.542485 2.541000 2.549091 2.520915 2.511686 2.474621 2.427811 2.385593 2.348709 2.318503 2.285563 2.248242 2.201781 2.148835 2.143792 2.134728 2.063327 1.991732 1.926598 1.907613 1.891990 1.913860 1.928019 1.904184 1.901323 1.904521 1.905036 1.898501 1.886078 1.893916 1.884387 1.872032 1.863901 1.853969 1.831248 1.805697 1.780545 1.749917 1.714768 1.682213 1.647381 1.617377 1.588513 1.556351 1.526326 1.502816 1.477904 1.454611 1.436790 1.418622 1.401894 1.390816 1.385621 1.386516 1.390990 1.398349 1.403835 1.404183 1.416327 1.432626 1.443455 1.459402 1.477505 1.496942 1.512612 1.540702 1.572434 1.604940 1.627498 1.649660 1.696383 1.753201 1.786491 1.829505 1.914103 2.019009 2.139051 2.278546 2.451082 2.671667 2.951126 3.343446 3.807696 4.373182 5.118808 6.022802 7.224187 8.762862 10.56964 12.73772 15.36610 18.35168 21.79756 25.61803 29.83454 34.35095 
18 "AB3" 92.12634 92.12634 92.12634 60.84352 62.65041 53.56509 59.68824 59.68824 59.68824 59.68824 59.68824 59.68824 59.68824 59.70840 59.71293 59.67331 59.56103 59.52459 59.71256 60.73310 61.63315 62.40349 62.90195 63.19536 63.40143 63.70284 64.09694 64.56854 65.11514 65.48938 65.71828 66.14190 66.55733 66.75076 66.88764 67.06227 67.21703 67.10264 67.23696 67.40647 67.61620 67.75925 67.85617 67.86092 67.63115 67.20372 66.73580 66.20558 65.69838 65.21204 64.78018 64.42480 64.08931 63.68047 63.26372 62.73365 62.11385 61.43960 60.71403 59.98951 59.37897 58.90307 58.54395 58.27496 58.05265 57.92495 57.91072 58.02685 58.25750 58.57362 58.97328 59.46118 59.98604 60.61249 61.34542 62.16413 63.06850 64.01587 65.05099 66.15654 67.28596 68.42518 69.54398 70.70645 71.83115 72.90575 73.90468 74.87106 75.80129 76.65312 77.35142 77.98312 78.38028 78.78908 79.31516 79.91077 80.37008 80.94754 81.50070 82.01051 82.63559 83.35869 84.22108 85.06877 85.58543 86.16024 86.70594 87.11963 87.59336 88.18475 88.95619 89.41930 
19 "I4" 91.33898 91.33898 91.33898 58.80498 60.55097 52.22910 58.53812 58.53812 58.53812 58.53812 58.53812 58.53812 58.53812 58.55795 58.56245 58.52365 58.41360 58.37793 58.56234 59.58199 60.46716 61.17125 61.61208 61.87237 62.05529 62.31092 62.61106 62.94253 63.34796 63.67272 63.91875 64.28939 64.64537 64.88045 65.03832 65.20848 65.37685 65.35162 65.48691 65.68025 65.91077 66.08070 66.18917 66.15143 65.88700 65.44468 64.91646 64.37226 63.84188 63.34243 62.90292 62.52068 62.14418 61.70422 61.22590 60.67830 60.02734 59.30216 58.52112 57.77307 57.14149 56.65464 56.28115 55.99569 55.76747 55.62355 55.58749 55.70049 55.93481 56.25835 56.66424 57.15190 57.68806 58.32547 59.06458 59.88865 60.80878 61.77818 62.83071 63.95422 65.10707 66.27039 67.42922 68.62245 69.78748 70.89146 71.92434 72.92138 73.90676 74.80363 75.54545 76.17404 76.62116 77.09836 77.62648 78.23440 78.76290 79.33444 79.93721 80.52010 81.17713 81.95059 82.79189 83.60522 84.17723 84.71673 85.26566 85.74961 86.24687 86.81157 87.54041 88.05902 
20 "BL10" 90.55161 90.55161 90.55161 58.46906 60.33161 52.27671 59.77420 59.77420 59.77420 59.77420 59.77420 59.77420 59.77420 59.79458 59.79930 59.75981 59.64757 59.61127 59.79969 60.68253 61.45090 62.06013 62.35338 62.42400 62.33984 62.26490 62.27722 62.42216 62.78144 63.21593 63.61133 64.02180 64.34765 64.73551 64.97595 65.11479 65.19295 65.41809 65.59451 65.87977 66.28036 66.52121 66.62842 66.67048 66.39816 65.92286 65.36007 64.74976 64.16192 63.63889 63.17707 62.73728 62.29068 61.80120 61.25455 60.61706 59.87315 59.06728 58.22288 57.41546 56.70510 56.15773 55.74348 55.41868 55.17608 55.01343 54.95548 55.04362 55.24550 55.56649 55.97255 56.45386 57.00288 57.65527 58.40832 59.25591 60.22363 61.28885 62.37876 63.56378 64.80920 66.00805 67.23800 68.49350 69.73860 70.95552 72.05244 73.12394 74.16917 75.02189 75.79717 76.53924 77.12125 77.60575 78.23441 78.95622 79.46455 80.10329 80.75103 81.39277 82.10848 83.05959 83.82342 84.53001 85.17724 85.93034 86.60882 87.28206 87.57789 88.14326 89.15610 90.04431 
21 "AZ12" 89.76425 89.76425 89.76425 56.92561 58.82596 50.90055 57.85430 57.85430 57.85430 57.85430 57.85430 57.85430 57.85430 57.87398 57.87851 57.84025 57.73157 57.69639 57.87872 58.73666 59.51866 60.14831 60.47520 60.62906 60.67546 60.72732 60.82289 60.99078 61.29307 61.63678 61.95721 62.27366 62.59150 63.01998 63.22467 63.32028 63.40291 63.64222 63.86975 64.21767 64.72815 65.07140 65.26189 65.31662 65.03729 64.56741 64.00577 63.39554 62.81146 62.28341 61.82598 61.40228 60.96818 60.47349 59.90959 59.24405 58.47451 57.65754 56.80335 55.98310 55.25873 54.68399 54.24954 53.90156 53.62875 53.42976 53.33752 53.39422 53.57627 53.86745 54.23760 54.69660 55.23226 55.87943 56.63397 57.48719 58.45801 59.53386 60.64608 61.86218 63.12670 64.38426 65.67168 66.97627 68.27221 69.54247 70.70050 71.82707 72.90523 73.81470 74.66655 75.40180 75.99134 76.55588 77.22617 77.97359 78.54077 79.19841 79.93572 80.73197 81.48208 82.41832 83.27606 84.12254 84.81111 85.53439 86.23886 86.98943 87.37624 87.91190 88.93243 89.83251 
22 "AH8" 88.97688 88.97688 88.97688 54.52700 56.28055 49.10988 55.18735 55.18735 55.18735 55.18735 55.18735 55.18735 55.18735 55.20610 55.21039 55.17386 55.07015 55.03657 55.21046 56.10223 56.90373 57.57617 57.97923 58.20640 58.35968 58.60062 58.92834 59.32466 59.77841 60.05549 60.18198 60.42364 60.66960 60.82559 60.88545 60.91696 61.04874 61.07382 61.40473 61.71238 62.04139 62.28075 62.42812 62.50400 62.26195 61.80173 61.25407 60.68312 60.13393 59.62879 59.18776 58.80207 58.41002 57.92172 57.37179 56.72138 55.97891 55.17661 54.33902 53.52404 52.82500 52.25450 51.80625 51.45305 51.14080 50.92377 50.83391 50.88487 51.05136 51.31877 51.68478 52.15103 52.67475 53.30781 54.06136 54.90915 55.87029 56.90760 58.03834 59.24767 60.50804 61.80554 63.07809 64.39821 65.67947 66.91002 68.08189 69.18904 70.26832 71.26451 72.08209 72.79703 73.34819 73.96144 74.61868 75.34970 76.03472 76.76478 77.51591 78.25633 79.07156 79.93379 80.93984 81.99845 82.67407 83.35188 84.00774 84.63240 85.30018 86.02629 86.91961 87.43245 
