Epson_XP-960/Canon/MP-101_Matte_Photot_Paper_2/XP_960-Caonon-MP-101.ti1
CTI1   

DESCRIPTOR "Argyll Calibration Target chart information 1"
ORIGINATOR "Argyll targen"
CREATED "Sun Nov 26 21:19:15 2023"
APPROX_WHITE_POINT "95.106486 100.000000 108.844025"
COLOR_REP "iRGB"
WHITE_COLOR_PATCHES "4"
BLACK_COLOR_PATCHES "4"
COMP_GREY_STEPS "128"
OFPS_PATCHES "986"

NUMBER_OF_FIELDS 7
BEGIN_DATA_FORMAT
SAMPLE_ID RGB_R RGB_G RGB_B XYZ_X XYZ_Y XYZ_Z 
END_DATA_FORMAT

NUMBER_OF_SETS 1120
BEGIN_DATA
1 100.0000 100.0000 100.0000 95.10649 100.0000 108.8440 
2 14.64346 100.0000 68.21151 44.73115 75.21915 52.64871 
3 65.48377 19.86135 58.19177 23.25426 13.57559 30.16087 
4 44.63962 49.39789 0.00000 15.23108 19.29387 3.781725 
5 0.00000 0.00000 0.00000 1.000000 1.000000 1.000000 
6 56.74988 67.45762 72.88556 35.88037 39.65315 52.54988 
7 51.55956 0.00000 45.93194 13.52679 7.090290 18.22093 
8 92.91339 92.91339 92.91339 80.64228 84.78366 92.26835 
9 5.889087 52.37246 57.01759 14.66474 19.89227 30.61379 
10 98.42520 98.42520 98.42520 91.77029 96.49032 105.0208 
11 97.63780 97.63780 97.63780 90.12848 94.76313 103.1393 
12 96.85039 96.85039 96.85039 88.50412 93.05431 101.2779 
13 96.06299 96.06299 96.06299 86.89716 91.36379 99.43632 
14 95.27559 95.27559 95.27559 85.30756 89.69153 97.61466 
15 94.48819 94.48819 94.48819 83.73524 88.03745 95.81282 
16 93.70079 93.70079 93.70079 82.18017 86.40152 94.03074 
17 0.00000 0.00000 0.00000 1.000000 1.000000 1.000000 
18 92.12598 92.12598 92.12598 79.12152 83.18382 90.52559 
19 91.33858 91.33858 91.33858 77.61783 81.60194 88.80240 
20 90.55118 90.55118 90.55118 76.13117 80.03797 87.09872 
21 89.76378 89.76378 89.76378 74.66147 78.49185 85.41448 
22 88.97638 88.97638 88.97638 73.20868 76.96352 83.74961 
23 88.18898 88.18898 88.18898 71.77274 75.45291 82.10406 
24 87.40157 87.40157 87.40157 70.35360 73.95997 80.47775 
25 86.61417 86.61417 86.61417 68.95120 72.48465 78.87063 
26 85.82677 85.82677 85.82677 67.56549 71.02687 77.28263 
27 85.03937 85.03937 85.03937 66.19639 69.58659 75.71368 
28 84.25197 84.25197 84.25197 64.84387 68.16374 74.16371 
29 83.46457 83.46457 83.46457 63.50786 66.75825 72.63267 
30 82.67717 82.67717 82.67717 62.18830 65.37007 71.12048 
31 81.88976 81.88976 81.88976 60.88513 63.99914 69.62708 
32 81.10236 81.10236 81.10236 59.59830 62.64540 68.15240 
33 80.31496 80.31496 80.31496 58.32775 61.30878 66.69637 
34 79.52756 79.52756 79.52756 57.07341 59.98921 65.25893 
35 78.74016 78.74016 78.74016 55.83523 58.68665 63.84000 
36 77.95276 77.95276 77.95276 54.61315 57.40102 62.43952 
37 77.16535 77.16535 77.16535 53.40710 56.13226 61.05742 
38 76.37795 76.37795 76.37795 52.21703 54.88030 59.69362 
39 75.59055 75.59055 75.59055 51.04288 53.64509 58.34807 
40 74.80315 74.80315 74.80315 49.88458 52.42656 57.02068 
41 74.01575 74.01575 74.01575 48.74207 51.22464 55.71139 
42 73.22835 73.22835 73.22835 47.61529 50.03927 54.42012 
43 72.44094 72.44094 72.44094 46.50418 48.87038 53.14681 
44 71.65354 71.65354 71.65354 45.40867 47.71791 51.89139 
45 70.86614 70.86614 70.86614 44.32870 46.58179 50.65377 
46 70.07874 70.07874 70.07874 43.26422 45.46194 49.43389 
47 69.29134 69.29134 69.29134 42.21514 44.35832 48.23167 
48 68.50394 68.50394 68.50394 41.18142 43.27084 47.04705 
49 67.71654 67.71654 67.71654 40.16297 42.19944 45.87993 
50 66.92913 66.92913 66.92913 39.15975 41.14405 44.73026 
51 66.14173 66.14173 66.14173 38.17168 40.10460 43.59796 
52 65.35433 65.35433 65.35433 37.19870 39.08103 42.48294 
53 64.56693 64.56693 64.56693 36.24074 38.07325 41.38514 
54 63.77953 63.77953 63.77953 35.29774 37.08121 40.30447 
55 62.99213 62.99213 62.99213 34.36962 36.10483 39.24087 
56 62.20472 62.20472 62.20472 33.45631 35.14403 38.19424 
57 61.41732 61.41732 61.41732 32.55776 34.19876 37.16452 
58 60.62992 60.62992 60.62992 31.67389 33.26893 36.15162 
59 59.84252 59.84252 59.84252 30.80463 32.35447 35.15547 
60 59.05512 59.05512 59.05512 29.94991 31.45530 34.17598 
61 58.26772 58.26772 58.26772 29.10967 30.57136 33.21308 
62 57.48031 57.48031 57.48031 28.28382 29.70258 32.26668 
63 56.69291 56.69291 56.69291 27.47231 28.84886 31.33670 
64 55.90551 55.90551 55.90551 26.67505 28.01015 30.42306 
65 55.11811 55.11811 55.11811 25.89198 27.18635 29.52568 
66 54.33071 54.33071 54.33071 25.12302 26.37741 28.64446 
67 53.54331 53.54331 53.54331 24.36809 25.58323 27.77934 
68 52.75591 52.75591 52.75591 23.62713 24.80374 26.93021 
69 51.96850 51.96850 51.96850 22.90006 24.03886 26.09701 
70 51.18110 51.18110 51.18110 22.18681 23.28852 25.27963 
71 50.39370 50.39370 50.39370 21.48729 22.55262 24.47800 
72 49.60630 49.60630 49.60630 20.80143 21.83110 23.69202 
73 48.81890 48.81890 48.81890 20.12916 21.12387 22.92161 
74 48.03150 48.03150 48.03150 19.47039 20.43085 22.16668 
75 47.24409 47.24409 47.24409 18.82505 19.75195 21.42713 
76 46.45669 46.45669 46.45669 18.19306 19.08710 20.70288 
77 45.66929 45.66929 45.66929 17.57434 18.43620 19.99384 
78 44.88189 44.88189 44.88189 16.96880 17.79918 19.29991 
79 44.09449 44.09449 44.09449 16.37637 17.17594 18.62099 
80 43.30709 43.30709 43.30709 15.79696 16.56640 17.95700 
81 42.51969 42.51969 42.51969 15.23049 15.97048 17.30784 
82 41.73228 41.73228 41.73228 14.67688 15.38808 16.67342 
83 40.94488 40.94488 40.94488 14.13604 14.81911 16.05362 
84 40.15748 40.15748 40.15748 13.60789 14.26349 15.44837 
85 39.37008 39.37008 39.37008 13.09233 13.72113 14.85755 
86 38.58268 38.58268 38.58268 12.58929 13.19193 14.28108 
87 37.79528 37.79528 37.79528 12.09867 12.67580 13.71884 
88 37.00787 37.00787 37.00787 11.62038 12.17264 13.17073 
89 36.22047 36.22047 36.22047 11.15434 11.68237 12.63666 
90 35.43307 35.43307 35.43307 10.70045 11.20487 12.11651 
91 34.64567 34.64567 34.64567 10.25863 10.74007 11.61019 
92 33.85827 33.85827 33.85827 9.828766 10.28786 11.11758 
93 33.07087 33.07087 33.07087 9.410778 9.848137 10.63857 
94 32.28346 32.28346 32.28346 9.004568 9.420804 10.17306 
95 31.49606 31.49606 31.49606 8.610039 9.005759 9.720942 
96 30.70866 30.70866 30.70866 8.227092 8.602899 9.282093 
97 29.92126 29.92126 29.92126 7.855628 8.212119 8.856404 
98 29.13386 29.13386 29.13386 7.495547 7.833314 8.443759 
99 28.34646 28.34646 28.34646 7.146747 7.466377 8.044041 
100 27.55906 27.55906 27.55906 6.809125 7.111198 7.657133 
101 26.77165 26.77165 26.77165 6.482575 6.767667 7.282914 
102 25.98425 25.98425 25.98425 6.166992 6.435674 6.921262 
103 25.19685 25.19685 25.19685 5.862267 6.115104 6.572054 
104 24.40945 24.40945 24.40945 5.568292 5.805842 6.235165 
105 23.62205 23.62205 23.62205 5.284955 5.507771 5.910466 
106 22.83465 22.83465 22.83465 5.012142 5.220773 5.597830 
107 22.04724 22.04724 22.04724 4.749741 4.944726 5.297123 
108 21.25984 21.25984 21.25984 4.497633 4.679509 5.008212 
109 20.47244 20.47244 20.47244 4.255699 4.424995 4.730962 
110 19.68504 19.68504 19.68504 4.023820 4.181058 4.465234 
111 18.89764 18.89764 18.89764 3.801872 3.947569 4.210886 
112 18.11024 18.11024 18.11024 3.589730 3.724395 3.967775 
113 17.32283 17.32283 17.32283 3.387265 3.511402 3.735755 
114 16.53543 16.53543 16.53543 3.194348 3.308453 3.514676 
115 15.74803 15.74803 15.74803 3.010845 3.115408 3.304385 
116 14.96063 14.96063 14.96063 2.836620 2.932124 3.104727 
117 14.17323 14.17323 14.17323 2.671534 2.758453 2.915542 
118 13.38583 13.38583 13.38583 2.515445 2.594247 2.736667 
119 12.59843 12.59843 12.59843 2.368206 2.439353 2.567935 
120 11.81102 11.81102 11.81102 2.229669 2.293612 2.409175 
121 11.02362 11.02362 11.02362 2.099680 2.156863 2.260210 
122 10.23622 10.23622 10.23622 1.978081 2.028941 2.120860 
123 9.448819 9.448819 9.448819 1.864709 1.909674 1.990938 
124 8.661417 8.661417 8.661417 1.759399 1.798887 1.870255 
125 7.874016 7.874016 7.874016 1.661976 1.696398 1.758610 
126 7.086614 7.086614 7.086614 1.572262 1.602020 1.655800 
127 6.299213 6.299213 6.299213 1.490073 1.515557 1.561613 
128 5.511811 5.511811 5.511811 1.415217 1.436808 1.475829 
129 4.724409 4.724409 4.724409 1.347492 1.365562 1.398219 
130 3.937008 3.937008 3.937008 1.286692 1.301600 1.328543 
131 3.149606 3.149606 3.149606 1.229411 1.241340 1.262900 
132 2.362205 2.362205 2.362205 1.172058 1.181005 1.197175 
133 1.574803 1.574803 1.574803 1.114705 1.120670 1.131450 
134 0.787402 0.787402 0.787402 1.057353 1.060335 1.065725 
135 100.0000 0.00000 100.0000 59.70128 29.19948 97.04219 
136 100.0000 100.0000 0.00000 77.23538 92.85269 14.71507 
137 0.00000 100.0000 0.00000 36.40521 71.80052 12.80184 
138 0.00000 0.00000 100.0000 18.87111 8.147314 95.12896 
139 100.0000 0.00000 0.00000 41.83017 22.05217 2.913230 
140 0.00000 100.0000 100.0000 54.27632 78.94783 106.9308 
141 0.00000 30.41396 100.0000 21.53731 13.47897 96.01770 
142 100.0000 0.00000 31.50769 43.27643 22.63058 10.53083 
143 100.0000 41.47403 0.00000 46.90849 32.20739 4.606018 
144 0.00000 100.0000 38.41635 38.58617 72.67276 24.28919 
145 50.97555 100.0000 0.00000 45.51777 76.49898 13.22883 
146 47.35443 0.00000 100.0000 26.64379 12.15493 95.49317 
147 0.00000 67.46367 0.00000 15.61225 30.22042 5.870792 
148 0.00000 0.00000 59.44853 6.578429 3.231019 30.38216 
149 100.0000 55.97742 100.0000 69.38804 48.57030 100.2711 
150 53.29558 0.00000 0.00000 11.03697 6.175094 1.470315 
151 100.0000 100.0000 45.77929 80.39916 94.11800 31.37902 
152 56.46209 100.0000 100.0000 65.65987 84.81723 107.4642 
153 100.0000 0.00000 49.70149 45.60613 23.56231 22.80160 
154 0.00000 61.34900 100.0000 30.71485 31.83149 99.07691 
155 0.00000 53.69716 0.00000 9.846743 18.69101 3.948939 
156 0.00000 100.0000 63.20300 42.78913 74.35368 46.42658 
157 100.0000 18.42617 100.0000 60.70718 31.21101 97.37749 
158 72.17913 31.58487 0.00000 23.46381 16.85609 2.877559 
159 39.47868 43.74807 100.0000 29.83663 22.24353 97.27241 
160 36.59597 0.00000 59.60907 11.11303 5.565241 30.76770 
161 68.05383 100.0000 59.57723 59.19040 82.90033 43.12896 
162 0.00000 35.67871 41.13451 7.221424 9.411112 15.50242 
163 100.0000 38.61111 47.71796 49.65558 32.16798 22.58505 
164 100.0000 70.36826 0.00000 57.87760 54.14255 8.262420 
165 0.00000 0.00000 30.58885 2.361573 1.544543 8.171545 
166 67.90725 100.0000 0.00000 53.50334 80.61637 13.60302 
167 48.91880 0.00000 57.83679 14.58824 7.398665 29.05316 
168 34.23260 76.06114 0.00000 24.00924 41.19643 7.547228 
169 13.53563 100.0000 100.0000 54.94641 79.29333 106.9622 
170 69.51448 0.00000 0.00000 19.01041 10.28622 1.843936 
171 16.61140 0.00000 100.0000 19.83107 8.642274 95.17394 
172 100.0000 100.0000 73.31848 86.11211 96.40282 61.46970 
173 62.30868 0.00000 100.0000 33.00494 15.43477 95.79125 
174 29.29586 100.0000 73.25219 48.11400 76.81294 59.59569 
175 0.00000 72.55334 55.74935 23.02518 37.29155 32.25114 
176 28.87449 100.0000 16.09290 39.56997 73.38637 15.02210 
177 100.0000 87.71775 53.60172 72.58457 76.43619 35.11124 
178 58.36551 24.23953 100.0000 32.80741 17.84904 96.26767 
179 26.05541 0.00000 0.00000 3.253993 2.162166 1.105618 
180 27.83105 76.67882 100.0000 40.88107 48.34621 101.7293 
181 100.0000 100.0000 30.01246 78.54534 93.37659 21.61478 
182 0.00000 27.82459 0.00000 3.227906 5.455189 1.742641 
183 28.86341 52.58697 0.00000 12.21947 19.33117 3.947541 
184 52.09987 72.90354 100.0000 45.78983 47.79792 101.3649 
185 73.62205 0.00000 30.94611 22.86280 12.11128 9.302239 
186 100.0000 37.69507 100.0000 63.85372 37.50320 98.42635 
187 100.0000 27.16539 0.00000 43.95377 26.29877 3.621102 
188 100.0000 0.00000 84.24598 53.95237 26.90028 66.76212 
189 86.86292 100.0000 100.0000 83.94987 94.24761 108.3212 
190 100.0000 64.04909 60.15302 60.57941 50.38704 37.40763 
191 0.00000 50.66820 86.70578 21.73395 21.76897 71.72946 
192 88.40953 0.00000 72.14210 40.44216 20.34616 47.54432 
193 17.10852 100.0000 0.00000 37.41779 72.32261 12.84928 
194 62.19568 74.98580 0.00000 33.56953 45.23748 7.823745 
195 58.57420 62.16756 100.0000 43.40305 38.89457 99.77202 
196 43.10944 0.00000 26.57646 8.383877 4.688465 6.702530 
197 39.80424 12.42013 0.00000 6.871854 4.773563 1.419148 
198 0.00000 25.68087 73.71448 11.88344 8.391153 48.95350 
199 100.0000 48.47467 40.01860 51.29490 37.17656 17.79491 
200 0.00000 100.0000 88.00508 49.78194 77.15037 83.25846 
201 100.0000 37.52413 80.78551 56.97381 34.68875 62.38322 
202 0.00000 0.00000 86.67931 13.92605 6.169604 69.08284 
203 0.00000 60.39915 28.94788 13.66155 24.37153 11.22833 
204 49.48544 100.0000 39.22043 47.22938 77.11800 25.20092 
205 72.37961 100.0000 16.46425 56.52442 82.12622 15.90311 
206 100.0000 75.90979 41.46518 63.39810 61.08307 22.74375 
207 42.97690 100.0000 100.0000 60.59256 82.20451 107.2268 
208 0.00000 0.00000 13.48941 1.291590 1.116618 2.535835 
209 85.56785 0.00000 0.00000 29.68478 15.78997 2.344119 
210 0.00000 100.0000 12.36080 36.65692 71.90119 14.12764 
211 62.17892 0.00000 71.01396 23.33554 11.56012 45.19990 
212 0.00000 86.41648 74.47577 35.62621 55.53632 57.89708 
213 0.00000 26.81318 16.29751 3.475053 5.299908 3.828115 
214 100.0000 31.65459 32.65760 46.27926 28.45909 12.07552 
215 58.68954 100.0000 70.11562 56.83123 81.40280 55.70627 
216 0.00000 85.97917 12.59189 26.40361 51.38481 10.74876 
217 13.15866 100.0000 51.25402 41.07977 73.74392 34.08912 
218 31.73948 0.00000 31.58277 5.807474 3.310650 8.811914 
219 82.52232 100.0000 0.00000 62.84135 85.43108 14.04059 
220 0.00000 73.65791 100.0000 36.63948 43.67909 101.0518 
221 100.0000 87.85430 100.0000 86.10005 81.98964 105.8419 
222 75.87345 75.59714 0.00000 41.72549 49.94568 8.303004 
223 100.0000 85.96628 0.00000 66.96568 72.31616 11.29180 
224 29.28866 57.78575 100.0000 32.10441 30.38261 98.72405 
225 0.00000 49.07230 64.52242 14.95984 18.22581 38.62136 
226 15.81961 29.04044 0.00000 4.307517 6.308798 1.850552 
227 28.52125 14.64575 100.0000 22.23692 10.87077 95.47739 
228 67.48951 32.81200 100.0000 38.85026 23.06960 96.95713 
229 0.00000 14.67517 100.0000 19.53918 9.483269 95.35165 
230 37.34823 81.20347 32.07846 29.30527 48.23156 16.49209 
231 72.44937 47.83577 0.00000 27.63631 24.95666 4.221448 
232 100.0000 63.32581 72.42845 63.17000 50.90684 52.64472 
233 100.0000 56.40050 29.77236 52.96651 42.25991 12.98406 
234 0.00000 15.19219 58.08023 7.010421 4.539473 29.15503 
235 85.78181 36.74017 35.30896 35.61108 24.47484 13.29588 
236 67.66695 79.61805 27.90865 40.24563 52.49360 14.80409 
237 42.50183 49.24267 83.53805 26.39504 23.60011 66.38000 
238 29.88101 26.03530 0.00000 5.917883 6.431967 1.789512 
239 75.85477 45.81927 69.66392 37.08280 28.00796 45.83818 
240 11.94730 0.00000 41.70751 4.137667 2.317751 14.68841 
241 75.35644 0.00000 58.73432 27.99440 14.29006 30.62303 
242 33.91701 54.89606 51.98204 18.28839 23.20949 26.19212 
243 88.56081 100.0000 41.39959 69.95840 88.80529 27.70445 
244 0.00000 22.90508 31.51040 3.965003 4.615068 9.125106 
245 0.00000 82.59571 25.05951 24.88304 47.29803 13.46795 
246 31.26863 32.00298 61.39810 13.20020 10.98799 33.68204 
247 12.07615 74.34958 0.00000 19.69661 37.56677 7.073736 
248 35.99233 100.0000 45.69807 43.90506 75.30291 29.60626 
249 100.0000 9.615201 40.77657 44.63719 23.70926 16.04979 
250 75.15616 0.00000 100.0000 40.30521 19.19881 96.13332 
251 85.27096 25.28228 0.00000 31.30240 19.35709 2.947480 
252 100.0000 88.10448 85.02122 80.77408 80.13173 76.95019 
253 75.48484 100.0000 73.36746 66.93952 86.51584 60.64045 
254 100.0000 15.75584 65.84302 49.57595 26.36134 39.97521 
255 100.0000 100.0000 16.42963 77.64731 93.01743 16.88473 
256 31.62669 0.00000 100.0000 22.20094 9.864186 95.28499 
257 87.10951 60.42032 100.0000 60.18785 46.44750 100.3459 
258 57.02186 38.34543 20.85060 17.57610 15.86040 6.351190 
259 44.72369 24.30387 0.00000 9.580500 7.953337 1.890277 
260 83.48489 73.30888 100.0000 63.58731 57.29528 102.2608 
261 100.0000 100.0000 100.0000 95.10649 100.0000 108.8440 
262 53.48641 0.00000 33.95158 12.80149 6.889856 10.35519 
263 61.41359 87.60140 100.0000 58.78876 67.65361 104.5130 
264 100.0000 13.83492 12.83950 42.70161 23.36573 4.527000 
265 0.00000 72.98993 69.75596 26.35472 38.99354 48.64590 
266 47.24276 68.72345 69.02827 31.71939 38.53715 47.31528 
267 100.0000 76.16563 14.52338 61.31075 60.47809 11.04067 
268 0.00000 82.23916 0.00000 23.74708 46.48779 8.582423 
269 53.28918 63.66019 0.00000 23.88473 31.87091 5.753689 
270 100.0000 100.0000 58.21922 82.56375 94.98370 42.78016 
271 100.0000 13.11869 0.00000 42.38115 23.15398 3.096893 
272 12.52881 0.00000 23.73338 2.409373 1.631691 5.352969 
273 25.24564 42.12699 100.0000 26.23815 19.73649 96.97800 
274 0.00000 40.56561 15.37191 6.211645 10.83656 4.542214 
275 24.72581 0.00000 64.83735 9.787222 4.749454 36.67179 
276 0.00000 54.38982 14.92460 10.44452 19.33079 5.861735 
277 43.37323 14.17278 100.0000 25.94083 12.72576 95.64038 
278 51.34358 0.00000 15.96551 10.64705 5.928786 3.494794 
279 41.47918 60.14248 19.53492 18.76122 26.91798 8.035044 
280 100.0000 100.0000 100.0000 95.10649 100.0000 108.8440 
281 73.66351 15.76298 100.0000 40.12332 20.22970 96.34190 
282 100.0000 0.00000 66.75508 49.03510 24.93368 40.86233 
283 73.10017 100.0000 36.13819 58.47056 82.95550 23.85460 
284 58.18804 26.36131 0.00000 15.15975 11.26949 2.236541 
285 92.35986 59.95381 38.91375 48.58981 41.98816 18.15257 
286 71.59772 0.00000 86.33043 33.04318 16.04001 69.36733 
287 47.71034 100.0000 84.16005 56.39846 80.71019 76.87424 
288 77.63462 42.39511 24.85371 30.26836 23.88329 8.587551 
289 14.54281 0.00000 11.26579 1.974615 1.477501 2.174566 
290 56.23660 12.03582 43.15458 15.55053 8.887902 16.37757 
291 0.00000 46.01582 100.0000 25.20862 20.82057 97.24148 
292 8.311110 55.02802 67.52236 18.03179 22.77609 43.04856 
293 52.72682 49.64664 100.0000 36.13952 28.12677 98.07608 
294 43.10026 0.00000 87.30290 20.49180 9.530535 70.49124 
295 100.0000 0.00000 16.41044 42.24123 22.21657 5.078341 
296 40.25196 0.00000 0.00000 6.497415 3.834485 1.257599 
297 59.46210 26.76241 29.00910 17.03560 12.18572 8.725677 
298 0.00000 40.78664 0.00000 5.901791 10.80221 2.633944 
299 86.45122 100.0000 64.97007 72.54743 89.65075 49.91532 
300 31.34042 100.0000 31.17297 41.08882 74.05173 20.40828 
301 54.61583 41.16152 77.90506 26.75135 20.51850 56.71436 
302 88.09419 85.90309 100.0000 74.59677 74.12186 104.9290 
303 100.0000 27.48160 54.85750 48.68187 28.26918 28.27945 
304 14.33693 57.33753 0.00000 11.94889 21.79677 4.437725 
305 0.00000 81.36314 48.06793 26.71912 46.81050 26.90700 
306 56.94112 92.44257 49.01540 45.88075 67.67716 30.71723 
307 17.84349 73.74070 51.64359 24.00907 38.82559 28.59819 
308 73.74962 93.15599 41.95132 54.31523 72.91850 25.84282 
309 49.02692 100.0000 56.13219 49.70038 78.08658 39.10362 
310 83.57283 62.28444 0.00000 40.44509 39.51164 6.356367 
311 32.85678 100.0000 86.07561 52.72980 78.74581 79.98817 
312 22.34459 22.13926 92.28246 18.98410 10.66062 79.99336 
313 43.09089 100.0000 12.14966 43.00179 75.17344 14.38798 
314 55.14258 28.00541 79.63215 24.74740 15.35862 58.51143 
315 100.0000 42.12053 25.54445 48.02650 32.92546 9.659121 
316 100.0000 50.65382 13.51666 49.91696 37.75541 7.052449 
317 24.03112 85.66601 0.00000 27.86034 51.86008 9.402792 
318 25.99917 15.06923 56.46346 8.926953 5.549433 27.58322 
319 60.79731 56.67319 30.76815 25.71936 28.35590 12.20211 
320 0.00000 50.86289 47.06938 12.22221 18.06892 21.30926 
321 84.93465 17.03279 67.90479 37.56257 20.27889 42.02662 
322 85.42382 38.09701 0.00000 33.82180 24.22426 3.754294 
323 100.0000 85.09075 27.21624 67.46802 71.59946 16.76756 
324 27.85694 100.0000 100.0000 56.85158 80.27565 107.0515 
325 0.00000 17.37317 87.01176 14.94113 8.020032 69.97461 
326 14.66018 71.06191 75.27206 27.58484 37.96057 56.08766 
327 76.15588 0.00000 14.42940 23.40470 12.51406 3.759161 
328 100.0000 51.70321 57.29814 55.12392 40.40444 32.73064 
329 63.05098 100.0000 85.29249 63.37745 84.26580 79.13202 
330 0.00000 87.14782 100.0000 44.79294 59.98373 103.7696 
331 22.99103 45.82797 21.02170 9.696205 14.73210 6.600947 
332 0.00000 100.0000 50.64133 40.33730 73.37311 33.51259 
333 66.53630 18.95685 13.98541 18.71224 11.67019 3.753058 
334 82.56609 83.56137 43.91075 53.94030 62.95466 25.34343 
335 0.00000 0.00000 72.86349 9.754243 4.501144 47.10950 
336 0.00000 72.80530 33.48363 19.95107 36.27550 15.40136 
337 0.00000 40.78964 54.87787 10.58478 12.67633 27.29596 
338 100.0000 29.50106 90.69327 58.65495 32.79077 79.16490 
339 100.0000 75.29693 86.62012 73.40049 64.53695 77.11264 
340 64.05026 59.64582 44.78500 30.17172 32.21368 21.31367 
341 100.0000 76.08710 71.69014 69.37837 63.63399 53.75157 
342 58.41110 89.57337 0.00000 40.84244 62.47563 10.76816 
343 29.61431 100.0000 58.65505 44.73445 75.46862 41.46633 
344 100.0000 100.0000 100.0000 95.10649 100.0000 108.8440 
345 77.86182 0.00000 46.27677 27.43840 14.25720 19.14172 
346 24.14631 51.88214 52.44745 15.39269 20.11430 26.17351 
347 16.66471 42.77399 84.71316 19.66190 17.24955 67.50214 
348 14.26220 100.0000 28.88926 38.35106 72.66353 19.22371 
349 77.73729 46.67993 100.0000 48.52383 33.13560 98.39067 
350 38.99721 0.00000 12.21639 6.389352 3.750214 2.541191 
351 0.00000 100.0000 25.40858 37.34393 72.17595 17.74616 
352 12.86187 15.95629 0.00000 2.389025 2.865558 1.286950 
353 13.99544 42.24180 0.00000 6.989411 11.92402 2.793202 
354 88.95718 72.83603 0.00000 49.64287 51.79842 8.243644 
355 71.42820 100.0000 100.0000 73.40921 88.81281 107.8273 
356 12.65283 78.60170 27.92097 23.27939 42.85361 13.84212 
357 100.0000 51.28897 72.83916 58.58535 41.56339 51.65756 
358 91.65407 29.38634 100.0000 54.86072 30.39432 97.52777 
359 12.14506 0.00000 73.04547 10.36167 4.808685 47.39307 
360 23.70287 38.99806 60.23923 13.07378 13.17935 32.82217 
361 100.0000 72.47967 100.0000 76.84151 63.47515 102.7556 
362 30.25496 62.10255 32.67984 17.76750 27.52190 13.40770 
363 0.00000 74.34288 84.23574 31.25850 42.12095 70.87800 
364 0.00000 13.48313 42.25025 4.243389 3.220583 15.23538 
365 23.69858 68.10077 0.00000 17.79122 31.80115 6.061157 
366 84.19094 65.26677 45.41956 45.34416 43.65626 23.20684 
367 19.08095 0.00000 32.93692 3.821643 2.271638 9.400836 
368 34.10628 78.10290 54.10270 29.68579 45.33041 31.84356 
369 60.95791 100.0000 28.11008 51.02053 79.20346 19.47857 
370 48.41363 84.25184 100.0000 51.04245 60.38282 103.5175 
371 88.30589 16.59425 32.26868 34.14789 19.14860 10.71908 
372 28.35190 29.34029 100.0000 24.01793 14.48000 96.08028 
373 18.40922 64.36691 100.0000 33.19696 35.07632 99.57253 
374 25.56175 0.00000 47.92684 6.661438 3.515247 19.48993 
375 88.96158 100.0000 82.80481 79.38301 92.61131 75.68508 
376 69.35426 31.67740 52.64729 26.09287 17.74248 25.33665 
377 41.31208 80.61655 22.35376 29.28985 47.78204 12.37396 
378 63.14105 85.68457 81.69375 51.81517 62.92103 69.57623 
379 77.74671 72.37765 53.14485 45.57624 48.83694 30.77596 
380 83.14446 23.75471 78.75610 39.93470 22.28863 57.67637 
381 60.33127 11.77326 100.0000 32.49607 15.85540 95.89924 
382 64.89942 0.00000 43.41801 19.29003 10.10360 16.60600 
383 40.04578 15.13911 74.95089 16.46805 8.943960 50.60243 
384 100.0000 14.83663 27.50622 43.61009 23.85343 8.928472 
385 100.0000 100.0000 87.85016 90.55898 98.18129 84.89187 
386 68.06653 42.30953 59.24259 29.02119 22.67004 32.73037 
387 0.00000 59.91357 58.51312 17.63008 25.63659 33.12431 
388 0.00000 34.97442 27.83213 5.677344 8.553358 8.110437 
389 66.97675 34.39036 29.79990 22.30421 16.92628 9.721521 
390 0.00000 14.70280 12.56668 1.929003 2.443827 2.586203 
391 87.05511 0.00000 86.75660 43.77404 21.55631 70.61733 
392 87.23349 100.0000 12.67512 66.62778 87.35301 15.58821 
393 16.01468 29.39043 46.97150 7.729615 7.774799 19.48024 
394 42.99108 12.80911 9.243304 8.008776 5.380846 2.309247 
395 52.58164 82.39290 70.15233 41.63467 54.92232 51.44424 
396 90.32598 25.32797 51.57034 39.35237 23.04435 24.67774 
397 90.31866 69.11125 25.55629 49.77448 48.91865 12.65876 
398 28.79357 80.69506 91.08484 40.00898 51.79174 84.55015 
399 80.22093 66.60662 75.79651 49.57257 46.01821 57.25753 
400 59.69500 58.24595 71.19501 32.74189 32.08714 48.91333 
401 59.26608 33.46244 67.66354 24.32554 16.97948 41.77817 
402 12.72841 74.68789 100.0000 37.80332 45.11018 101.2667 
403 23.17782 0.00000 78.38858 13.10116 6.046950 55.38450 
404 87.83558 13.70299 100.0000 49.89358 25.02327 96.75261 
